fuyw/jrlzoo/sac/curves/walker2d-v4/sac_s2_20230311_093648.csv
,step,reward,actor_loss,alpha,alpha_loss,critic_loss,logp,next_q,q1,sampled_q,target_q,eval_time,eval_step,time
0,0,-1.1520270722125885,,,,,,,,,,,,
1,10000,-1.1883953746906775,,,,,,,,,,,,
2,20000,313.03369745927716,-75.02903,0.12548894,0.19516772,34.81241,1.4447416,72.43787,71.86223,75.21033,71.92364,0.5252163410186768,186.9,0.31000721057256064
3,30000,546.5168116510932,-100.78236,0.09136624,0.0042403247,56.945663,2.9535897,99.48862,98.27522,101.052216,98.70384,0.9940297603607178,367.0,0.5022919933001201
4,40000,456.4802488058026,-104.57375,0.077880435,-0.026163938,32.58895,3.3359501,103.16815,102.73338,104.83356,102.71357,0.7728164196014404,285.0,0.6951351404190064
5,50000,608.1639613533165,-111.17517,0.07766059,-0.03308352,33.599403,3.4260013,109.79668,108.95221,111.44124,109.99576,0.8849823474884033,331.6,0.8898455381393433
6,60000,346.4885660796093,-116.528564,0.07888523,0.0344732,36.895187,2.5629954,115.210945,115.079926,116.73074,115.17096,0.5620434284210205,198.9,1.0752375404040018
7,70000,427.89030461614203,-119.94722,0.078378975,0.02806668,30.528873,2.6419106,119.112526,118.893745,120.1543,119.191696,0.7080166339874268,254.5,1.2645669102668762
8,80000,209.63626867316938,-121.296555,0.07652711,-0.024182113,27.093332,3.315994,118.922325,119.46506,121.55032,118.80513,0.36800622940063477,128.0,1.450347379843394
9,90000,441.9026063348871,-120.002975,0.07807944,-0.031166429,24.402765,3.3991632,118.06551,117.368,120.26839,117.76149,0.7384321689605713,263.3,1.639505934715271
10,100000,365.336943659374,-117.64679,0.074317224,-0.009479808,29.431086,3.1275587,116.87293,116.50986,117.87923,117.0219,0.5330674648284912,192.3,1.8281791965166727
11,110000,275.34246380489304,-115.10797,0.06863189,0.01229265,17.03542,2.8208902,114.21307,114.148506,115.30158,114.36627,0.3995976448059082,147.4,2.015730309486389
12,120000,295.3019325903648,-120.85882,0.06466973,-0.035306014,18.708118,3.5459435,119.92695,120.63158,121.088135,120.22408,0.5034692287445068,177.0,2.202566913763682
13,130000,308.83560455671176,-119.41153,0.06975246,0.00018772762,21.299133,2.9973087,119.80963,118.98998,119.620605,119.89299,0.48204493522644043,172.1,2.38682089249293
14,140000,474.9355883601253,-116.02733,0.067804806,-0.010614721,20.006554,3.1565483,115.911,115.920074,116.24136,116.14409,0.6277289390563965,231.9,2.575205385684967
15,150000,433.7555983187575,-113.833694,0.06635881,-0.0020822878,18.850468,3.0313792,113.33888,113.46576,114.03485,113.67392,0.5173182487487793,181.5,2.7648250619570414
16,160000,620.0700862396218,-119.72601,0.067660265,-0.045455057,19.676908,3.6718132,118.89195,119.088196,119.97446,119.25453,1.1435699462890625,396.9,2.958590543270111
17,170000,892.4767691475514,-117.35298,0.07009093,-0.0016547553,14.819002,3.0236087,116.501755,117.12471,117.5649,117.05508,0.9707098007202148,363.7,3.155288815498352
18,180000,982.8343379857333,-125.91701,0.07140515,0.031469844,12.276978,2.5592775,125.44011,125.39792,126.099754,125.87583,1.1511602401733398,389.2,3.354508666197459
19,190000,930.4981046252236,-134.47687,0.07395148,0.018371955,20.842281,2.7515674,134.11115,134.17725,134.68033,134.44441,1.0124807357788086,364.2,3.5548287510871885
20,200000,1037.3241188174093,-138.03864,0.076593004,0.0033673714,32.25092,2.9560356,137.93513,137.4335,138.26505,137.82396,0.9408161640167236,349.2,3.7474886457125347
21,210000,1954.0423674301019,-140.24118,0.078801036,-0.029772049,29.537457,3.3778129,138.3901,139.70786,140.50735,139.44037,1.8629634380340576,701.4,3.958356817563375
22,220000,1650.2194871227318,-147.08528,0.08276863,-0.03655253,21.59725,3.441623,146.64485,146.15063,147.37013,146.50249,1.456451654434204,534.3,4.161486697196961
23,230000,2100.666628300069,-153.2797,0.08604675,0.011648804,23.555511,2.8646224,152.37561,152.82005,153.52617,152.71909,1.882371187210083,711.8,4.367945834000905
24,240000,1520.0645730146923,-163.75946,0.092683926,0.0126171075,21.991669,2.8638697,163.80154,163.08661,164.0249,163.81302,1.2825329303741455,448.1,4.566834863026937
25,250000,2836.812041199545,-161.23021,0.09501986,-0.032398097,29.5343,3.3409615,160.5142,160.12292,161.54767,160.67755,2.1373445987701416,830.3,4.779769269625346
26,260000,2750.465645438377,-167.38196,0.096784584,0.045371253,30.715124,2.531214,165.45898,166.58939,167.62695,165.99304,2.2423110008239746,794.3,4.995397639274597
27,270000,3016.989821336606,-176.27191,0.101501584,0.023132365,36.689423,2.7720985,175.73618,175.8783,176.55328,176.26744,2.4210901260375977,902.6,5.2150969982147215
28,280000,3137.8195134426783,-185.43765,0.1022194,0.00024796836,26.47778,2.9975743,185.46552,185.57513,185.74405,185.7272,2.2179744243621826,850.0,5.430119359493256
29,290000,3186.914217033175,-195.24329,0.10761808,0.0018312791,29.80686,2.9829836,193.98788,195.06557,195.5643,194.2821,2.419562578201294,914.6,5.6493034561475115
30,300000,3479.21975842456,-196.16672,0.10695827,-0.016997084,36.267258,3.1589131,195.17352,195.58217,196.50461,195.40321,2.472907066345215,945.7,5.871210439999898
31,310000,3207.60106738358,-202.68372,0.109840885,-0.0042827316,28.508224,3.0389905,201.70015,202.07162,203.01753,202.20177,2.322406053543091,878.7,6.090565697352091
32,320000,2060.969417301319,-203.7565,0.11332847,0.0011528335,28.841473,2.9898274,203.38014,203.85524,204.09534,203.75116,1.4562551975250244,557.0,6.295277591546377
33,330000,3427.7949413325086,-204.08693,0.11443068,-0.0067640375,30.532223,3.0591106,202.80212,203.99812,204.43698,203.18094,2.434812307357788,938.7,6.5122783859570825
34,340000,3838.9570730243495,-215.0924,0.116406985,-0.042082895,28.929382,3.3615153,214.40715,214.73904,215.4837,214.90271,2.5622217655181885,1000.0,6.732438695430756
35,350000,3799.278736534049,-218.84326,0.11878084,-0.014284712,24.956467,3.1202612,218.17206,218.76828,219.21387,218.51509,2.5487613677978516,1000.0,6.953684985637665
36,360000,3632.716243854299,-221.79926,0.119895086,-0.007273707,20.04044,3.0606675,221.25674,221.65004,222.16623,221.63135,2.6507315635681152,1000.0,7.176903657118479
37,370000,3259.062073932201,-223.78494,0.11863225,-0.020875875,40.467712,3.1759713,223.63948,223.84177,224.16171,223.88211,2.297146797180176,857.5,7.393597928682963
38,380000,3763.6613716785687,-232.21622,0.11826152,-0.011724049,46.988907,3.0991368,232.03787,231.50832,232.58272,231.87506,2.650028944015503,1000.0,7.613257686297099
39,390000,3695.0856070126874,-232.26552,0.119008765,-0.010373775,37.898552,3.0871682,231.1152,231.48485,232.63292,231.50119,2.634094476699829,1000.0,7.836916561921438
40,400000,3603.0421215528368,-223.9107,0.11615141,-0.023289446,46.017113,3.2005093,223.18726,224.0553,224.28244,223.63113,2.3778908252716064,904.8,8.054280396302541
41,410000,3768.160558665906,-233.12662,0.11828233,0.014873875,31.030321,2.8742511,232.93497,233.1652,233.46658,232.58347,2.6687512397766113,989.6,8.274080729484558
42,420000,3834.586696157682,-241.35172,0.11877799,0.00784965,45.105713,2.9339132,240.33673,241.45328,241.70021,240.69298,2.646049976348877,1000.0,8.496050687630971
43,430000,3743.9826001365154,-239.02878,0.116658024,0.012738345,23.876064,2.8908062,237.7288,238.85468,239.36603,238.00696,2.626235246658325,1000.0,8.714047571023306
44,440000,3263.698412125448,-235.25894,0.11813289,-0.014125971,27.014515,3.1195772,235.9201,235.10303,235.62746,236.36304,2.299543857574463,857.2,8.928314967950184
45,450000,3819.7862163579543,-242.49808,0.11756718,0.018030299,37.980534,2.8466382,243.53354,242.15408,242.83276,243.90977,2.6179492473602295,1000.0,9.150448803106944
46,460000,3383.530813642266,-247.8506,0.11486469,0.07122341,29.954008,2.3799365,247.61769,247.9748,248.12396,247.81969,2.332958459854126,904.2,9.366481951872508
47,470000,3847.4660744386956,-252.4897,0.11600948,0.011486923,33.87536,2.9009829,252.45023,252.34985,252.82625,252.61447,2.7011473178863525,1000.0,9.589911456902822
48,480000,3492.7653592090196,-259.9714,0.11861437,0.078295335,27.106316,2.339917,258.53748,259.97192,260.24896,258.71353,2.4188613891601562,918.1,9.804289134343465
49,490000,3721.086063588316,-257.3258,0.11590864,0.027015187,26.563791,2.7669268,256.01254,256.84198,257.64648,256.2361,2.4939727783203125,960.0,10.023646473884583
50,500000,3849.491131987584,-268.1536,0.11412274,0.031805295,23.636133,2.7213063,268.09192,267.99722,268.46414,268.32373,2.585332155227661,985.4,10.241822719573975
51,510000,4046.593208975464,-265.32413,0.11283355,0.047702923,20.926247,2.5772276,265.3777,265.33743,265.61493,265.58392,2.66568922996521,1000.0,10.466468012332916
52,520000,3980.520687235662,-267.95,0.11222082,-0.014146976,29.870697,3.1260638,266.99756,267.21332,268.30084,267.18488,2.6678364276885986,1000.0,10.686562156677246
53,530000,3899.381849507062,-269.39136,0.113930404,0.005780615,21.773338,2.949262,269.42203,269.32648,269.72742,269.56122,2.704271078109741,1000.0,10.910597956180572
54,540000,3947.0499460216315,-269.58582,0.11246937,0.011949604,29.514212,2.8937523,269.88214,269.23218,269.9113,270.10168,2.661431074142456,1000.0,11.134669848283131
55,550000,3538.1332921260996,-272.30188,0.11215909,0.017975843,35.63782,2.8397288,270.6353,271.0585,272.6204,271.04758,2.331934928894043,892.9,11.34858407576879
56,560000,3594.4329218467165,-271.64874,0.11431264,0.022098083,29.311707,2.8066874,271.6027,271.2533,271.9696,271.781,2.463514566421509,933.2,11.569221285978953
57,570000,3788.244838542352,-271.4361,0.11300151,-0.045741342,26.449549,3.4047852,270.9698,271.3826,271.82086,271.2378,2.4990780353546143,953.7,11.791322688261667
58,580000,3978.3414537308977,-283.25732,0.11399828,-0.022197727,21.368635,3.1947198,282.24216,283.00858,283.62152,282.47168,2.62688946723938,1000.0,12.013785847028096
59,590000,3876.7920254022565,-280.71457,0.11227237,0.0009558704,39.04296,2.991486,280.02405,279.9658,281.0504,279.961,2.651552677154541,1000.0,12.23517796198527
60,600000,1786.992849509083,-282.98248,0.11575663,0.017663853,28.474125,2.8474052,283.16437,283.2511,283.31207,283.33435,1.3276855945587158,488.4,12.434903713067373
61,610000,3707.219857235046,-279.3789,0.1125498,0.01070378,26.042488,2.9048975,278.90063,279.54388,279.70587,279.1612,2.5885486602783203,965.3,12.652638709545135
62,620000,4022.561380012031,-277.7905,0.11519318,-0.021778623,34.132652,3.1890616,277.09662,277.71436,278.15787,277.3321,2.6356728076934814,1000.0,12.873988894621531
63,630000,3822.784150617002,-287.28207,0.11364079,-0.025962964,36.16749,3.228465,286.63684,287.7945,287.649,286.9914,2.6226727962493896,977.4,13.096512083212534
64,640000,4058.4502406623346,-280.47168,0.11445855,-0.0027313,29.356045,3.0238628,279.6142,280.34064,280.81775,279.85394,2.682003974914551,1000.0,13.317346962292989
65,650000,4027.2935376740306,-288.03107,0.113405526,-0.033275016,26.532124,3.2934163,287.43396,288.00848,288.40457,287.69565,2.6210811138153076,1000.0,13.537768467267354
66,660000,3778.839899994085,-287.0279,0.11266201,0.016833385,45.306202,2.850585,287.37024,286.6568,287.34906,287.6489,2.4628889560699463,940.4,13.757178417841594
67,670000,4025.1661485588606,-291.88647,0.11186283,0.0367627,22.242195,2.6713593,291.46747,292.03625,292.18527,291.66174,2.6862082481384277,1000.0,13.980770699183147
68,680000,4061.9153256927516,-286.68005,0.1117966,-0.03413914,24.908485,3.3053682,285.62268,286.84158,287.04956,285.8949,2.6240663528442383,1000.0,14.200456674893697
69,690000,4066.9989430531577,-291.0373,0.11133348,0.055665713,23.801836,2.500009,290.54865,290.85648,291.31564,290.7778,2.631014347076416,1000.0,14.426301801204682
70,700000,4117.394976894244,-294.0558,0.117733106,-0.015915906,28.820839,3.1351862,294.13892,294.6293,294.42493,294.5293,2.721874952316284,1000.0,14.648659896850585
71,710000,3860.8071470054683,-294.31702,0.11044611,-0.06255096,20.655853,3.566348,294.04834,293.94098,294.7109,294.28052,2.4523394107818604,938.0,14.866813190778096
72,720000,4089.4623330839922,-300.16232,0.11170732,-0.033734854,26.506638,3.3019934,299.655,300.1645,300.5312,299.79614,2.681497097015381,1000.0,15.090485803286235
73,730000,4102.852597439698,-299.9862,0.11168558,-0.022906244,25.366776,3.2050958,299.68497,299.45236,300.34418,300.03925,2.6546103954315186,1000.0,15.315408635139466
74,740000,4107.594421775865,-297.4911,0.11025803,0.008474572,27.667625,2.9231386,296.78363,296.85297,297.81342,296.99408,2.601208448410034,1000.0,15.53412177960078
75,750000,3845.392012865023,-299.9206,0.111683026,0.011859324,30.564442,2.8938127,299.1208,299.4934,300.24377,299.6076,2.561452865600586,940.1,15.75291873216629
76,760000,4042.168671342794,-303.1163,0.1117837,-0.0051555578,20.687153,3.0461206,302.6428,303.3256,303.45685,302.78436,2.6082663536071777,989.6,15.97546694278717
77,770000,4056.7943075632893,-311.02054,0.115904026,-0.00064117415,18.832275,3.0055318,310.7363,311.26486,311.3689,311.08948,2.6134278774261475,960.2,16.19497721195221
78,780000,4249.247905525169,-308.51508,0.11268925,0.020693406,18.00154,2.8163676,308.66388,308.6687,308.83246,308.80804,2.694174289703369,1000.0,16.417513620853423
79,790000,4266.7232524211495,-311.14246,0.11149187,0.016297942,19.187147,2.8538194,310.86426,310.8724,311.46063,311.0318,2.5934951305389404,1000.0,16.638261743386586
80,800000,4096.190532766195,-313.70737,0.109657176,0.027986687,14.961603,2.74478,313.62482,313.46747,314.00836,313.7317,2.721771240234375,1000.0,16.863594885667165
81,810000,4218.206358201579,-309.32898,0.109824285,-0.048640188,21.576488,3.4428911,309.50427,308.80487,309.7071,309.85986,2.721360921859741,1000.0,17.082862647374473
82,820000,4089.080147870382,-313.1857,0.110389836,-0.017229745,31.133915,3.1560812,312.9898,314.0722,313.5341,313.26227,2.728533983230591,1000.0,17.306556582450867
83,830000,4017.982140173255,-309.78192,0.115385644,0.004622288,28.36916,2.9599404,309.54138,309.6715,310.12347,309.96356,2.4636759757995605,948.1,17.52519561847051
84,840000,4127.524814712538,-318.39587,0.111909755,-0.00013057468,23.272556,3.0011668,318.1881,318.3103,318.73175,318.37164,2.6564292907714844,1000.0,17.744560050964356
85,850000,4193.6844176137065,-309.38507,0.11124919,0.0045165736,17.173977,2.9594011,309.68027,310.20557,309.71426,309.88025,2.592060089111328,990.4,17.964698680241902
86,860000,4106.623526415233,-317.4451,0.10869389,0.01574767,16.142532,2.8551192,317.1829,317.87656,317.75543,317.35245,2.5156280994415283,963.2,18.183550786972045
87,870000,4149.596211124273,-305.59457,0.10846133,-0.0011793617,21.289719,3.0108738,304.9002,304.59634,305.92114,305.11783,2.5992114543914795,1000.0,18.40584350824356
88,880000,4018.2374687256656,-325.4445,0.114085555,-0.005409261,15.233123,3.0474143,324.96622,325.28574,325.79218,325.17456,2.624983072280884,1000.0,18.630535729726155
89,890000,4115.971090828805,-320.16263,0.107683785,-0.012395695,19.982063,3.115112,320.20584,320.59393,320.49805,320.33035,2.6372082233428955,1000.0,18.8526748140653
90,900000,4207.8008853051215,-322.52032,0.11099214,0.017604243,20.24353,2.841392,322.25208,322.74323,322.83572,322.45728,2.620067596435547,973.7,19.072531640529633
91,910000,4270.801763149311,-326.27832,0.10903054,0.013356069,20.488276,2.8775015,325.47623,325.99146,326.59204,325.71265,2.6649506092071533,1000.0,19.297519795099895
92,920000,4318.054432444468,-322.44165,0.11100375,-0.041009646,18.086273,3.369444,322.58316,322.4706,322.81567,322.83282,2.66135573387146,1000.0,19.520119845867157
93,930000,4499.28344761563,-326.64935,0.10818578,0.029459992,21.668943,2.7276907,325.45764,326.41428,326.94446,325.68433,2.646099090576172,1000.0,19.74160783290863
94,940000,4297.891515203222,-327.77643,0.108570404,-0.0020237286,14.72844,3.0186398,327.537,327.97992,328.10416,327.66907,2.6351985931396484,1000.0,19.964823905626933
95,950000,4284.162237763821,-327.14856,0.10601367,0.012268551,19.843945,2.8842738,327.1482,326.5464,327.45435,327.04315,2.6258304119110107,1000.0,20.18371571302414
96,955000,4465.185408243133,-323.86194,0.10599751,0.0061212257,18.035685,2.9422512,323.65903,323.64105,324.17377,323.82214,2.5647053718566895,1000.0,20.316254075368246
97,960000,4336.2767939375135,-328.01898,0.10794955,-0.029302983,19.55718,3.2714508,327.34845,328.48373,328.37216,327.54608,2.62772798538208,1000.0,20.449968242645262
98,965000,4315.636834318551,-337.60144,0.10396706,0.026755324,14.038273,2.7426558,338.11917,337.79468,337.88657,338.18793,2.684074640274048,1000.0,20.583500707149504
99,970000,4528.695015511883,-344.61325,0.10570728,0.026372364,16.960657,2.7505152,344.61688,345.2188,344.904,344.8161,2.6158289909362793,1000.0,20.714446560541788
100,975000,4329.421318103449,-327.38254,0.10433387,0.00338691,23.901016,2.9675379,326.936,327.8216,327.69214,327.16913,2.7524750232696533,1000.0,20.849849994977316
101,980000,4455.818522840781,-339.56146,0.10679625,0.0009282306,16.29977,2.9913085,338.991,339.60342,339.88092,339.2392,2.6272077560424805,1000.0,20.984812422593436
102,985000,4533.185384359484,-332.55856,0.10518415,-0.0006584674,19.952547,3.0062604,331.94263,332.91382,332.87476,332.0155,2.623476505279541,1000.0,21.116276574134826
103,990000,4520.396498931243,-335.02185,0.10639996,0.0002169963,24.98544,2.9979606,334.58215,334.9475,335.34082,334.59418,2.6396336555480957,1000.0,21.24993710120519
104,995000,4638.993943366146,-334.2997,0.10533602,0.031774133,24.884583,2.6983545,333.76202,334.26135,334.58395,333.8767,2.5603816509246826,1000.0,21.38038411537806
105,1000000,4416.757342547843,-336.07648,0.1054623,0.04862848,28.874573,2.5389018,336.24667,335.98218,336.34424,336.44418,2.6130988597869873,1000.0,21.512968532244365
