fuyw/jrlzoo/sac/curves/ant-v4/sac_s2_20230311_120120.csv
,step,reward,actor_loss,alpha,alpha_loss,critic_loss,logp,next_q,q1,sampled_q,target_q,eval_time,eval_step,time
0,0,538.7707546150419,,,,,,,,,,,,
1,10000,170.631698476031,,,,,,,,,,,,
2,20000,556.0530924489633,-38.7155,0.106548175,0.55976844,9.27194,-1.2536662,38.689995,37.887016,38.581924,37.707172,5.1632983684539795,1000.0,0.5292125821113587
3,30000,264.85952176274117,-27.348415,0.024404692,0.009718504,5.3998485,3.6017773,27.507278,26.805315,27.436317,26.81757,2.717900514602661,596.6,0.783551025390625
4,40000,409.06683097132253,-25.60333,0.026930513,-0.00047225424,5.867133,4.017536,25.474072,25.191902,25.711525,25.14106,3.2128207683563232,717.0,1.0422941366831462
5,50000,584.0243460866783,-25.844135,0.02804285,0.00042499136,5.9233193,3.984845,25.755363,25.714853,25.955883,25.46805,4.231401443481445,908.2,1.320522916316986
6,60000,616.4376090349049,-27.518196,0.028523002,0.001974069,4.870776,3.9307902,27.404688,27.124779,27.630316,27.079342,3.8968067169189453,727.8,1.5954843918482462
7,70000,512.6405721690535,-28.723333,0.02908485,-0.01056031,6.8571987,4.363086,28.841934,28.254448,28.850235,28.713604,2.8717916011810303,585.2,1.8529956022898355
8,80000,813.1940266915831,-34.158936,0.030636039,0.012281217,6.0526724,3.599125,33.934464,34.0148,34.2692,33.832745,3.707606792449951,804.1,2.121574568748474
9,90000,343.9022744318129,-39.37056,0.032503214,-0.00021536811,5.5183277,4.006626,39.127167,38.931114,39.500786,38.925835,2.0250329971313477,448.5,2.361468021074931
10,100000,577.7305102864036,-45.22158,0.033758137,0.0009272471,8.968124,3.9725325,45.04004,44.760666,45.355682,44.693657,2.7512621879577637,566.1,2.611332170168559
11,110000,752.7451130956746,-50.053017,0.036247116,-0.00091774296,6.1708803,4.025319,49.646492,49.70177,50.19892,49.642094,2.948516845703125,608.3,2.867545413970947
12,120000,1301.4438209426473,-57.36602,0.0383153,-0.006755613,7.4768906,4.1763163,57.0987,56.976448,57.52604,57.028893,3.4149832725524902,772.8,3.1337210734685264
13,130000,960.9208491329233,-64.499084,0.03907177,-0.016458299,10.756958,4.421232,63.897575,63.91441,64.67184,63.719585,3.34609055519104,655.5,3.393357312679291
14,140000,1229.7265260258396,-70.416405,0.040945377,-0.001455677,9.664942,4.035552,70.27725,69.815125,70.58164,69.86867,3.3970630168914795,773.2,3.65670595963796
15,150000,1469.1066426281618,-73.14187,0.041471064,-0.0024628872,12.603137,4.059388,72.72389,72.476395,73.31023,72.507126,3.226935863494873,697.4,3.9170323689778646
16,160000,1133.9597076757032,-77.3037,0.042582303,-0.011178955,24.9559,4.262526,76.73574,76.46151,77.485214,76.28342,3.462383508682251,742.5,4.185614450772603
17,170000,1409.6855376206247,-84.21922,0.044307236,-0.0022609911,18.283154,4.05103,83.99269,84.01741,84.39871,83.907745,3.374361991882324,776.1,4.445745555559794
18,180000,1446.7326136072438,-93.997574,0.044976905,0.002690616,10.90001,3.9401777,93.71893,93.73479,94.17479,93.64233,3.611485242843628,786.9,4.715255852540334
19,190000,1655.958580399465,-94.25247,0.046004776,-0.015164478,14.469748,4.329628,94.39563,94.17449,94.451645,94.28873,4.142192125320435,930.1,4.989028306802114
20,200000,1801.218414989526,-96.45811,0.04793873,-0.01291054,12.3030205,4.2693133,96.289665,96.18455,96.66277,96.23436,3.561291456222534,790.7,5.257516952355703
21,210000,1878.4221350981989,-99.110916,0.048782572,0.021410884,17.75644,3.5610957,99.2052,99.11027,99.28463,99.21655,4.213773250579834,811.8,5.5368049542109175
22,220000,1201.3089324656673,-107.67494,0.050149295,0.00966447,16.683025,3.807286,107.23132,107.255356,107.865875,107.155685,2.3676540851593018,516.1,5.7834348996480305
23,230000,1925.9602933599392,-114.204414,0.051895883,0.0020121438,16.442442,3.9612274,113.78569,113.98129,114.40999,113.73772,3.423180103302002,772.7,6.04447695016861
24,240000,2522.893332122162,-116.07912,0.054037955,0.012091699,20.078098,3.776237,116.83942,116.13915,116.28317,116.829216,4.566051244735718,983.9,6.326999978224436
25,250000,2055.482056428301,-117.67728,0.054763947,0.0038624434,14.4321,3.929471,117.6375,117.36845,117.89247,117.58773,4.153822898864746,912.0,6.6041203538576765
26,260000,2585.330053422556,-123.29201,0.057903137,0.005276642,25.65819,3.9088712,122.75885,123.1017,123.51835,122.77047,4.61651873588562,1000.0,6.887411526838938
27,270000,1621.328793227668,-128.14474,0.05887657,0.0027755243,15.583322,3.9528587,128.07617,127.935135,128.37747,128.09581,2.8285183906555176,627.0,7.137540825208029
28,280000,2328.8354704084377,-128.24573,0.06117728,-0.004725286,22.454473,4.077239,128.70856,127.96507,128.49518,129.18327,3.9210212230682373,910.6,7.409953379631043
29,290000,2079.3993670388777,-145.92758,0.061673917,0.0006837605,24.908781,3.9889135,145.85347,145.49802,146.1736,145.95322,3.821688652038574,840.0,7.680475012461344
30,300000,2336.6213973139666,-144.19092,0.0638772,-0.0086472295,27.205433,4.135372,144.20596,144.02336,144.45508,144.16635,3.8709471225738525,787.9,7.948385310173035
31,310000,3188.8738358948603,-153.1979,0.06476862,0.02062803,14.423784,3.681512,152.82318,153.1995,153.43636,152.8163,4.279303789138794,926.8,8.229096961021423
32,320000,3217.424923317291,-154.34995,0.066488124,0.007590848,30.651684,3.8858316,154.36299,153.9202,154.6083,154.25546,4.217682361602783,931.5,8.505886383851369
33,330000,3402.062245307985,-158.1677,0.068043165,-0.0019586054,20.16024,4.0287848,158.1482,157.83838,158.44183,157.9474,4.332469701766968,945.2,8.785144205888113
34,340000,2582.9572992101757,-163.30338,0.06976528,-0.017210798,46.93399,4.246696,163.86794,163.21286,163.59967,163.22084,3.3104565143585205,750.1,9.044143839677174
35,350000,3058.136735727977,-172.83725,0.072425164,-0.0038954346,20.35921,4.053786,172.75627,172.46507,173.13084,172.37027,3.6426851749420166,796.4,9.311210417747498
36,360000,3526.040229132706,-186.38957,0.07331484,0.017004225,31.050209,3.7680655,186.06616,186.1,186.66583,186.09766,4.492286920547485,941.3,9.591241165002186
37,370000,3047.723881511013,-175.2979,0.0782244,-0.007834222,46.854046,4.1001506,174.7199,174.47903,175.61862,174.63907,3.7017672061920166,777.2,9.860052994887035
38,380000,4079.986019009191,-174.52701,0.07939852,0.017299365,29.030502,3.78212,174.06111,173.8489,174.8273,173.74863,4.405566215515137,1000.0,10.138555415471394
39,390000,3930.193128172285,-193.69647,0.08425021,-0.0076407217,49.034397,4.0906906,194.24617,193.44376,194.0411,194.2954,4.186696767807007,961.4,10.41672035853068
40,400000,3451.6697329323833,-192.65683,0.08444113,0.012147923,24.164404,3.8561373,192.7398,192.6027,192.98245,192.62738,3.9133543968200684,912.0,10.690749593575795
41,410000,4144.07791527402,-201.19615,0.08788048,-0.052952133,50.792088,4.6025476,200.77083,201.24387,201.60063,200.6465,4.44403338432312,1000.0,10.96998526652654
42,420000,4053.4777751901465,-198.67209,0.088776715,0.017966785,63.956383,3.7976184,198.4719,198.168,199.00922,198.39725,4.72562050819397,1000.0,11.255988097190857
43,430000,3634.9268448337943,-214.71182,0.090796724,0.029244302,42.635887,3.6779146,214.77948,213.90968,215.04578,213.897,4.360111951828003,931.1,11.538457028071086
44,440000,4416.074241747034,-221.55936,0.095314026,-0.04275467,33.85208,4.4485664,221.52629,221.5252,221.98337,221.37292,4.820127248764038,1000.0,11.823913212617239
45,450000,4381.4649806582765,-226.18808,0.09797746,-0.015513738,31.495895,4.1583395,227.09825,226.12137,226.59549,227.0088,4.393082618713379,1000.0,12.100272651513418
46,460000,4495.444760200362,-219.76717,0.09985716,0.057003427,67.898254,3.4291506,219.29944,219.75923,220.10957,219.10123,4.629366874694824,1000.0,12.385956033070881
47,470000,4285.3313903967155,-238.62888,0.1020462,0.011282027,24.55146,3.889442,238.66254,238.40945,239.02576,238.43954,4.330400705337524,1000.0,12.66424789428711
48,480000,4574.797858257899,-234.18314,0.10327477,0.0012400532,42.30375,3.9879928,234.13286,234.4555,234.59497,234.02701,4.173920631408691,1000.0,12.938712894916534
49,490000,3657.6642773266663,-240.0911,0.10599012,0.019613426,36.109062,3.8149502,239.7384,239.73642,240.49544,239.3095,3.6335854530334473,771.9,13.20327350695928
50,500000,4520.880444249005,-252.72603,0.10719162,0.005921968,60.581524,3.9447534,252.56326,252.53755,253.14888,252.38629,4.323179483413696,960.4,13.481283680597942
51,510000,4776.465220128012,-245.6952,0.105807,0.01828225,26.081127,3.8272114,245.45474,245.41188,246.10016,245.23984,4.668676137924194,1000.0,13.76277326742808
52,520000,4507.8889399175805,-245.4386,0.110069506,-0.01150226,36.23466,4.1045,246.73456,245.34659,245.89037,246.60025,4.490237474441528,1000.0,14.042880658308665
53,530000,3477.5386888188063,-255.69719,0.11281909,-0.04207108,46.094902,4.3729076,254.5498,254.87611,256.19052,254.53642,3.447528123855591,762.3,14.308113698164622
54,540000,4586.26277179703,-271.23926,0.11694561,-0.04983837,48.86661,4.4261675,271.04764,271.0194,271.75687,270.9989,4.449787378311157,927.6,14.58479969104131
55,550000,3855.7122778146213,-262.729,0.117920026,0.0013554092,30.789425,3.9885056,262.91162,262.55417,263.19934,262.85266,3.330287456512451,760.5,14.848838746547699
56,560000,4331.8937440004465,-269.93762,0.11801614,-0.011018281,51.142025,4.093363,269.82944,269.672,270.42072,269.64935,4.234492540359497,894.7,15.124765880902608
57,570000,5102.981397394548,-279.9888,0.119756445,-0.05261275,70.797066,4.439331,279.4293,279.3961,280.52045,279.37784,4.715782880783081,998.8,15.410606948534648
58,580000,5161.4948053475,-281.89474,0.1223954,-0.009453008,41.57122,4.0772333,282.14395,281.2892,282.39374,281.93604,4.70195198059082,1000.0,15.69503143231074
59,590000,3606.8604715344627,-267.79727,0.12459169,0.016067043,47.55017,3.8710425,268.129,267.21844,268.27957,267.69925,3.521449327468872,736.4,15.959723703066508
60,600000,3950.133109195051,-291.1429,0.12733631,-0.004535648,61.085823,4.0356197,292.35272,290.54553,291.6568,292.07327,3.8296258449554443,769.7,16.228220657507578
61,610000,4832.013583560675,-286.14783,0.1274274,0.010976935,36.964622,3.9138575,286.3042,286.34177,286.64655,286.2035,3.8946664333343506,928.9,16.497027564048768
62,620000,4122.028311268314,-290.84302,0.12815851,0.012900267,50.591736,3.8993413,289.8928,290.7438,291.34277,289.85065,4.103445053100586,903.7,16.770908586184184
63,630000,5153.37901366125,-300.8828,0.12941982,-0.03911542,60.204563,4.3022366,300.26514,300.66873,301.4396,300.2696,4.890401601791382,1000.0,17.057988651593526
64,640000,4443.560575343416,-294.54456,0.13084786,0.019074133,35.9937,3.8542266,294.30695,293.85248,295.0489,294.24408,3.7827091217041016,840.8,17.323934904734294
65,650000,3673.6472891051417,-304.92053,0.13115329,0.03947465,32.153343,3.699019,304.73776,305.10672,305.4057,304.53775,3.3047022819519043,714.6,17.583091179529827
66,660000,5324.067565773039,-285.47626,0.13360272,0.030620426,38.421963,3.7708097,285.81763,285.50967,285.98004,285.65292,4.408231258392334,1000.0,17.864495003223418
67,670000,5213.075034435997,-297.4022,0.13326503,-0.0040506674,76.48828,4.0303955,297.17563,297.0454,297.9393,297.3393,4.22016716003418,957.0,18.13595427274704
68,680000,5176.156570909488,-297.9353,0.13259842,-0.0011469256,29.290321,4.00865,298.0366,297.49628,298.46686,297.88916,4.484800577163696,962.6,18.41616888443629
69,690000,5292.553348966558,-304.07587,0.13413484,-0.032900132,52.43891,4.2452765,304.05005,303.86298,304.64532,303.88693,4.436723232269287,972.4,18.694359385967253
70,700000,4315.222352367059,-316.0562,0.13590902,0.048353355,46.19675,3.6442227,316.27673,315.75665,316.5515,316.3203,4.207787036895752,873.4,18.970350344975788
71,710000,4123.466960184059,-306.67883,0.13719529,-0.029010985,64.68692,4.2114573,307.1062,306.17944,307.2566,306.87067,3.8055694103240967,827.3,19.235774040222168
72,720000,5516.096374303682,-304.1273,0.13463354,0.035062686,77.6624,3.7395694,303.82916,303.9038,304.63074,303.7436,4.809328079223633,1000.0,19.52077437241872
73,730000,5028.0126451452425,-324.90366,0.13765745,-0.002015885,40.731163,4.014644,324.14404,324.77618,325.4563,324.10565,4.118532180786133,906.8,19.792853220303854
74,740000,5398.308210122102,-317.5437,0.1359887,-0.037560634,577.0984,4.276204,316.78427,317.12128,318.1252,315.5829,4.285656213760376,1000.0,20.06920858621597
75,750000,5586.707433585554,-333.02637,0.13929088,-0.0011758283,37.718597,4.0084414,333.0699,332.89377,333.58472,332.90387,4.664063453674316,1000.0,20.353066809972127
76,760000,5483.636750974744,-323.91293,0.13761707,0.003942554,35.7075,3.9713511,324.78864,324.30328,324.45947,324.6601,4.3245203495025635,1000.0,20.63167824745178
77,770000,5628.103972709323,-330.13947,0.13850655,-0.04617677,52.675907,4.33339,330.63278,329.48962,330.7397,329.6958,4.492600440979004,1000.0,20.914578779538473
78,780000,4569.296298506904,-337.48053,0.13873677,0.017157052,33.260956,3.8763337,337.14957,337.3598,338.0183,337.2271,3.6383612155914307,869.6,21.181082165241243
79,790000,5524.0698367633995,-331.68558,0.1403675,0.01751732,39.207527,3.8752036,331.66052,330.98352,332.22955,330.71832,4.288117170333862,1000.0,21.453163254261018
80,800000,4997.268679841587,-329.8843,0.14299123,0.0004935581,36.902225,3.9965484,329.49115,329.92334,330.45578,329.50192,4.268707513809204,904.7,21.730934127171835
81,810000,5267.647209705579,-332.32294,0.14537467,0.05012762,41.63002,3.6551833,333.24274,332.70715,332.8543,333.2187,4.3058717250823975,1000.0,22.008398775259653
82,820000,4821.528808199282,-335.50687,0.14227317,0.03813359,44.41101,3.731969,335.9375,334.99182,336.03784,335.77484,4.113835096359253,882.3,22.28023307323456
83,830000,5445.462073310746,-326.34375,0.14563252,-0.014381843,55.332016,4.0987544,326.0319,325.73917,326.94064,325.9348,4.250774383544922,978.1,22.555095462004342
84,840000,4968.015902369344,-342.7624,0.145935,0.023369048,36.333336,3.8398666,342.46573,343.28674,343.32275,342.3944,4.5752363204956055,904.5,22.837452920277915
85,850000,5439.048984415759,-340.8739,0.14478725,0.047567688,34.453053,3.671465,340.16678,341.11737,341.40552,340.13403,4.781008958816528,980.7,23.121048744519552
86,860000,5592.902052514334,-356.2484,0.1462029,-0.014883373,46.459038,4.1017995,357.32877,356.15417,356.8481,357.36893,4.478247880935669,1000.0,23.401470275719962
87,870000,5648.816221162606,-334.6576,0.14853235,0.016529381,46.035004,3.8887153,335.2647,334.6057,335.23517,335.13852,4.8965370655059814,1000.0,23.694834438959756
88,880000,5624.520824115029,-352.31488,0.14734767,0.0250807,39.738167,3.8297853,352.49017,352.8272,352.8792,352.49805,4.836536169052124,1000.0,23.980298900604247
89,890000,5404.856599730154,-358.59253,0.14884132,-0.02397182,35.96756,4.1610565,359.17404,358.82892,359.21188,359.12875,4.243093490600586,956.5,24.254283475875855
90,900000,4643.027623549895,-358.14523,0.14668685,-0.0146707855,46.366375,4.100014,357.95462,358.10162,358.74664,357.98132,3.9863944053649902,839.0,24.526940321922304
91,910000,5070.326439817398,-356.0772,0.14871357,0.014122007,40.492836,3.9050388,356.1776,355.4173,356.65796,356.08282,4.294250011444092,904.7,24.801707832018533
92,920000,4250.183282221109,-365.58493,0.14941613,-0.026634261,47.583687,4.1782556,365.48947,365.6678,366.20923,365.48083,3.241788387298584,750.8,25.05699096520742
93,930000,5514.926092951923,-356.98944,0.146694,-0.0010658037,40.63157,4.0072656,356.49146,356.6827,357.57727,356.44797,4.980065107345581,1000.0,25.344483347733817
94,940000,5623.680455243626,-364.33215,0.1485204,-0.023618266,73.3404,4.159024,363.43918,364.6446,364.94983,364.39972,4.307733774185181,982.0,25.624776498476663
95,950000,5498.947151751888,-349.311,0.15190099,0.014783907,77.76608,3.9026742,349.01477,349.40228,349.9038,349.128,3.959594249725342,947.4,25.897457929452262
96,955000,5694.38064019694,-360.81317,0.14910376,-0.036196027,77.713585,4.242757,360.17764,360.7747,361.44574,360.136,4.498696327209473,980.6,26.075364971160887
97,960000,5461.193982371289,-363.6435,0.15098482,-0.07215773,39.1574,4.477914,363.64746,363.42426,364.31958,363.80725,4.458494663238525,964.8,26.24935640891393
98,965000,5699.716355453675,-371.37173,0.14829542,-0.017207216,41.467064,4.116033,371.1215,371.5027,371.98212,371.24994,4.391833782196045,1000.0,26.424091811974844
99,970000,5269.140470950015,-366.94025,0.15089959,-0.038272034,109.654495,4.253626,366.51288,367.0017,367.58215,366.53445,3.8364508152008057,920.9,26.5899879693985
100,975000,5715.432466264987,-357.1021,0.1507944,-0.014947254,41.30349,4.0991235,357.12198,356.96118,357.7202,357.077,4.478456258773804,1000.0,26.767306582132974
101,980000,5167.51767485094,-373.16425,0.14977325,-0.038793523,49.1102,4.259015,372.9229,372.72528,373.80215,371.86395,3.8845577239990234,906.6,26.931596410274505
102,985000,5270.086727400167,-366.17328,0.14940374,-0.022050094,36.037033,4.1475873,366.4724,366.45056,366.79294,366.37302,4.539244174957275,923.8,27.109174438317616
103,990000,5279.363021079828,-364.15857,0.15135701,-0.028098824,45.64016,4.185646,364.7031,364.7544,364.79208,364.77386,4.364726543426514,944.0,27.28583058913549
104,995000,5445.28127924948,-360.35773,0.1503544,0.007981567,43.76425,3.9469147,360.0276,360.06186,360.95114,360.16415,4.450033664703369,956.2,27.462677804629006
105,1000000,5850.202561752727,-360.893,0.15064044,0.0017996021,57.635303,3.9880536,360.37573,360.59448,361.49377,360.55377,4.342676401138306,1000.0,27.63828958272934
