fuyw/jrlzoo/sac/curves/dmc/humanoid-run/sac_s0_20230310_112612.csv
,step,reward,actor_loss,alpha,alpha_loss,critic_loss,logp,next_q,q1,sampled_q,target_q,eval_time,eval_step,time
0,0,0.6291153825566721,,,,,,,,,,,,
1,10000,0.7688994547155746,,,,,,,,,,,,
2,20000,0.8716345042490105,-162.29529,0.10433017,1.7700891,13.40569,-6.4662266,162.81142,161.06972,161.62067,161.18347,6.2356414794921875,1000.0,0.7005703528722127
3,30000,1.000904202724965,-123.71505,0.01723917,0.030847052,4.1931806,8.710642,124.44913,123.443146,123.86522,123.206245,6.1310954093933105,1000.0,1.05515851577123
4,40000,0.793003025717667,-82.12263,0.006405052,0.0010775363,1.1451882,10.331768,82.68266,82.081345,82.1888,81.85682,6.243743181228638,1000.0,1.4110439896583558
5,50000,0.7554962270302055,-52.21013,0.0029639697,-0.0024791053,0.26001537,11.336414,52.599613,52.161865,52.24373,52.074615,6.211519002914429,1000.0,1.7683675686518352
6,60000,1.090727915733324,-32.580948,0.0012950528,-0.00010677893,0.058421336,10.582452,32.923065,32.59689,32.594654,32.594017,6.094749927520752,1000.0,2.1216068545977276
7,70000,0.8106554073998751,-20.078138,0.00054588245,0.00029107308,0.014234555,9.9667845,20.278954,20.079756,20.08358,20.07628,6.1631553173065186,1000.0,2.475967562198639
8,80000,0.8662557748664351,-12.315873,0.00023537644,-1.0845804e-05,0.00291477,10.546079,12.432347,12.314111,12.318355,12.309725,5.876040697097778,1000.0,2.8272377967834474
9,90000,0.7511303592307754,-7.5845613,0.00010093889,1.0427593e-05,0.0008342702,10.396694,7.661319,7.584561,7.5856104,7.5847054,6.454351902008057,1000.0,3.1916433135668436
10,100000,0.9922467403098907,-6.3545027,0.00072290754,-0.000328774,0.003194243,10.954794,6.3658543,6.2926407,6.362422,6.3037133,6.233966827392578,1000.0,3.551603587468465
11,110000,0.9776265898360407,-5.4723535,0.00060940493,0.000829845,0.0025525922,9.13827,5.488299,5.4265056,5.4779224,5.4334164,6.444311618804932,1000.0,3.9129669427871705
12,120000,0.9942496469330955,-4.809455,0.00048031475,-0.00059370935,0.0016046247,11.736084,4.8195114,4.7676935,4.815092,4.7724485,6.447847843170166,1000.0,4.281173475583395
13,130000,1.1385756508231428,-4.2121105,0.00034377404,0.0004748839,0.00091656676,9.118616,4.228875,4.188631,4.2152452,4.1867332,6.2702391147613525,1000.0,4.638341542085012
14,140000,1.2553430923977111,-3.3580966,0.0002249882,0.0004494854,0.0010253045,8.502182,3.3737605,3.3377633,3.3600097,3.3426442,6.478573560714722,1000.0,4.997463055451711
15,150000,1.112851199613903,-2.7149312,0.00021269581,-8.2404586e-05,0.00082299276,10.88743,2.7308702,2.7008562,2.7172468,2.7051897,6.02517557144165,1000.0,5.356557253996531
16,160000,1.0249083648006014,-2.4408774,0.00022589114,0.00024058722,0.0005116577,9.434941,2.4463272,2.421698,2.443009,2.421865,6.243331670761108,1000.0,5.7179625749588014
17,170000,1.0497563750574272,-2.0447502,0.0001432147,0.00019237111,0.00031486154,9.156765,2.0532134,2.036143,2.0460618,2.034505,6.411115646362305,1000.0,6.088415686289469
18,180000,1.3612692965737865,-1.6226233,0.00010378937,9.358334e-05,0.0002898028,9.598334,1.6302946,1.6171385,1.6236196,1.6145284,6.380342483520508,1000.0,6.452556494871775
19,190000,0.9632050890801367,-1.3664582,0.00011870796,-5.6149347e-05,0.00028557554,10.973003,1.3706851,1.3583838,1.3677608,1.3579721,6.33280348777771,1000.0,6.8206658641497295
20,200000,0.9710208216001119,-1.1352725,9.785982e-05,1.0524354e-05,0.00017992544,10.392454,1.1383357,1.1333239,1.1362895,1.1279496,6.40348219871521,1000.0,7.185324859619141
21,210000,1.499552772230683,-1.0683851,0.00013113435,-0.0001641583,0.00035287117,11.751833,1.0651462,1.0573841,1.0699263,1.0558362,6.311240911483765,1000.0,7.543937007586162
22,220000,2.1207934075454107,-1.0561278,0.00016001821,-0.00015781293,0.00066222786,11.486218,1.0495656,1.0453615,1.0579658,1.042153,6.51996922492981,1000.0,7.908651268482208
23,230000,3.582073045452514,-1.2413123,0.00028731124,0.00033443706,0.00082192867,9.335976,1.2340181,1.2270874,1.2439947,1.2237918,6.303845167160034,1000.0,8.268806580702464
24,240000,14.535550847778499,-1.4913287,0.00033553896,-0.0003808027,0.0016844335,11.634899,1.487179,1.4738505,1.4952327,1.47414,6.388192176818848,1000.0,8.638966790835063
25,250000,7.972961874615541,-1.9057889,0.0004132641,0.0001280022,0.0017785907,10.190265,1.9017653,1.8828723,1.9100002,1.8846078,6.205325603485107,1000.0,8.999266870816548
26,260000,33.91682810169586,-2.3253815,0.0004731763,-0.00024137805,0.007053873,11.010122,2.3192444,2.3039012,2.3305912,2.3007848,6.225199222564697,1000.0,9.359154677391052
27,270000,49.796811664402675,-2.5702815,0.0005297011,-7.394371e-05,0.0035182103,10.639595,2.5664043,2.5457952,2.5759172,2.5451345,6.0933568477630615,1000.0,9.71770593325297
28,280000,51.404052871349926,-2.7797632,0.0006080047,-5.764571e-05,0.006713639,10.594811,2.7821229,2.751186,2.786205,2.762092,6.362687349319458,1000.0,10.08458779255549
29,290000,57.90310661217087,-3.0598817,0.0006074701,-0.00026955787,0.0069760475,10.943739,3.0666282,3.0367281,3.0665298,3.0448399,6.201163053512573,1000.0,10.441368055343627
30,300000,65.71865887006763,-3.1848865,0.00070303545,-5.6295525e-05,0.010855548,10.580075,3.1768408,3.1605859,3.1923246,3.1554427,6.178812742233276,1000.0,10.80038735071818
31,310000,66.65505935485616,-3.4214468,0.00071747275,-7.828006e-05,0.0076570464,10.609105,3.4043064,3.3837063,3.4290586,3.3859704,6.246515512466431,1000.0,11.163604692618053
32,320000,70.97056140994012,-3.6893756,0.000773301,-0.00022005412,0.007932117,10.784565,3.700521,3.6675115,3.6977153,3.6765108,6.123796224594116,1000.0,11.520711096127828
33,330000,67.70592611227895,-3.8084445,0.00080681907,0.0003613158,0.009273766,10.052172,3.8065948,3.7862787,3.8165548,3.7807803,6.281306266784668,1000.0,11.883013570308686
34,340000,66.58144711469791,-3.8436866,0.0008423301,0.0001088658,0.009871001,10.370756,3.8559527,3.8241699,3.8524222,3.8285487,6.2381370067596436,1000.0,12.244036849339803
35,350000,86.29635565968678,-4.0048084,0.00085664203,0.0003877978,0.018744783,10.047304,4.017989,3.9928298,4.0134153,3.9924893,6.194756031036377,1000.0,12.600804885228476
36,360000,83.03701958894523,-4.1948395,0.00090491725,-0.0009374954,0.010289332,11.536001,4.2099385,4.1791363,4.2052794,4.189698,6.152268409729004,1000.0,12.962340919176738
37,370000,82.57245828459811,-4.31666,0.0009718178,-0.0017532615,0.016284471,12.304106,4.314932,4.2902827,4.328617,4.297102,6.300766229629517,1000.0,13.320522741476696
38,380000,10.739704306092298,-5.0287867,0.0012373967,-0.0031092875,0.021471277,13.012765,5.002603,4.989843,5.0448885,4.9732046,6.298259496688843,1000.0,13.684592187404633
39,390000,1.3444397198019922,-6.5758753,0.0013951567,-0.0022981628,0.035699803,12.1472435,6.564392,6.518365,6.5928226,6.5297,6.428200006484985,1000.0,14.051541475454966
40,400000,0.8690056204444984,-11.601973,0.0028014965,0.0008076005,0.09971383,10.211725,11.453939,11.400184,11.630581,11.365281,6.184921503067017,1000.0,14.409789093335469
41,410000,3.6000211345419535,-10.411759,0.0011590113,-0.00094749435,0.023800153,11.317502,10.450158,10.378811,10.424877,10.36673,6.395990610122681,1000.0,14.775943060715994
42,420000,79.84218612700798,-8.8886795,0.0010775047,-0.0006634223,0.019225053,11.115702,8.925053,8.858986,8.900657,8.86042,6.163717746734619,1000.0,15.140341202418009
43,430000,95.86992661735879,-7.40655,0.0010218815,0.0006186414,0.01215548,9.894606,7.428198,7.3741035,7.4166603,7.3724966,6.082492351531982,1000.0,15.493646883964539
44,440000,106.92103927251046,-6.826455,0.0010399466,-0.0010186844,0.014751937,11.479555,6.8255906,6.7912993,6.838393,6.7876606,6.240266561508179,1000.0,15.851822853088379
45,450000,107.23582727812386,-6.5569105,0.0010756134,-0.00086021406,0.014907075,11.299744,6.5411224,6.526946,6.5690646,6.5067663,6.072816848754883,1000.0,16.213556742668153
46,460000,110.04831868899132,-6.32722,0.0010929293,0.0005429314,0.013546682,10.003233,6.321727,6.2943587,6.3381524,6.283289,6.146435260772705,1000.0,16.571510299046835
47,470000,105.48901589072378,-6.349118,0.0011322425,-0.0004923854,0.015305843,10.934876,6.364977,6.315709,6.3614993,6.3307314,6.0703160762786865,1000.0,16.93135553598404
48,480000,116.37685584843666,-6.405017,0.0011898101,0.00041451183,0.016326953,10.151615,6.422473,6.3758407,6.417095,6.3875766,6.147880554199219,1000.0,17.28301881949107
49,490000,115.09281096601103,-6.418414,0.0011775807,0.0007642258,0.011916865,9.851021,6.416849,6.3861847,6.4300146,6.3868027,6.1618876457214355,1000.0,17.644652648766836
50,500000,117.90064539487119,-6.56754,0.0012177731,-0.0009685417,0.016947681,11.295338,6.5624914,6.557745,6.5812955,6.5326242,5.9884912967681885,1000.0,17.99685762723287
51,510000,121.54908881069073,-6.632248,0.0012263377,-0.0007327162,0.013016679,11.097484,6.637459,6.601494,6.645857,6.606782,6.10760235786438,1000.0,18.3542799949646
52,520000,120.70141457529932,-6.5567684,0.0012612776,0.00123564,0.014294895,9.520327,6.5560193,6.527323,6.568776,6.5244846,6.392685174942017,1000.0,18.71232048670451
53,530000,121.1081508978265,-6.6396,0.0013429272,0.0012065966,0.015038527,9.601517,6.6446695,6.617046,6.6524935,6.611845,6.246087074279785,1000.0,19.07056062221527
54,540000,119.86058988453112,-6.8481927,0.0013169886,-0.00015398531,0.022987915,10.616922,6.8669834,6.8204737,6.862175,6.835586,6.180384159088135,1000.0,19.426039735476177
55,550000,127.42892534315249,-6.9030533,0.0013461179,-0.00061792845,0.015591389,10.959045,6.893676,6.876191,6.9178057,6.8692966,6.0981199741363525,1000.0,19.78298572699229
56,560000,126.59365696320197,-6.9529333,0.0013349858,-0.00027945184,0.017708216,10.70933,6.962261,6.9438453,6.96723,6.937669,6.119072675704956,1000.0,20.141021605332693
57,570000,113.2092060190718,-7.014613,0.0013463012,-0.0011793245,0.017111432,11.375975,7.031927,6.9946413,7.029929,7.016595,6.162609815597534,1000.0,20.499128341674805
58,580000,133.09615699886015,-7.2808366,0.0013678386,-8.20492e-05,0.01768127,10.559984,7.2617903,7.2559004,7.295281,7.2391644,6.248340606689453,1000.0,20.858397567272185
59,590000,1.2755976428215845,-9.476971,0.0019125182,0.0019456485,0.05978229,9.4826765,9.458219,9.412156,9.495107,9.410205,6.251728773117065,1000.0,21.218304268519084
60,600000,127.47615334613991,-8.846729,0.0015391659,-0.0017669478,0.028582066,11.647991,8.876737,8.827993,8.864656,8.830379,6.246537923812866,1000.0,21.579687476158142
61,610000,125.34366470701359,-8.503723,0.0014056875,-0.0002762595,0.026033126,10.696529,8.551868,8.488354,8.51876,8.516121,5.984601974487305,1000.0,21.932766671975454
62,620000,136.3905413913472,-8.131255,0.0013549172,0.00039663468,0.025154304,10.207263,8.11528,8.11274,8.145085,8.09175,6.11794114112854,1000.0,22.28869671821594
63,630000,141.77579330291562,-7.9222655,0.0014597335,-0.00018973372,0.021372125,10.629978,7.90994,7.897643,7.937783,7.883501,6.115613222122192,1000.0,22.645289023717243
64,640000,140.92034376610405,-8.102793,0.001503992,-0.00040187876,0.021749843,10.767208,8.082465,8.087289,8.118986,8.064476,6.113414525985718,1000.0,23.00044707854589
65,650000,144.12595604676855,-8.079996,0.0014548921,7.8167795e-05,0.022991795,10.446272,8.090252,8.058678,8.095195,8.060787,6.379681587219238,1000.0,23.36422334909439
66,660000,148.11688421152127,-8.214632,0.0015221162,0.00026799686,0.020968895,10.323931,8.230429,8.201619,8.230346,8.209186,6.190253973007202,1000.0,23.71863185564677
67,670000,147.6292314915752,-8.202838,0.0015268447,0.00041423642,0.018389406,10.228699,8.18395,8.1634655,8.218455,8.157216,6.250200271606445,1000.0,24.0737788160642
68,680000,145.70921198499485,-8.364017,0.0015446468,-0.00038611382,0.02451573,10.7499695,8.367187,8.34242,8.380622,8.342196,6.211611986160278,1000.0,24.43395114739736
69,690000,149.0954860381914,-8.556131,0.0015968521,-0.0013827372,0.024289139,11.365915,8.57325,8.540889,8.574282,8.562172,6.04915976524353,1000.0,24.78841562271118
70,700000,145.26860168716522,-8.717249,0.0015669877,0.0010437579,0.019938532,9.833908,8.727354,8.6907,8.732657,8.70323,6.23080039024353,1000.0,25.146602149804433
71,710000,7.626663068804591,-9.058527,0.0015883716,0.0016851933,0.023976559,9.439043,9.044927,9.031252,9.07352,9.013735,6.132315397262573,1000.0,25.505211393038433
72,720000,149.1251474907204,-9.088482,0.0016248936,-0.0012051791,0.026261708,11.241697,9.100199,9.049899,9.106749,9.057434,6.1683313846588135,1000.0,25.864715099334717
73,730000,149.97420529883465,-9.130024,0.0016594891,0.0015400548,0.025043728,9.571971,9.168451,9.111418,9.145909,9.142149,6.039490699768066,1000.0,26.221697914600373
74,740000,148.7438453013188,-9.230236,0.001638409,-0.0010496178,0.02538734,11.140633,9.243834,9.214401,9.248489,9.212779,6.1415040493011475,1000.0,26.578621526559193
75,750000,156.1734497462236,-9.191887,0.0016586614,-0.0014110464,0.023846002,11.350714,9.191088,9.160296,9.210714,9.169265,6.134807109832764,1000.0,26.933623818556466
76,760000,152.54516911646814,-9.361438,0.0016780428,-0.0012046525,0.026080392,11.217892,9.3511505,9.338129,9.380261,9.3266115,6.232301473617554,1000.0,27.291838403542837
77,770000,154.4860500103033,-9.429512,0.0017369426,-0.00028079213,0.020423282,10.661659,9.437874,9.412111,9.44803,9.404245,6.197248935699463,1000.0,27.6518657485644
78,780000,158.9351016300655,-9.538675,0.001687398,-0.0028467514,0.023091424,12.187066,9.525389,9.52315,9.559239,9.4946165,6.167809009552002,1000.0,28.00699556271235
79,790000,157.1833693529911,-9.300745,0.0017266349,0.001067819,0.025834601,9.88156,9.335783,9.275258,9.317808,9.293064,6.16547155380249,1000.0,28.364254875977835
80,800000,158.2822855748474,-9.677155,0.0017513233,-0.0004825666,0.025415763,10.775543,9.671743,9.657308,9.696026,9.645111,6.133978843688965,1000.0,28.721026527881623
81,810000,159.15548829252367,-9.806893,0.0017393742,0.00062695134,0.02253674,10.139554,9.790603,9.784329,9.82453,9.771061,6.043547630310059,1000.0,29.078726398944855
82,820000,161.02404193833826,-9.75423,0.0017390514,0.00060832116,0.024056328,10.1502,9.777024,9.732067,9.771881,9.747206,6.215217351913452,1000.0,29.436740831534067
83,830000,162.80288866696566,-10.110128,0.001766243,-0.0010741879,0.021977834,11.108177,10.128637,10.086746,10.129747,10.108009,6.189773797988892,1000.0,29.79606538216273
84,840000,161.8925623644097,-9.961088,0.0018773244,-0.0004963111,0.03335618,10.764372,9.970587,9.947929,9.981297,9.942814,6.16975736618042,1000.0,30.150299044450126
85,850000,158.43889600704657,-10.263777,0.0018440487,-7.403511e-05,0.034260396,10.540148,10.291145,10.244688,10.283213,10.272271,6.187306642532349,1000.0,30.51214391787847
86,860000,162.27874414707776,-10.138596,0.0017403101,-0.0008453757,0.030539226,10.985762,10.165522,10.127663,10.157715,10.134445,6.062366485595703,1000.0,30.869736504554748
87,870000,163.58778205902155,-10.188181,0.0017243148,0.0009488109,0.030105928,9.949746,10.192433,10.169077,10.205338,10.170307,6.0740063190460205,1000.0,31.235145099957784
88,880000,162.79623239776254,-10.230933,0.0017422485,0.0010403717,0.028180473,9.902857,10.227501,10.213189,10.248186,10.198906,6.156583070755005,1000.0,31.591163404782613
89,890000,162.0856477134542,-10.400771,0.0017505621,-0.0004132939,0.029569967,10.736092,10.394497,10.398241,10.419566,10.360546,6.301187753677368,1000.0,31.944770447413127
90,900000,163.5051302934772,-10.781991,0.001798373,-0.0036486262,0.03174968,12.528848,10.796271,10.776878,10.804523,10.784763,6.245355129241943,1000.0,32.301124167442325
91,910000,170.75142541537065,-10.644162,0.0018420818,-0.0025139414,0.023970528,11.864728,10.663591,10.625064,10.666018,10.635908,6.138884782791138,1000.0,32.65947055419286
92,920000,167.54776354654655,-10.647427,0.0017987712,-0.00072573806,0.025999758,10.903463,10.656752,10.619799,10.66704,10.635096,6.16304874420166,1000.0,33.01676755746205
93,930000,166.01843133039168,-10.777999,0.0018404291,0.0013238925,0.022906622,9.780661,10.793762,10.766634,10.796,10.774527,5.880895614624023,1000.0,33.370641179879506
94,940000,166.3362996479576,-10.748116,0.0018419494,0.0005523112,0.03283121,10.200149,10.740092,10.72859,10.766904,10.72402,5.908464670181274,1000.0,33.721851805845894
95,950000,165.5712727019291,-10.787172,0.001787871,0.0004393771,0.03256301,10.254246,10.808733,10.777681,10.805506,10.785906,6.164080619812012,1000.0,34.0823774933815
96,955000,171.62206039942464,-10.693274,0.0018285874,0.0011308336,0.027116885,9.881581,10.722054,10.676517,10.711342,10.701428,6.112107753753662,1000.0,34.308805390199026
97,960000,169.62206494715974,-10.837839,0.0018554049,0.00056448067,0.02930456,10.195765,10.865683,10.820235,10.856756,10.846244,6.21054220199585,1000.0,34.53965917825699
98,965000,169.88352023519965,-10.868637,0.0018415164,-0.00067648286,0.030015852,10.867352,10.870267,10.846577,10.888649,10.848548,5.717335939407349,1000.0,34.76029894749323
99,970000,168.3853966733116,-10.887122,0.0018161668,-0.0007997267,0.03321986,10.940338,10.893924,10.86723,10.906993,10.866949,6.116130352020264,1000.0,34.98851379950841
100,975000,166.9666948107709,-11.331451,0.0019260691,-0.0005832982,0.026088227,10.802844,11.32588,11.322587,11.352258,11.315479,6.145803451538086,1000.0,35.21446719964345
101,980000,165.54350855721194,-10.724577,0.0018824813,0.0015548139,0.028258042,9.674062,10.74054,10.717446,10.742788,10.7084255,6.075213193893433,1000.0,35.443358774979906
102,985000,163.9930344269829,-10.955181,0.0019244662,0.00055387913,0.024368023,10.212191,10.980324,10.928355,10.974834,10.95191,6.329509496688843,1000.0,35.67271509170532
103,990000,170.5082835970037,-11.093469,0.0018945299,-0.00044815053,0.03633959,10.73655,11.116804,11.074434,11.11381,11.092292,6.2896058559417725,1000.0,35.9051208893458
104,995000,169.0034335740217,-11.235259,0.0019120832,-0.0008501846,0.033519197,10.944637,11.227058,11.214867,11.256187,11.216662,6.069066524505615,1000.0,36.139423274993895
105,1000000,168.30914639549206,-11.048771,0.0018767521,0.0013568193,0.02967138,9.777039,11.062206,11.024613,11.06712,11.038906,6.196298837661743,1000.0,36.369961468378705
