fuyw/jrlzoo/sac/curves/dmc/hopper-hop/sac_s3_20230310_171920.csv
,step,reward,actor_loss,alpha,alpha_loss,critic_loss,logp,next_q,q1,sampled_q,target_q,eval_time,eval_step,time
0,0,0.0014109793248195611,,,,,,,,,,,,
1,10000,0.002908345013501612,,,,,,,,,,,,
2,20000,0.0144426437538695,-31.726942,0.094688684,0.42547774,0.04662873,-2.4934378,31.868069,31.52097,31.49084,31.549389,3.4581968784332275,1000.0,0.47969671090443927
3,30000,0.0010321429036273533,-22.121273,0.010868419,0.036596045,0.015597709,-1.367191,22.301695,22.117401,22.106415,22.078678,3.241253137588501,1000.0,0.7143329183260599
4,40000,0.00018566349679575156,-14.266817,0.0019121644,0.0007374863,0.0037717759,1.6143186,14.4156685,14.263036,14.269903,14.271513,3.369600772857666,1000.0,0.9550204356511434
5,50000,5.617950709349007e-05,-9.283012,0.0008870317,0.00031497577,0.0011718387,1.6449105,9.374485,9.289834,9.2844715,9.28074,3.4375927448272705,1000.0,1.1995074550310771
6,60000,0.0,-5.864348,0.00053719775,0.00013329327,0.0006467005,1.751873,5.921076,5.862319,5.865289,5.861866,3.4168808460235596,1000.0,1.4392669637997946
7,70000,0.7641415640407604,-3.7813683,0.0003008536,2.0848693e-05,0.00019871356,1.9307015,3.8217845,3.7811494,3.781949,3.7835665,3.3875656127929688,1000.0,1.6814542571703592
8,80000,0.0010361184804628554,-2.4100137,0.00024054841,-4.744028e-05,0.00010126654,2.197217,2.430323,2.4068913,2.4105422,2.4060197,3.42350435256958,1000.0,1.9280115485191345
9,90000,0.13560235480327626,-1.5593674,0.0005221308,0.00014404597,0.00070260116,1.724119,1.5757868,1.5586084,1.5602677,1.560029,3.5195844173431396,1000.0,2.173538859685262
10,100000,0.32048173362956445,-1.4295813,0.0010560774,-1.5159389e-05,0.0013497515,2.0143545,1.4303331,1.4170179,1.4317086,1.4160298,3.4808433055877686,1000.0,2.4188803593317667
11,110000,1.7404668539057453,-1.3668828,0.0013445264,-0.00056493725,0.0029593674,2.4201756,1.3596287,1.3532414,1.3701369,1.3473177,3.328378438949585,1000.0,2.6610389788945517
12,120000,4.052590144854059,-1.9167885,0.0029635953,-0.00029502838,0.027649269,2.0995507,1.888999,1.8849703,1.9230107,1.8705442,3.3590662479400635,1000.0,2.904588532447815
13,130000,3.154413566866173,-2.3280041,0.0021012092,0.00034601567,0.011527655,1.8353255,2.3106515,2.307269,2.3318605,2.287545,3.5741913318634033,1000.0,3.153100144863129
14,140000,0.0,-2.654152,0.0022379237,0.00022416638,0.008808897,1.8998328,2.653282,2.6193948,2.6584036,2.6294296,3.4149622917175293,1000.0,3.3971690853436787
15,150000,10.76989688164449,-2.6290574,0.0019352854,-0.00017761556,0.007839651,2.0917776,2.6329353,2.6135907,2.6331055,2.6107688,3.5219309329986572,1000.0,3.642601974805196
16,160000,10.213776065848645,-2.5888999,0.0020300637,-8.268784e-06,0.006112059,2.0040731,2.5889165,2.557156,2.5929682,2.5646665,3.6188085079193115,1000.0,3.8884631435076398
17,170000,36.203843491754334,-2.6481788,0.002208844,-0.00029932533,0.006776887,2.1355124,2.6362872,2.620166,2.6528957,2.610644,3.2735862731933594,1000.0,4.127295239766439
18,180000,10.839067144189368,-3.2095165,0.0026025765,-0.0011194396,0.011454262,2.4301271,3.2092175,3.1741405,3.2158408,3.1811852,3.286208391189575,1000.0,4.369512764612834
19,190000,58.953537920212895,-3.3339715,0.0026683009,-0.00018898069,0.008467019,2.0708244,3.3323073,3.298387,3.339497,3.30469,3.2932255268096924,1000.0,4.610406490166982
20,200000,70.28826456449244,-3.4599543,0.00313424,-0.00032889986,0.014167459,2.1049376,3.4614582,3.4293718,3.4665513,3.4333296,3.3290317058563232,1000.0,4.85742373863856
21,210000,110.71638068655902,-3.7749834,0.0037640375,-0.00052399444,0.011749601,2.1392107,3.7729874,3.7463024,3.783036,3.748669,3.338008403778076,1000.0,5.100825126965841
22,220000,129.02546799281433,-5.103461,0.0046885037,-0.00095012307,0.019987978,2.2026496,5.112508,5.068965,5.1137877,5.0775003,3.2956767082214355,1000.0,5.339456462860108
23,230000,137.38792448050305,-5.8820715,0.005448049,-0.0009742361,0.018436862,2.178823,5.8699236,5.8336697,5.893942,5.8345723,3.2545828819274902,1000.0,5.57627299229304
24,240000,139.86344174534497,-6.5773435,0.006026482,-0.0018207212,0.019593466,2.30212,6.580737,6.526711,6.591217,6.5466413,3.345750331878662,1000.0,5.816469160715739
25,250000,143.4225258746314,-7.730426,0.0064787944,0.0011412037,0.020896055,1.8238555,7.7411757,7.6772003,7.742243,7.689757,3.388477325439453,1000.0,6.059023916721344
26,260000,155.1343329364853,-8.440562,0.006614183,0.00014931106,0.013365918,1.9774256,8.436031,8.38192,8.453642,8.39498,3.2054622173309326,1000.0,6.300475025177002
27,270000,157.4454437778826,-8.927016,0.006366715,0.0009559424,0.047691256,1.849853,8.946793,8.882648,8.938793,8.899477,3.240379810333252,1000.0,6.540934979915619
28,280000,155.99464147776118,-8.943485,0.006506081,0.00087803905,0.020685779,1.8650434,8.972955,8.910089,8.95562,8.92548,3.3118855953216553,1000.0,6.785941378275553
29,290000,160.78150689601716,-9.7846575,0.0073161456,-0.0017079302,0.022532156,2.2334468,9.778183,9.735618,9.800999,9.72682,3.3937630653381348,1000.0,7.027776348590851
30,300000,161.02342900465717,-9.757259,0.0070892638,0.0013814712,0.030871872,1.8051319,9.769385,9.729273,9.770057,9.718622,3.30220627784729,1000.0,7.271078439553579
31,310000,155.49651182976177,-10.2355995,0.007334277,5.136775e-05,0.019475576,1.9929962,10.223139,10.179468,10.250217,10.180972,3.393714189529419,1000.0,7.51668659845988
32,320000,171.36496922617627,-10.711631,0.0071015614,-1.3165307e-05,0.014715064,2.001854,10.691256,10.662865,10.725847,10.637577,3.3286032676696777,1000.0,7.757240196069081
33,330000,159.3402700230992,-11.02997,0.0071297595,0.0003367313,0.033690162,1.9527711,11.078444,10.979213,11.043893,11.026106,3.1605632305145264,1000.0,7.997682273387909
34,340000,177.66980558241474,-10.997366,0.007396716,0.0016867792,0.02647188,1.7719556,10.988932,10.935644,11.010472,10.945923,3.4056966304779053,1000.0,8.241689987977345
35,350000,183.4402564920824,-11.58531,0.007513079,0.0013837031,0.018988505,1.8158274,11.606788,11.548713,11.598953,11.553387,3.2930548191070557,1000.0,8.485679388046265
36,360000,187.05588351944922,-11.966074,0.007978912,0.0020689797,0.029843075,1.740694,11.999712,11.94087,11.979962,11.962525,3.2935383319854736,1000.0,8.731303366025289
37,370000,175.31549738068583,-12.17148,0.008130276,0.0026175452,0.032829575,1.6780496,12.181686,12.129342,12.185123,12.160437,3.2484898567199707,1000.0,8.969270368417105
38,380000,181.33403312797904,-11.983362,0.008200425,0.00026274883,0.026602536,1.9679592,12.027824,11.962677,11.999501,11.975029,3.4203336238861084,1000.0,9.21499547958374
39,390000,186.07838210487222,-12.635937,0.00847791,-0.0005464746,0.025861196,2.0644586,12.643229,12.57904,12.6534395,12.59734,3.063197374343872,1000.0,9.455662008126577
40,400000,185.37099049268465,-13.128809,0.00857203,-0.0005624088,0.048275176,2.0656097,13.164562,13.083497,13.146515,13.119885,3.352080821990967,1000.0,9.695164279143016
41,410000,180.26609569482758,-13.01278,0.0086376965,0.00023002923,0.023172813,1.9733691,13.000153,12.973716,13.029825,12.952925,3.37048602104187,1000.0,9.936566523710887
42,420000,191.49229314541623,-13.232866,0.0087303845,-0.00054362614,0.0254498,2.0622683,13.253672,13.189398,13.25087,13.207055,3.388762950897217,1000.0,10.181584413846334
43,430000,192.51296840329235,-13.304841,0.008920445,-0.0026096487,0.026554458,2.2925467,13.328716,13.269534,13.325292,13.280195,3.2904629707336426,1000.0,10.4231525460879
44,440000,190.74887850477057,-13.22529,0.008985635,-0.0012240639,0.028897434,2.1362247,13.270797,13.19127,13.244486,13.207283,3.2281365394592285,1000.0,10.661432751019795
45,450000,196.70209883962104,-13.472421,0.009129108,9.46417e-05,0.019372616,1.989633,13.47954,13.435982,13.490585,13.439232,3.27860426902771,1000.0,10.90298035144806
46,460000,198.37405387060988,-13.755251,0.009264356,0.00046734925,0.076693125,1.949554,13.760147,13.724813,13.773312,13.713684,3.194387912750244,1000.0,11.139661912123362
47,470000,197.9363554999277,-13.820541,0.009485153,0.0031787492,0.024004491,1.6648711,13.8319,13.786445,13.836332,13.794277,3.268018960952759,1000.0,11.38149482011795
48,480000,198.71674678363058,-14.136685,0.009449958,-0.002567057,0.023949414,2.2716475,14.166695,14.0972595,14.158154,14.105969,3.374840021133423,1000.0,11.626003348827362
49,490000,202.08312465973395,-14.125244,0.00925289,-0.0011137425,0.03312062,2.120367,14.14819,14.096356,14.144862,14.0968685,3.2002921104431152,1000.0,11.863333435853322
50,500000,198.83522057089846,-14.186385,0.009333485,0.0019862722,0.025359266,1.7871885,14.196974,14.146449,14.203066,14.155185,3.3143932819366455,1000.0,12.105633417765299
51,510000,204.9262760363328,-13.80454,0.0093826605,0.0010542059,0.02397683,1.8876431,13.840843,13.77309,13.822251,13.774468,3.3578040599823,1000.0,12.349411006768545
52,520000,204.06489374321237,-14.260444,0.009575463,0.00090935524,0.01408395,1.9050329,14.272673,14.220581,14.278686,14.238235,3.3217110633850098,1000.0,12.59376437664032
53,530000,202.04109987445068,-14.133064,0.009562681,0.0015917562,0.026557516,1.833545,14.136313,14.1017685,14.150599,14.098896,3.3965439796447754,1000.0,12.835448241233825
54,540000,208.40669442153853,-15.163594,0.009354535,-0.0015176494,0.02615002,2.1622367,15.157515,15.129906,15.183821,15.112051,3.1993699073791504,1000.0,13.072205523649851
55,550000,202.45303413576363,-14.98712,0.009498349,-0.0008303307,0.028731424,2.0874186,15.017553,14.959581,15.006947,14.956375,3.505445718765259,1000.0,13.31684588988622
56,560000,196.92479532673593,-14.838205,0.009666485,0.0020477795,0.033818528,1.7881567,14.837425,14.817583,14.85549,14.818743,3.2277114391326904,1000.0,13.558243493239084
57,570000,208.11521135991717,-14.675055,0.009556255,0.0030948105,0.022044221,1.6761482,14.684645,14.653036,14.691072,14.647528,3.4132494926452637,1000.0,13.803226478894551
58,580000,184.78591284374477,-15.29097,0.009456136,0.000683297,0.019332536,1.9277403,15.295263,15.271265,15.309198,15.272569,3.4240522384643555,1000.0,14.047205865383148
59,590000,207.03756011009105,-15.06019,0.009362112,-0.0016833326,0.035034157,2.1798027,15.065208,15.048113,15.080598,15.034935,3.382260322570801,1000.0,14.290600184599558
60,600000,208.92864540426854,-15.26234,0.0094581125,0.0013747624,0.023664244,1.8546474,15.270823,15.261,15.2798815,15.268745,3.1770708560943604,1000.0,14.529369008541106
61,610000,201.3484949804792,-15.528215,0.009463399,-0.000802535,0.034781806,2.084804,15.534535,15.508241,15.547944,15.503973,3.5058929920196533,1000.0,14.776535133520762
62,620000,215.92983425564157,-15.295244,0.009481245,0.0027876538,0.030192643,1.7059823,15.321698,15.262085,15.3114195,15.278589,3.3177716732025146,1000.0,15.0209392786026
63,630000,207.0178784740521,-15.459732,0.009492329,0.00039218366,0.021457642,1.9586841,15.486976,15.450031,15.478324,15.448187,3.353774070739746,1000.0,15.264351960023244
64,640000,210.68783439930303,-15.941847,0.00955548,-0.00056030916,0.028069537,2.0586376,16.00694,15.924561,15.961518,15.957147,3.221975803375244,1000.0,15.504963545004527
65,650000,213.71312638618468,-15.725794,0.009556965,0.00012381864,0.021374095,1.9870441,15.744313,15.706417,15.744783,15.721444,3.116053581237793,1000.0,15.743928666909536
66,660000,213.58583004418287,-15.880519,0.0095054135,-0.004049452,0.03040538,2.4260154,15.894545,15.873863,15.90358,15.889646,3.2414133548736572,1000.0,15.984158857663472
67,670000,207.1570216110681,-15.573592,0.009623663,0.0020902772,0.024217557,1.7827982,15.601023,15.559256,15.590749,15.564013,3.270305871963501,1000.0,16.2265607992808
68,680000,210.3586188263348,-16.009144,0.00944347,-0.0014091686,0.01769378,2.1492214,16.02848,15.985939,16.029438,16.001371,3.181978702545166,1000.0,16.467294351259866
69,690000,215.53821445059057,-16.079538,0.009479676,0.00071938685,0.019694053,1.9241127,16.079027,16.056265,16.097778,16.038164,3.0865867137908936,1000.0,16.702960379918416
70,700000,194.85660855461856,-16.135593,0.00951986,-0.001386629,0.020666309,2.1456563,16.13671,16.115118,16.156021,16.109661,3.1299872398376465,1000.0,16.940921847025553
71,710000,214.01830029026956,-16.089151,0.009727501,0.00326479,0.026414419,1.6643752,16.117676,16.085066,16.105343,16.084412,3.34165620803833,1000.0,17.180592540899912
72,720000,210.09338079782947,-16.32206,0.009755009,0.0035070223,0.043485925,1.64049,16.280846,16.295221,16.338062,16.26325,3.311826467514038,1000.0,17.42133109966914
73,730000,215.46903460366133,-16.516964,0.009483863,9.8769146e-05,0.027355509,1.9895855,16.518906,16.507744,16.535833,16.503109,3.185950756072998,1000.0,17.660944135983787
74,740000,215.40092302106592,-16.311975,0.0096483,0.00073279033,0.044492334,1.9240499,16.29095,16.311064,16.33054,16.269482,3.3691306114196777,1000.0,17.90876795053482
75,750000,214.77022312963314,-16.011902,0.0098039685,-0.0029107989,0.02324405,2.2969003,15.9838505,15.995131,16.03442,15.963716,3.21225905418396,1000.0,18.149223812421162
76,760000,212.68670991404602,-16.787582,0.009541734,-0.0009747554,0.025759213,2.102157,16.763376,16.767036,16.80764,16.777441,3.2755091190338135,1000.0,18.386933660507204
77,770000,220.24634230447018,-16.710178,0.009777614,0.0010045688,0.025089156,1.8972583,16.687931,16.67496,16.72873,16.672443,3.4425454139709473,1000.0,18.629239523410796
78,780000,194.22060958855872,-16.492348,0.009425844,0.0013327871,0.025976406,1.8586028,16.453957,16.479433,16.509869,16.448463,3.1697301864624023,1000.0,18.869757310549417
79,790000,218.0411557517838,-16.714214,0.009620565,9.8261604e-05,0.027239982,1.9897861,16.740183,16.709133,16.733356,16.716099,3.1175858974456787,1000.0,19.10753463904063
80,800000,221.49311814039825,-16.972538,0.009727988,0.00140458,0.02216142,1.8556144,16.954308,16.961237,16.99059,16.963085,3.206071376800537,1000.0,19.34501883586248
81,810000,215.30302654956571,-16.460558,0.009717603,0.0014796024,0.022682218,1.8477399,16.476873,16.441578,16.478512,16.443666,3.1981732845306396,1000.0,19.584801228841147
82,820000,197.35982515132548,-16.920868,0.009464618,0.0020388775,0.029890198,1.7845789,16.945553,16.91249,16.937757,16.9057,3.285322427749634,1000.0,19.829293386141458
83,830000,222.2968281342567,-16.974207,0.009557025,-0.0029457854,0.027372856,2.3082323,17.014511,16.965597,16.996267,16.968346,3.397409677505493,1000.0,20.071327447891235
84,840000,220.19460510433197,-16.80474,0.009444664,0.0023197052,0.014745464,1.7543899,16.785854,16.791546,16.821312,16.787336,3.2563652992248535,1000.0,20.311263783772787
85,850000,217.75478808667873,-16.911808,0.009304837,0.0015914149,0.024809571,1.8289691,16.947893,16.907864,16.928827,16.937122,3.3120269775390625,1000.0,20.55275535583496
86,860000,204.84263456660014,-16.943897,0.009497144,-0.00036369916,0.02500981,2.0382957,16.965233,16.9326,16.963257,16.938766,3.151930093765259,1000.0,20.79245305856069
87,870000,222.47052905922519,-17.015709,0.009516411,0.00014389123,0.027807154,1.9848797,17.00749,17.015142,17.0346,17.008663,3.2976746559143066,1000.0,21.034785997867584
88,880000,202.057781070746,-17.024715,0.009436407,0.00077385805,0.02601194,1.9179924,17.061302,17.004694,17.042814,17.031532,3.3841350078582764,1000.0,21.27589707374573
89,890000,225.5939013486835,-16.895727,0.009509058,0.0013762829,0.02946133,1.8552661,16.8648,16.880451,16.913368,16.855618,3.188194513320923,1000.0,21.514792851607005
90,900000,226.5477801548207,-17.401037,0.009444573,-0.00041582767,0.030928353,2.0440283,17.41417,17.390669,17.420341,17.386246,3.3325464725494385,1000.0,21.75967721939087
91,910000,223.12328445717895,-17.539364,0.009530394,0.003567276,0.027725937,1.6256948,17.532696,17.524364,17.55486,17.513508,3.143105983734131,1000.0,22.001962542533875
92,920000,221.6921260336415,-17.283195,0.009526194,0.002163685,0.02315751,1.77287,17.288706,17.260674,17.300085,17.279213,3.392503023147583,1000.0,22.243664809068044
93,930000,218.80564678888913,-17.308176,0.0093301,-0.0015619334,0.03340882,2.167408,17.340935,17.304947,17.328398,17.313606,3.292250633239746,1000.0,22.486641915639243
94,940000,222.6759360429165,-17.88596,0.009579559,-0.001540137,0.03110541,2.1607733,17.867775,17.876904,17.906658,17.840088,3.2773776054382324,1000.0,22.727368752161663
95,950000,224.76783351836883,-17.829899,0.009529666,0.001198676,0.02722012,1.8742164,17.84054,17.83562,17.847757,17.842651,3.2831835746765137,1000.0,22.96821657419205
96,955000,226.02755050772026,-18.043451,0.009571045,0.0018573259,0.025695156,1.8059433,18.045158,18.035858,18.060736,18.033346,3.3268377780914307,1000.0,23.116004753112794
97,960000,228.80443521882708,-17.477522,0.009453648,0.00014397717,0.023202067,1.9847703,17.450165,17.464138,17.496284,17.434654,3.1870429515838623,1000.0,23.260630428791046
98,965000,226.0422714863002,-17.383995,0.009637351,0.00030698325,0.023355339,1.9681466,17.3871,17.37392,17.402964,17.342352,3.2383193969726562,1000.0,23.405713252226512
99,970000,227.61391378472376,-17.641396,0.0093836,-0.0006844356,0.027754314,2.0729396,17.629686,17.62989,17.660847,17.614061,3.1338253021240234,1000.0,23.552753671010336
100,975000,225.94244871660152,-17.453367,0.009594809,0.0022703083,0.023379903,1.7633815,17.462406,17.438587,17.470287,17.431458,3.1818268299102783,1000.0,23.701554799079894
101,980000,224.4478890087159,-17.505026,0.009488405,0.0007828248,0.015109241,1.9174967,17.515884,17.516384,17.52322,17.514906,3.2713429927825928,1000.0,23.84946358203888
102,985000,206.00647674991419,-17.385054,0.009591832,0.0035989573,0.017515726,1.6247892,17.408726,17.389645,17.400639,17.380632,3.2014012336730957,1000.0,23.995213572184245
103,990000,207.54306860084245,-18.09483,0.009499754,-0.0022192905,0.02570653,2.2336156,18.121109,18.080725,18.116047,18.095201,3.1857917308807373,1000.0,24.13886329730352
104,995000,229.31638934505378,-18.020546,0.0096287755,-0.0015276123,0.020229053,2.1586509,18.056122,18.021048,18.041328,18.0346,3.153348207473755,1000.0,24.28480180899302
105,1000000,214.38295288846635,-17.629921,0.00970623,0.0015827641,0.02841949,1.8369331,17.60851,17.620373,17.64775,17.60393,3.134519100189209,1000.0,24.42972695827484
