fuyw/jrlzoo/sac/curves/mujoco/halfcheetah-v2/sac_s3_20230310_181225.csv
,step,reward,actor_loss,alpha,alpha_loss,critic_loss,logp,next_q,q1,sampled_q,target_q,eval_time,eval_step,time
0,0,-282.80898222627445,,,,,,,,,,,,
1,10000,-299.1293216999462,,,,,,,,,,,,
2,20000,-115.58515475435543,-37.284218,0.10326005,0.44994548,2.3059294,-1.3574017,37.22232,36.75029,37.14405,36.575417,2.9532835483551025,1000.0,0.5040450096130371
3,30000,2166.3653767632823,-42.938152,0.04479182,0.005039084,4.214508,2.8874998,42.398403,42.42899,43.06749,42.06285,2.9036781787872314,1000.0,0.7319576462109884
4,40000,3136.811122167717,-78.956406,0.094338074,0.024518963,8.198858,2.7400947,78.340546,78.35261,79.214905,78.186035,3.076228380203247,1000.0,0.9577182571093241
5,50000,3982.386052378047,-122.411644,0.12039293,-0.0006190026,14.076399,3.0051415,122.05162,122.043564,122.77344,122.196915,2.8791701793670654,1000.0,1.1864413102467855
6,60000,4634.091748364897,-145.34488,0.14681222,0.0074101742,23.42336,2.9495263,145.24838,144.84972,145.77792,145.30423,2.8942227363586426,1000.0,1.4089287161827087
7,70000,5186.462368033672,-178.11818,0.17198059,-0.03091738,39.25931,3.1797726,177.98497,177.94505,178.66502,178.14746,3.1488616466522217,1000.0,1.6380261023839315
8,80000,5197.763896070368,-207.42213,0.19558643,-0.06270532,25.004358,3.3206015,207.32605,207.56403,208.07161,207.55743,2.9669880867004395,1000.0,1.8658381541570028
9,90000,5316.1556242363,-237.20705,0.21641394,-0.015669674,21.637173,3.072406,237.26778,237.36063,237.87196,237.45612,3.0383918285369873,1000.0,2.0898598154385883
10,100000,5581.143797624486,-250.12708,0.23910311,0.042883374,14.355703,2.8206491,250.48947,250.4813,250.80151,250.7921,3.062041997909546,1000.0,2.3176056424776714
11,110000,5805.578094702459,-281.95743,0.25355414,-0.07599903,19.972778,3.299735,281.72668,281.85666,282.79407,282.08206,2.963840961456299,1000.0,2.5454578081766766
12,120000,5900.3191205330895,-304.11908,0.2678685,-0.036806073,77.374664,3.1374035,303.31177,304.6493,304.9595,303.6615,2.897085666656494,1000.0,2.7701746185620624
13,130000,5900.949818496844,-331.64224,0.2752078,-0.12798674,20.843239,3.465055,331.62384,332.06503,332.59583,332.19534,2.9805684089660645,1000.0,2.9936150789260862
14,140000,6090.593082283267,-341.3117,0.2860577,-0.11346835,19.380041,3.3966625,341.0682,341.4735,342.28333,341.51392,2.844477891921997,1000.0,3.21581240495046
15,150000,6281.049791891781,-344.24643,0.30293635,0.025334261,17.887894,2.9163709,343.33295,344.55826,345.12988,343.853,3.1342532634735107,1000.0,3.4471385876337686
16,160000,6325.895850131874,-362.05658,0.30561164,-0.080806114,22.98085,3.2644076,362.2248,362.6276,363.0542,362.52313,3.103107452392578,1000.0,3.6756155570348104
17,170000,6324.665690074041,-370.602,0.31320858,-0.022311246,21.869265,3.0712345,371.47012,371.25922,371.56393,371.89496,2.8673906326293945,1000.0,3.903047239780426
18,180000,6530.8744802679075,-383.10822,0.3150836,0.03681751,19.89456,2.88315,384.18896,383.30338,384.01666,384.54202,2.921511650085449,1000.0,4.130431520938873
19,190000,6644.113608610271,-395.12598,0.3215411,0.012960909,24.440784,2.9596913,395.60837,395.3655,396.07767,395.70413,2.929260492324829,1000.0,4.354514996210734
20,200000,6766.508364559397,-416.15317,0.31943777,-0.023505948,23.61605,3.0735855,416.64874,416.90164,417.13498,416.90195,2.979389190673828,1000.0,4.583768864472707
21,210000,6891.553723324915,-435.17502,0.3213326,-0.010293821,22.063385,3.0320349,434.15338,435.61038,436.1493,434.57843,2.824129581451416,1000.0,4.808372028668722
22,220000,7037.000630695153,-433.47574,0.33039287,0.0042205118,22.054626,2.9872258,433.2254,433.39185,434.4627,433.46136,3.0620415210723877,1000.0,5.037059783935547
23,230000,7174.831801656001,-457.16455,0.33836776,-0.022725495,18.91541,3.067162,457.79773,457.50885,458.20236,457.97736,2.8766114711761475,1000.0,5.261506060759227
24,240000,6751.829767329946,-471.20502,0.3393839,0.058180287,22.710945,2.8285708,470.3734,471.412,472.165,470.67584,3.002981424331665,1000.0,5.48984520037969
25,250000,7264.140533559985,-471.79358,0.3469036,0.04325282,25.748941,2.8753176,472.8545,472.10706,472.79102,473.00827,2.98647141456604,1000.0,5.717305024464925
26,260000,7514.741481686438,-486.7514,0.36253363,0.06038166,22.067335,2.8334453,487.80865,487.3434,487.77863,488.18268,3.0821022987365723,1000.0,5.946657705307007
27,270000,7699.367700983198,-512.28296,0.35726765,-0.049462248,18.507164,3.1384459,512.0539,512.458,513.40424,512.28345,3.2164721488952637,1000.0,6.181141861279806
28,280000,7995.669449965497,-501.48044,0.3632872,-0.04701393,25.83517,3.1294127,502.0199,501.62616,502.6173,502.1017,2.986161708831787,1000.0,6.409274967511495
29,290000,7994.1720739128505,-524.1041,0.3693378,0.04805627,25.24784,2.8698854,523.92114,524.2279,525.16406,524.0641,2.937349557876587,1000.0,6.636006347338358
30,300000,7875.28654061521,-526.443,0.3801391,0.09487447,33.20069,2.7504218,526.2657,526.7316,527.4885,526.26465,2.825725793838501,1000.0,6.858548398812612
31,310000,8190.920244916495,-555.6059,0.38001746,-0.19781265,24.317173,3.520536,555.0508,555.9061,556.9437,555.25665,2.911017894744873,1000.0,7.080321526527404
32,320000,8451.464786631266,-568.23926,0.39198887,-0.2489973,34.44149,3.6352153,567.82983,568.1748,569.6642,568.1797,2.87312388420105,1000.0,7.301727326711019
33,330000,8611.277212835517,-558.3514,0.38787264,0.111716285,29.559135,2.7119768,558.0355,558.5668,559.4033,557.9739,2.9102137088775635,1000.0,7.5257875442504885
34,340000,8335.563076774959,-575.8961,0.3985362,-0.091669455,20.835377,3.2300153,575.9096,576.3318,577.1834,576.0613,2.93654727935791,1000.0,7.7503340919812524
35,350000,8632.468812793008,-580.4873,0.40359995,0.06312111,21.86939,2.8436046,581.2036,581.13855,581.635,581.42505,2.929783344268799,1000.0,7.974242230256398
36,360000,8724.545777372447,-604.20215,0.40478617,0.09294078,37.059586,2.7703953,605.87366,604.3501,605.32355,606.172,3.148280382156372,1000.0,8.202852555116017
37,370000,8675.20337218357,-598.9628,0.40969843,0.00910075,32.250725,2.9777865,598.2921,599.34766,600.18274,598.58215,3.093100070953369,1000.0,8.436009164651235
38,380000,8881.538474780504,-605.9673,0.40874738,-0.048813265,37.037247,3.1194215,605.26056,606.0681,607.24243,605.36786,2.955105781555176,1000.0,8.663931302229564
39,390000,8770.592926081765,-627.2001,0.41076165,-0.21124727,31.318676,3.5142817,627.2226,627.924,628.6436,627.4063,2.9219837188720703,1000.0,8.888983102639516
40,400000,8942.033948920143,-600.9198,0.41604516,0.05981902,18.379395,2.8562198,600.9545,601.0459,602.10815,601.0119,2.965728521347046,1000.0,9.112126576900483
41,410000,9006.227571666885,-634.0725,0.41976407,0.0026850551,31.383682,2.9936032,634.85114,634.69617,635.3291,635.0914,2.976846933364868,1000.0,9.338049630324045
42,420000,9050.295353274198,-625.73755,0.42395264,0.010282401,27.522423,2.9757462,626.4612,626.8165,626.9992,626.40265,2.959779739379883,1000.0,9.560447283585866
43,430000,8909.426455812723,-644.57947,0.42501497,-0.103955805,34.98345,3.2445931,643.7068,644.65796,645.9585,643.80115,3.0101380348205566,1000.0,9.78811018069585
44,440000,8961.154263435554,-638.8452,0.42860034,-0.09037094,96.73332,3.2108512,639.17615,639.5547,640.2214,639.15265,2.866729497909546,1000.0,10.011068880558014
45,450000,9159.877949032127,-652.4144,0.42499024,-0.030413806,29.243692,3.0715637,651.9319,653.34534,653.7198,652.03107,2.9326765537261963,1000.0,10.23692189057668
46,460000,9192.451180148662,-665.16797,0.42687896,0.039515965,32.460094,2.9074306,664.79834,665.76587,666.40906,664.86816,2.8942840099334717,1000.0,10.460122334957124
47,470000,9330.79781806657,-649.16473,0.43101138,-0.047914654,29.684795,3.1111681,648.2849,649.02686,650.5057,648.43823,2.8794078826904297,1000.0,10.685702848434449
48,480000,9083.904522495819,-664.38086,0.42791036,0.035430264,32.708996,2.9172018,665.5051,664.7297,665.62915,665.4895,2.7719781398773193,1000.0,10.904081646601359
49,490000,9360.614213956907,-661.209,0.4342673,0.17750195,124.358376,2.591261,661.9232,661.3196,662.33435,661.90063,2.8728208541870117,1000.0,11.126891136169434
50,500000,9401.415091130688,-666.28564,0.43794447,0.09685317,19.627169,2.778846,666.69934,666.604,667.5026,666.72424,2.814913511276245,1000.0,11.348876078923544
51,510000,9101.423613296816,-660.7616,0.44057745,-0.09505932,28.78478,3.2157607,661.38135,660.74225,662.17834,661.2272,2.943898916244507,1000.0,11.573827457427978
52,520000,9165.611767118284,-679.5816,0.43765828,-0.06281716,32.676857,3.1435301,679.9682,679.7877,680.9574,680.1437,2.83697509765625,1000.0,11.79586664835612
53,530000,9483.788646074878,-677.6031,0.4335578,-0.15611723,18.424484,3.360084,678.46,678.2765,679.05994,678.4487,2.883211374282837,1000.0,12.01858389377594
54,540000,9601.901274742528,-695.11255,0.43988186,0.002281107,27.136215,2.9948144,696.00494,695.32434,696.4298,696.01556,2.8496017456054688,1000.0,12.244157258669535
55,550000,9595.471101934254,-691.4466,0.44080094,0.068104886,32.08777,2.8454974,692.1045,691.4761,692.70087,691.92957,2.9118144512176514,1000.0,12.4708878159523
56,560000,9465.884390390733,-694.2938,0.44129845,0.09268743,32.829994,2.7899666,695.16125,694.95624,695.525,695.25903,3.084533929824829,1000.0,12.69976048072179
57,570000,9690.113543744768,-701.17773,0.44710588,0.14440799,34.046062,2.6770163,701.87384,701.7239,702.3746,701.77026,3.0059711933135986,1000.0,12.930194516976675
58,580000,9561.454616840578,-722.3374,0.44059414,-0.015935197,24.028824,3.0361674,722.39655,723.2074,723.6751,722.5581,3.231633186340332,1000.0,13.168170150121053
59,590000,9765.1596252254,-731.7925,0.44423652,-0.024809346,28.49956,3.0558472,732.2187,732.45276,733.15,732.5733,2.9334375858306885,1000.0,13.400326736768086
60,600000,9708.332792895766,-728.34564,0.43907216,0.04465273,22.394688,2.898302,728.30066,729.01294,729.6182,728.56274,3.149535655975342,1000.0,13.628173259894053
61,610000,9764.852168045261,-720.36176,0.4375362,0.05713673,40.499973,2.8694124,721.7826,721.1176,721.6172,721.96155,2.9645462036132812,1000.0,13.856054433186848
62,620000,9775.688096369726,-724.9295,0.44125536,-0.072922915,27.559935,3.1652622,724.85236,725.5599,726.32623,724.94604,3.017533779144287,1000.0,14.083794295787811
63,630000,9537.00140406952,-743.08374,0.44573182,-0.009039916,27.238323,3.0202808,743.4026,744.24915,744.42993,743.6753,3.111477851867676,1000.0,14.314633178710938
64,640000,9856.4247858153,-732.19824,0.44823,-0.16223237,27.778831,3.36194,733.1685,732.6096,733.7052,733.1436,2.86210036277771,1000.0,14.541372342904408
65,650000,9970.054484747998,-732.231,0.44482523,0.23441085,30.449903,2.4730272,732.599,732.66125,733.3312,732.6758,3.020453691482544,1000.0,14.769503978888194
66,660000,9806.27051031787,-738.4739,0.44878668,0.06015385,31.350204,2.8659632,738.45825,739.09216,739.76013,738.5831,2.8713386058807373,1000.0,14.995594954490661
67,670000,9946.022640498533,-732.2562,0.44385406,-0.091025904,26.810951,3.2050807,732.2157,732.6979,733.67883,732.2744,2.893944263458252,1000.0,15.2216068704923
68,680000,9831.852605371814,-742.5516,0.43625477,0.10576279,31.524925,2.7575665,743.04535,743.2227,743.7546,743.0688,2.869396686553955,1000.0,15.446384922663372
69,690000,10010.85671113788,-758.81494,0.4429066,-0.026496548,60.275757,3.0598242,758.2377,759.2765,760.17017,758.4107,2.982853651046753,1000.0,15.671727701028187
70,700000,10041.781731349905,-755.97455,0.4416828,-0.07745358,26.136545,3.1753602,756.35095,756.75134,757.3771,756.48267,2.900294542312622,1000.0,15.896344542503357
71,710000,9907.292056826182,-754.74054,0.44278103,-0.0011068359,29.394753,3.0024996,754.89624,755.07336,756.06995,755.0655,2.911748170852661,1000.0,16.121606222788493
72,720000,10070.647716114543,-749.5408,0.44256467,-0.041319,36.903763,3.0933628,749.7542,750.1853,750.9098,749.8236,2.924665689468384,1000.0,16.34770365556081
73,730000,9957.186934301675,-766.039,0.44235298,-0.050426304,84.038994,3.1139958,766.9608,766.3478,767.4165,767.2656,2.974743366241455,1000.0,16.575496264298756
74,740000,10094.613334284568,-760.604,0.44204855,0.08031297,31.393017,2.8183165,760.77075,760.9679,761.84985,760.7543,2.925104856491089,1000.0,16.804315674304963
75,750000,10008.34994859538,-774.0484,0.44667456,-0.025985315,36.712105,3.058175,774.73694,774.6226,775.41437,775.1382,2.9060115814208984,1000.0,17.030601302782696
76,760000,9875.807045880098,-772.78375,0.44264692,-0.075525194,26.863026,3.1706219,773.01733,773.58136,774.1872,773.2442,3.1352040767669678,1000.0,17.261174205938975
77,770000,10267.881763426349,-784.2661,0.44406658,-0.27209863,27.57975,3.6127427,784.3928,784.42175,785.8705,784.7694,2.848139524459839,1000.0,17.485832858085633
78,780000,10135.348213905223,-781.6437,0.44130203,0.06033317,49.36809,2.8632836,780.8933,782.1503,782.9072,781.1161,3.1870808601379395,1000.0,17.720378013451896
79,790000,9939.43381461532,-771.171,0.4498839,0.039898094,31.439543,2.9113145,771.7637,771.5711,772.48083,771.7468,3.1467502117156982,1000.0,17.95504368940989
80,800000,10163.459422418968,-793.62366,0.4465465,0.036728412,32.26383,2.9177501,793.3745,794.6557,794.9266,793.55066,3.212010622024536,1000.0,18.188063569863637
81,810000,10112.163240831547,-770.0594,0.4498729,0.018546913,39.348145,2.958773,769.23804,770.10913,771.39044,769.35425,3.124419927597046,1000.0,18.421314827601115
82,820000,10209.52999929348,-773.41846,0.44372505,0.05730832,47.445312,2.8708472,774.32495,774.52563,774.6923,774.28955,3.199124813079834,1000.0,18.656545666853585
83,830000,10154.993636441273,-790.2588,0.44610304,-0.13014692,39.526394,3.2917418,789.46747,790.29846,791.7272,789.7026,3.1181576251983643,1000.0,18.89049425919851
84,840000,9855.675498709841,-797.125,0.44601828,0.084564745,37.593,2.8104005,797.8438,797.86566,798.37854,798.2627,2.9507203102111816,1000.0,19.12178039153417
85,850000,10357.773413053035,-796.3264,0.44230562,0.03692659,32.175316,2.9165134,795.98706,796.9929,797.61646,796.2863,3.1026175022125244,1000.0,19.34963578383128
86,860000,10212.760131816938,-795.704,0.44937924,-0.17968506,21.685232,3.3998518,797.4216,796.7279,797.2318,797.4986,2.954407215118408,1000.0,19.5780268907547
87,870000,10137.941422838067,-805.37976,0.4489052,-0.2359602,25.297882,3.5256348,806.0299,806.3255,806.9624,806.33777,2.9933700561523438,1000.0,19.806712142626445
88,880000,10267.335861080013,-796.76874,0.44064328,-0.05747834,26.232239,3.130442,796.55347,797.25104,798.1481,796.5988,3.2012417316436768,1000.0,20.03989073038101
89,890000,10416.664989640558,-786.3412,0.44203064,-0.012900647,21.94307,3.0291848,787.454,787.0794,787.6802,787.5364,2.9151957035064697,1000.0,20.26514693101247
90,900000,10228.90088424333,-812.8493,0.44465187,-0.19713555,25.738289,3.4433482,813.115,813.6489,814.3804,813.5354,2.7757623195648193,1000.0,20.486209563414256
91,910000,10094.362396248902,-816.81226,0.44721144,-0.011592455,33.028564,3.0259216,818.53204,817.59436,818.1654,819.0763,3.040443181991577,1000.0,20.710600074132284
92,920000,10223.912280333245,-782.8148,0.4463975,0.15680751,40.139503,2.648727,783.2168,782.8887,783.9972,783.26807,2.8553667068481445,1000.0,20.934460973739625
93,930000,10361.023991626256,-798.0459,0.4459999,-0.037590303,28.706528,3.0842834,799.0195,798.63806,799.42145,799.152,3.2134108543395996,1000.0,21.166881573200225
94,940000,10192.727635391799,-819.8323,0.44854552,0.050573446,25.501507,2.8872502,819.68506,820.39233,821.1273,820.12146,2.9282658100128174,1000.0,21.39452006816864
95,950000,10115.371428075761,-804.776,0.44778398,7.523596e-05,26.878828,2.9998322,805.072,805.4274,806.11926,805.32886,2.8536698818206787,1000.0,21.619630813598633
96,955000,10365.132799330748,-822.21045,0.45837334,-0.1045551,37.391544,3.2281003,822.61395,823.7501,823.69006,822.9931,3.102818012237549,1000.0,21.76116397778193
97,960000,10486.604308030683,-801.08374,0.45234996,-0.05500972,29.818172,3.1216087,802.4692,801.4835,802.4958,802.6201,3.136227607727051,1000.0,21.90188379685084
98,965000,10200.06999005748,-816.00494,0.4532993,0.009635307,35.2056,2.978744,816.49493,816.71326,817.3552,816.6055,2.8617095947265625,1000.0,22.03904397090276
99,970000,10482.484985383655,-814.7877,0.4525397,0.14813328,29.953627,2.6726623,815.2095,815.56323,815.9972,815.3425,2.9091873168945312,1000.0,22.174958686033886
100,975000,10406.537579239124,-813.6461,0.450052,-0.1456595,21.272112,3.3236504,814.0139,814.19385,815.14197,814.1732,2.8497135639190674,1000.0,22.308217644691467
101,980000,10393.33824026232,-812.197,0.45329434,0.004675038,29.470036,2.9896865,812.8563,813.37756,813.5522,813.21375,3.0084853172302246,1000.0,22.447888807455698
102,985000,10450.118056114121,-811.1904,0.45641705,-0.16901776,37.629875,3.3703141,811.85,811.77686,812.72864,812.1175,2.781684398651123,1000.0,22.582381749153136
103,990000,10420.152755552754,-821.0115,0.45612735,-0.043729313,24.054575,3.095871,822.25696,821.8047,822.4236,822.489,2.8091657161712646,1000.0,22.71660659313202
104,995000,10497.64560070886,-824.4173,0.44796708,-0.19336043,33.196526,3.4316397,825.18225,825.1988,825.9546,825.4622,2.873643636703491,1000.0,22.852154954274496
105,1000000,10436.76081835379,-809.5454,0.45382544,0.1934036,30.867064,2.5738368,810.6946,809.6238,810.71356,810.7715,3.005864381790161,1000.0,22.99011832078298
