fuyw/jrlzoo/sac/curves/mujoco/ant-v2/sac_s0_20230310_142128.csv
,step,reward,actor_loss,alpha,alpha_loss,critic_loss,logp,next_q,q1,sampled_q,target_q,eval_time,eval_step,time
0,0,-149.18594065126396,,,,,,,,,,,,
1,10000,-64.64571030791991,,,,,,,,,,,,
2,20000,-100.23142881698607,-39.630764,0.10297703,0.62787306,9.055251,-2.0972152,39.820442,39.157936,39.414803,38.977272,3.5336380004882812,690.7,0.4696624517440796
3,30000,526.5872530589261,-27.144096,0.021695746,0.0030138975,3.9977713,3.8610835,26.962082,26.714048,27.227865,26.509651,4.751390695571899,906.2,0.7705935915311177
4,40000,471.568253969308,-28.165237,0.02435314,0.007607326,4.8303547,3.6876245,27.952724,27.861008,28.255043,27.67435,4.0951454639434814,811.7,1.0607214530309041
5,50000,497.11435674292954,-31.855942,0.027745169,-0.0016118956,4.3408413,4.0580964,31.92483,31.675503,31.968533,31.755043,4.827130317687988,904.4,1.3677751262982687
6,60000,474.01175479139476,-34.425903,0.030421406,-0.005187393,3.4115682,4.170518,34.439095,34.32087,34.552773,34.38951,3.354429006576538,674.0,1.6509444157282511
7,70000,436.97632450400806,-36.828648,0.031272803,0.0036852588,5.4531283,3.8821578,36.823025,36.65408,36.950058,36.72763,3.152470111846924,614.0,1.9235646724700928
8,80000,455.46830064992434,-38.60023,0.032315627,0.0056715375,4.949471,3.8244956,38.958042,38.405937,38.723824,38.6929,2.8097317218780518,517.7,2.195293895403544
9,90000,757.95434617551,-46.407104,0.033926293,0.0008334558,4.5332556,3.9754333,46.15293,46.183006,46.541977,46.14168,4.471571207046509,856.8,2.4951212724049885
10,100000,544.5425038727551,-49.168205,0.035670195,0.0032349664,6.432346,3.909309,48.960716,48.93856,49.30765,48.826862,3.2582743167877197,665.1,2.773161800702413
11,110000,632.8404417479003,-56.507298,0.03659999,0.0018664582,4.962085,3.949004,56.53255,56.359108,56.651833,56.48608,3.6638338565826416,710.7,3.0615411758422852
12,120000,645.5609341438587,-59.04503,0.036795866,-0.0039268117,4.4813623,4.106719,58.860462,58.753216,59.196136,58.857246,2.8520586490631104,554.8,3.3311816652615867
13,130000,560.3285143704402,-61.6846,0.038292352,0.003178434,6.4357347,3.9169955,61.39158,61.33381,61.834595,61.370537,2.7807276248931885,556.2,3.599063189824422
14,140000,1103.856850804936,-67.870285,0.03865237,-0.00935026,4.6998444,4.241906,67.682465,67.63658,68.03424,67.58239,4.856128931045532,929.2,3.903515354792277
15,150000,533.3395109248514,-70.09372,0.040289912,-0.00035448023,7.375235,4.008798,70.21689,70.114655,70.25524,70.19446,1.6983821392059326,340.0,4.1556416312853495
16,160000,1059.2741759474661,-72.294235,0.041558366,-0.0061611584,6.1010137,4.1482534,72.421074,72.10394,72.46663,72.08948,3.8911755084991455,727.4,4.443541812896728
17,170000,677.9341584010901,-81.81345,0.042407736,0.003377823,12.768272,3.9203491,81.76701,81.46177,81.9797,81.35341,2.487494707107544,472.1,4.708243771394094
18,180000,889.4494372667739,-79.098785,0.043162737,0.018714631,7.9536395,3.566417,78.51387,78.90125,79.25272,78.80452,3.357670545578003,645.6,4.98654727935791
19,190000,1306.5199972573398,-89.182106,0.044622287,-0.0010389015,10.717327,4.023282,89.010025,88.9368,89.36164,88.97742,4.299885511398315,858.8,5.283771606286367
20,200000,1314.4720362534467,-81.93134,0.04513878,0.026497975,6.7758746,3.4129665,82.117645,82.120514,82.0854,82.06728,4.064554691314697,786.5,5.576465817292531
21,210000,1372.672767831385,-90.96658,0.047255013,0.0045715193,12.96949,3.9032583,90.68204,90.50252,91.151024,90.08725,3.735227584838867,725.1,5.868273154894511
22,220000,1212.7846673214128,-91.23234,0.047973927,0.005387309,11.805775,3.8877034,91.18784,91.1322,91.418846,91.2045,2.8535735607147217,580.5,6.137650366624197
23,230000,1417.912533619163,-96.97301,0.048684392,0.0064975284,9.601694,3.8665376,96.86477,96.85217,97.16125,96.784836,3.827181816101074,790.8,6.425716515382131
24,240000,2003.5155328857782,-102.482285,0.050501935,-0.01286869,23.465994,4.2548156,102.03818,102.32028,102.69716,102.00697,5.274682283401489,987.9,6.737088088194529
25,250000,1816.2771238385963,-110.36994,0.05182714,0.0064467434,18.96494,3.8756106,110.293396,110.5316,110.5708,110.3628,3.6190505027770996,739.7,7.020689888795217
26,260000,1230.2127218880646,-113.581764,0.052422993,-0.0017970009,29.005045,4.034279,111.99271,113.40051,113.79326,112.5542,3.114607810974121,640.2,7.296930114428203
27,270000,1317.5848611631081,-114.67505,0.052943055,0.0014797563,12.136913,3.97205,114.69206,114.93007,114.885345,114.63156,3.360241413116455,630.6,7.5776461084683735
28,280000,1588.305311950644,-118.65488,0.054419853,0.00054914644,10.111141,3.9899092,118.38484,118.5237,118.87201,118.13393,3.909459114074707,739.0,7.867677386601766
29,290000,2059.391568463349,-118.67259,0.05542853,0.005256215,10.527512,3.9051714,118.31814,118.501526,118.88905,118.32544,4.434786081314087,862.7,8.166090250015259
30,300000,1454.7077773105452,-118.10868,0.057437092,0.00011294824,15.630287,3.9980333,118.91047,118.22719,118.33832,118.90556,2.67236065864563,546.3,8.432776025931041
31,310000,1378.6694193060248,-123.75896,0.057620227,0.01638743,14.22764,3.7155957,124.093155,123.75941,123.973045,124.17138,2.4396414756774902,484.6,8.696414816379548
32,320000,2099.2359443827004,-134.1409,0.059365712,0.0036831824,16.948296,3.9379578,134.29448,134.25339,134.3747,134.26657,3.7003042697906494,742.3,8.97966932853063
33,330000,2707.8731084705914,-135.5794,0.060583144,-0.0040734373,24.993618,4.067237,135.3158,135.89958,135.8258,135.38342,4.342021942138672,861.4,9.2739124973615
34,340000,2408.968256764344,-145.5787,0.061821453,0.0041441442,14.531134,3.9329658,145.45618,145.55168,145.82184,145.50343,4.450781345367432,849.3,9.57057590484619
35,350000,1490.2459113060843,-142.57407,0.064154916,-0.004644885,17.375038,4.072401,143.06602,142.3736,142.83533,143.08157,2.8379805088043213,566.4,9.844694781303406
36,360000,2335.5174889668497,-150.75511,0.064878464,-0.0026162995,19.789587,4.040326,150.76897,150.79642,151.01724,150.74799,4.021115303039551,785.8,10.132437872886658
37,370000,3034.306070819603,-163.39111,0.065425165,-0.02235049,18.471714,4.341619,162.79155,163.36063,163.67514,162.929,4.726355314254761,947.1,10.433471624056498
38,380000,2245.5991187990994,-161.36801,0.066732936,-0.0021878406,18.352203,4.0327854,161.55145,161.8091,161.63712,161.59134,3.566967010498047,682.6,10.71826977332433
39,390000,2912.6749331645924,-164.23561,0.06892824,-0.00485289,35.81998,4.070405,164.0975,164.36905,164.51619,164.11826,4.514173269271851,874.6,11.016305832068126
40,400000,2575.036306285233,-173.12178,0.0711284,0.0038240517,27.791431,3.9462373,172.77414,173.27478,173.40247,172.87857,3.7387897968292236,738.5,11.302539757887523
41,410000,2679.6624275363365,-160.6424,0.069976814,-0.017379941,21.486122,4.2483673,160.9425,160.13904,160.93967,160.42343,4.282154321670532,822.1,11.598474709192912
42,420000,2952.509933475037,-178.3818,0.072211266,0.000192157,22.946846,3.9973388,178.10263,178.20679,178.67044,178.11649,4.097346305847168,828.1,11.892159942785899
43,430000,2865.156043418582,-174.42542,0.07392169,0.0052514356,23.133827,3.9289594,174.20578,174.56613,174.71585,174.19185,4.131145715713501,811.3,12.183695344130198
44,440000,2484.1213035034643,-176.69632,0.07419905,0.012446517,33.923035,3.8322551,176.7341,176.14185,176.98065,176.83292,4.439368963241577,849.8,12.483189638455709
45,450000,1461.207849037267,-187.3792,0.07722304,-0.013301536,20.965076,4.172248,187.71552,187.10706,187.70137,187.68117,2.9576339721679688,586.5,12.757205299536388
46,460000,2897.7685791562185,-190.32684,0.07843093,0.012982963,28.977562,3.8344665,190.34184,190.13257,190.62758,190.29153,4.2773590087890625,827.5,13.055072704950968
47,470000,2189.8000639859592,-186.35263,0.07832103,0.024097703,23.7033,3.6923215,186.38861,186.6363,186.64182,186.38896,3.1463043689727783,607.1,13.334085337320964
48,480000,2474.130990717969,-182.21332,0.079898,0.031715795,27.265484,3.6030464,181.9401,182.4028,182.5012,181.9834,3.704498767852783,764.1,13.62074117263158
49,490000,2450.7699496491578,-201.87027,0.08102864,0.009367036,22.326376,3.8843985,202.33423,201.78143,202.18501,202.31476,3.4390971660614014,693.6,13.901407599449158
50,500000,2525.608545926316,-207.36803,0.083184354,-0.013599233,35.05992,4.1634827,206.6876,207.22498,207.71436,206.70015,3.4179799556732178,679.6,14.177991771697998
51,510000,1933.2046970478655,-211.54747,0.08475406,0.0008493853,37.514175,3.989978,210.87854,211.61844,211.88565,210.89822,2.695610523223877,532.7,14.441355844338736
52,520000,3187.0231719062845,-193.04327,0.08596373,-0.009475419,30.654396,4.1102257,192.46417,193.09128,193.39659,192.41544,4.366313219070435,868.8,14.73237330118815
53,530000,3980.0918983209585,-213.11502,0.08520322,-0.050678022,36.027687,4.59479,213.23265,212.61206,213.5065,213.17574,4.993934154510498,960.5,15.038095664978027
54,540000,3993.4958317826286,-205.9274,0.08834403,0.02155551,45.271976,3.756005,205.86205,206.03632,206.25922,205.9094,4.383662462234497,929.9,15.334179786841075
55,550000,2943.3021602619165,-203.60599,0.08941758,0.025424883,295.29385,3.7156613,203.19487,203.77632,203.93823,202.42117,3.446481466293335,698.8,15.620241002241771
56,560000,3782.4191817246437,-207.98572,0.09221118,0.021521596,36.43476,3.7666051,208.46178,208.34479,208.33304,208.55396,4.5517072677612305,888.0,15.919159122308095
57,570000,4049.4811516084856,-224.67526,0.09392638,0.023247603,34.464012,3.7524912,224.39536,224.1941,225.02771,224.54434,4.573997497558594,908.1,16.214462586243947
58,580000,3957.841565327126,-225.20226,0.09480495,-0.008174747,160.4516,4.0862274,223.97028,224.72534,225.58966,223.99202,4.659013032913208,903.9,16.51944500207901
59,590000,4151.457148040239,-226.21211,0.098195344,-0.009751406,35.423138,4.099306,225.62375,225.92422,226.61465,225.61333,4.374998092651367,907.8,16.820614421367644
60,600000,2064.251965980685,-242.09137,0.10082286,-0.031387288,49.63807,4.3113117,243.10834,241.96765,242.52606,243.02792,2.7910852432250977,537.4,17.08668880860011
61,610000,3584.1327623918332,-239.03798,0.10191839,-0.012636691,58.217155,4.123988,237.71169,238.49918,239.45828,237.69592,3.889185667037964,784.3,17.374328231811525
62,620000,3095.743665079038,-246.65686,0.10477816,0.00889098,46.220955,3.9151447,246.94435,246.7127,247.06708,246.93513,3.760702133178711,763.6,17.66248038212458
63,630000,3885.1332958702815,-251.09317,0.10464621,-0.010229403,38.719864,4.0977526,250.13098,250.08823,251.522,250.12073,4.364955186843872,842.5,17.956592957178753
64,640000,3760.7814620203003,-258.62744,0.1053443,0.017437529,37.66007,3.8344712,259.40094,258.66638,259.03137,259.30316,3.983896255493164,796.3,18.24619648853938
65,650000,4392.480287373751,-261.91953,0.108737476,-0.006362487,37.976894,4.058512,262.00024,261.7805,262.36084,262.08633,4.9133570194244385,947.3,18.549517798423768
66,660000,4570.699396850535,-258.18524,0.10847706,0.009444713,47.81599,3.9129333,257.4629,257.84607,258.60974,257.58627,4.7982025146484375,959.7,18.85195352633794
67,670000,4972.502976732924,-263.48193,0.10911428,-0.019120457,34.169975,4.175233,262.18304,262.69064,263.9375,261.9931,5.116501331329346,1000.0,19.159868347644807
68,680000,4283.762218460625,-275.33844,0.10995363,0.000113375485,53.63614,3.9989688,275.45892,274.93896,275.77814,275.50928,4.282922267913818,888.3,19.45747773249944
69,690000,4883.196464521923,-271.3849,0.10991789,0.030580988,35.28328,3.7217832,271.37354,271.47845,271.794,271.39688,4.77461314201355,969.3,19.75835545460383
70,700000,4105.094622018043,-265.8834,0.11381172,0.013545366,38.77913,3.8809845,266.1015,265.49884,266.32507,266.13516,4.513085603713989,911.0,20.05768920580546
71,710000,4885.493553572789,-273.66693,0.11416764,-0.029292492,69.64673,4.2565746,272.72266,273.37598,274.1529,272.63177,5.136984348297119,1000.0,20.371247073014576
72,720000,2203.516837297109,-263.81232,0.11780477,-0.032206617,62.172615,4.27339,263.46802,263.36066,264.31573,263.5489,2.71828556060791,523.5,20.642473129431405
73,730000,4289.590630488995,-282.55786,0.11653335,-0.042981796,75.414825,4.368837,283.25845,282.4711,283.067,283.28244,4.186153888702393,871.8,20.935307216644286
74,740000,4964.407522177038,-289.69806,0.121446386,-0.013384527,53.048084,4.1102095,289.12387,289.74948,290.1972,289.2085,4.91876745223999,1000.0,21.23693971236547
75,750000,5021.785324968388,-296.7389,0.118897386,-0.0143245235,39.2139,4.1204777,296.89154,296.4521,297.22882,296.84564,5.14686918258667,1000.0,21.55070433219274
76,760000,3759.1789639969766,-299.09753,0.12226152,-0.059146572,40.61946,4.4837713,299.3323,299.16293,299.64575,299.25153,3.813109874725342,738.9,21.8428147315979
77,770000,5121.87949818342,-295.1789,0.12381213,-0.054568917,65.822525,4.4407396,293.9735,294.59387,295.7287,293.857,5.102171182632446,1000.0,22.153247479597727
78,780000,3980.491107430355,-310.40662,0.124271326,-0.04890793,49.393562,4.3935575,309.16473,310.48566,310.95264,308.95505,4.219400644302368,833.2,22.444809671243032
79,790000,5270.974524782535,-270.37796,0.12586178,0.013678731,51.10971,3.8913195,271.2052,270.5818,270.8677,271.10126,5.309461355209351,1000.0,22.76173380215963
80,800000,4548.085531659287,-279.6112,0.12694205,0.016234389,64.110535,3.8721118,278.55878,279.56616,280.10275,278.8789,5.313133001327515,1000.0,23.083254555861156
81,810000,5181.500776577195,-295.34286,0.12721862,0.0221272,36.15403,3.8260694,296.4195,295.4492,295.82962,296.4154,4.9591686725616455,1000.0,23.396558427810668
82,820000,4474.67216834713,-294.40555,0.12834984,-0.04139577,54.294624,4.322523,295.1645,293.48633,294.96036,293.8051,4.738518238067627,930.6,23.70071638027827
83,830000,5109.9087138931045,-310.60345,0.13122828,-0.01526792,52.185978,4.1163464,310.39246,310.46957,311.14362,310.47855,4.91583514213562,993.5,24.006130985418956
84,840000,5186.649941184291,-308.94247,0.13019262,0.0014925299,70.15633,3.988536,308.2121,308.72552,309.46176,308.16196,5.1647326946258545,1000.0,24.317281091213225
85,850000,5173.619653051615,-317.76587,0.13154161,0.018780254,40.908527,3.8572292,317.9655,317.7527,318.27325,317.99786,5.207977056503296,1000.0,24.627381797631582
86,860000,4611.4946275225075,-308.16003,0.1315261,-0.051085103,104.96195,4.388403,308.2252,307.97177,308.73718,308.17822,4.52766489982605,901.2,24.93243123292923
87,870000,4834.797335903639,-306.8815,0.13414852,0.048894994,39.23606,3.635516,306.33417,306.417,307.3692,306.25217,4.855787038803101,992.9,25.240892910957335
88,880000,5208.9063871553,-309.17325,0.1346827,-0.058512203,47.400238,4.434445,310.3829,308.8735,309.7705,310.20056,5.049871444702148,1000.0,25.548780353864036
89,890000,4793.307044117262,-315.97894,0.13574587,0.0072517656,43.11927,3.9465783,316.2417,316.17004,316.51468,316.25296,4.940114259719849,1000.0,25.856284550825755
90,900000,3755.837940362595,-336.428,0.13367404,-0.01149598,41.375847,4.086,337.08743,336.73004,336.97418,337.14886,3.7736589908599854,732.0,26.151486015319826
91,910000,5165.321815529849,-330.43692,0.13585186,-0.0069620647,61.698887,4.0512476,329.8225,330.1234,330.98727,329.82532,4.979877948760986,1000.0,26.463236355781554
92,920000,5015.705218181006,-318.6501,0.13438028,0.01569657,38.315407,3.8831928,318.2096,318.47205,319.17188,318.1471,4.97017765045166,959.6,26.770859289169312
93,930000,5107.663626435589,-328.05692,0.13622741,0.029892085,36.703415,3.7805722,328.1197,328.11795,328.5719,328.29797,5.08439040184021,982.8,27.07878054777781
94,940000,4878.111923755877,-328.6776,0.13646704,-0.007949005,40.18923,4.0582485,329.71625,329.02353,329.23145,329.60303,4.789406061172485,935.1,27.38604236046473
95,950000,4477.234437788288,-324.35175,0.13571398,0.004661523,104.731995,3.9656518,324.01257,323.49615,324.88995,323.0802,4.676828622817993,911.4,27.693128852049508
96,955000,5251.085202715741,-320.3269,0.13760497,0.032372937,40.070656,3.76474,319.74603,320.5665,320.8449,319.67053,5.025325536727905,1000.0,27.88857476313909
97,960000,4503.325728876345,-316.34998,0.13662982,0.030213771,34.280792,3.7788641,316.56586,316.38614,316.86627,316.7177,4.300864219665527,860.0,28.07285100221634
98,965000,4536.181181554106,-333.68207,0.13847558,0.034703374,49.030117,3.74939,333.7703,333.37573,334.20123,333.7838,4.679254531860352,947.6,28.261402475833894
99,970000,4446.483426853534,-318.19257,0.1375397,0.014774503,40.340733,3.89258,319.26944,318.2693,318.72794,319.18454,4.332763195037842,850.5,28.44400328397751
100,975000,5269.502977844731,-336.2899,0.13746475,-0.039431494,63.251884,4.286848,335.3222,336.02997,336.87918,335.31976,4.912018060684204,1000.0,28.635956088701885
101,980000,5109.105863849025,-336.20825,0.13968271,-0.08528352,48.07385,4.610552,336.7574,335.53943,336.85226,336.65057,5.012199401855469,977.3,28.83230785926183
102,985000,5306.92537522397,-331.9164,0.13739742,-0.0135832,46.201168,4.0988607,331.31088,331.58475,332.47958,331.4135,5.056836366653442,1000.0,29.031398344039918
103,990000,5150.776296883042,-338.42224,0.13770914,-0.010887589,47.528988,4.079062,337.948,338.96432,338.984,338.20947,5.148109197616577,983.0,29.23168689807256
104,995000,5174.879929001846,-336.6753,0.13790275,-0.039010122,100.13494,4.2828813,335.31073,336.22552,337.26593,335.30563,5.063783884048462,1000.0,29.4277792652448
105,1000000,4977.100377830722,-336.9793,0.13862121,0.00080880895,138.26509,3.9941652,336.70502,336.77536,337.53296,336.76266,4.6963183879852295,938.6,29.61833786169688
