fuyw/jrlzoo/sac/curves/mujoco/hopper-v2/sac_s2_20230310_165455.csv
,step,reward,actor_loss,alpha,alpha_loss,critic_loss,logp,next_q,q1,sampled_q,target_q,eval_time,eval_step,time
0,0,45.04791711788572,,,,,,,,,,,,
1,10000,32.374154077583526,,,,,,,,,,,,
2,20000,413.44616939698824,-99.246,0.21484326,-0.05652777,57.445415,1.7631117,94.90287,94.409454,99.6248,95.49597,0.6811833381652832,190.7,0.352838929494222
3,30000,336.6604025920478,-155.84677,0.2275398,0.023902353,41.306976,1.394953,150.99698,152.1942,156.16418,151.59067,0.45171546936035156,124.0,0.5424899816513061
4,40000,381.9272388296916,-172.55869,0.25460938,0.06020596,35.929253,1.263536,168.99297,170.05072,172.88039,169.31163,0.6056873798370361,178.0,0.7378354986508687
5,50000,13.07726912260389,-169.23804,0.2172217,-0.017058156,63.28013,1.5785289,164.80841,166.0936,169.58093,165.5679,0.08023381233215332,22.6,0.9185251871744792
6,60000,689.2268649318185,-181.81587,0.20628047,-0.016841367,28.177233,1.5816431,179.15096,179.0463,182.14214,179.26624,0.8271224498748779,237.6,1.1110622882843018
7,70000,299.3992160710888,-174.28085,0.19300395,-0.039856344,28.876616,1.7065053,171.66214,172.06299,174.61021,172.13239,0.3885536193847656,115.6,1.2967488209406535
8,80000,977.4528296217289,-180.43213,0.21640314,-0.01879212,52.642235,1.5868385,178.68556,177.70079,180.77553,178.99026,1.0715141296386719,316.9,1.4941553632418314
9,90000,972.2067349657827,-185.10869,0.19149579,0.0008305218,22.849728,1.4956629,183.53815,183.83688,185.39511,184.24272,1.1095151901245117,317.0,1.6927051107088724
10,100000,1218.6316027599426,-189.34685,0.18181705,-0.035492092,46.14238,1.6952078,186.97635,187.39482,189.65506,187.76749,1.389448881149292,409.6,1.8958795150121053
11,110000,1282.6893949358266,-195.18262,0.16603853,0.013331726,30.184988,1.419707,193.53787,193.31401,195.41833,193.66234,1.4902167320251465,409.5,2.105712588628133
12,120000,1783.8743683276111,-203.38359,0.15570736,-0.0068955617,11.239027,1.5442853,201.97284,202.70401,203.62404,202.4987,2.01007080078125,560.8,2.3231139461199444
13,130000,1738.7333689512882,-206.89532,0.14427567,0.005174093,13.533688,1.4641373,205.40114,205.75815,207.10657,206.00531,2.0684802532196045,574.0,2.5390701492627463
14,140000,1243.2661510242137,-217.98343,0.14234728,-0.010427438,15.847845,1.5732535,216.03021,216.50008,218.20737,216.45529,1.3701682090759277,378.5,2.744687223434448
15,150000,1061.8385346451205,-207.24551,0.1366799,-0.046811946,10.13433,1.8424933,204.78287,205.85025,207.49734,205.60272,1.0971324443817139,323.3,2.946825015544891
16,160000,817.9286310040466,-219.55348,0.13368641,-0.025568243,22.071653,1.6912553,217.99307,218.52765,219.77957,218.4646,0.8070626258850098,249.2,3.1390806953112285
17,170000,2013.8477651899327,-214.20111,0.12895535,-0.037261292,15.697157,1.7889472,212.02997,213.59161,214.43181,213.03818,2.197782039642334,624.6,3.3558725754419965
18,180000,1199.1796739102642,-222.4456,0.123064026,-0.0022248616,7.7520056,1.5180789,220.31778,220.73515,222.63242,220.9012,1.2569785118103027,361.3,3.5596792300542197
19,190000,1520.9747902470795,-223.31775,0.12145506,-0.011542946,19.502111,1.5950389,221.9542,222.91344,223.51147,222.71387,1.6269927024841309,465.8,3.7692612608273826
20,200000,2055.2557822104654,-227.07921,0.11871715,0.0073241564,8.180249,1.4383059,225.57976,225.59784,227.24997,226.06226,2.380429267883301,661.5,3.9946582833925883
21,210000,1546.0557564276346,-227.88528,0.11636728,-0.009285306,24.777254,1.5797931,226.42877,227.27379,228.0691,226.92169,1.5848233699798584,471.4,4.20456831852595
22,220000,2577.5081770009683,-226.46725,0.11178922,-0.01508141,12.557941,1.6349094,225.18567,226.17758,226.65002,225.86295,3.000481128692627,834.3,4.436472543080648
23,230000,2991.9168093939047,-236.62144,0.10961955,-0.022841632,10.203618,1.7083719,234.70883,235.28046,236.80872,235.00758,3.383216619491577,1000.0,4.676683533191681
24,240000,2695.1711288628603,-238.42459,0.104956575,-0.002126092,7.3509,1.520257,237.04199,237.95053,238.58417,237.55066,3.0695786476135254,926.0,4.908638139565785
25,250000,1925.613540029998,-248.78561,0.10391976,-0.016383737,48.9,1.6576576,246.67737,247.77104,248.95784,246.87769,2.116920232772827,601.9,5.127594633897146
26,260000,1252.572346618123,-235.35744,0.10309386,-0.0055955043,8.13521,1.5542758,234.16092,234.62738,235.51767,234.70741,1.288557767868042,377.6,5.329111286004385
27,270000,2006.8265672978073,-249.99298,0.0978942,0.014324481,36.100433,1.3536738,249.14095,249.54114,250.12549,249.47307,2.18473482131958,622.9,5.54519560734431
28,280000,2698.7168250319373,-243.55836,0.095999256,0.012229087,4.449997,1.3726127,241.98355,242.78554,243.69012,242.58212,2.808614730834961,854.0,5.771695836385091
29,290000,2229.78944092681,-250.3756,0.09349417,-0.0037106588,7.3065677,1.5396886,249.64624,249.98924,250.51955,250.07993,2.5161116123199463,698.3,5.998773380120595
30,300000,3151.2704579267806,-253.92247,0.09291257,0.008490772,8.889018,1.4086155,253.08617,253.34991,254.05336,253.45706,3.4062623977661133,1000.0,6.240247130393982
31,310000,3090.7618229468867,-245.94849,0.09288807,0.022737145,8.183115,1.2552199,245.47678,246.0668,246.0651,246.03354,3.5627527236938477,1000.0,6.479634884993235
32,320000,2586.5464245651096,-256.42236,0.08953555,-0.0019968874,4.0167513,1.5223027,255.98373,255.86565,256.55865,256.14767,2.8147287368774414,809.2,6.708918491999309
33,330000,1728.3040701256639,-259.45642,0.09050302,0.0045479294,7.446469,1.4497483,257.7489,257.4848,259.58765,257.65967,1.846696376800537,523.2,6.9210437655448915
34,340000,2489.918368416541,-253.91675,0.08546956,0.0002906844,9.207108,1.496599,252.64954,253.67928,254.04466,253.15515,2.7061948776245117,766.9,7.148975729942322
35,350000,3166.3511650854175,-258.63885,0.08429771,0.010742004,6.0042343,1.3725706,257.7359,258.27814,258.75458,258.0224,3.5201311111450195,1000.0,7.389633536338806
36,360000,2380.8236531527314,-267.6931,0.08199498,0.005747027,7.003703,1.42991,266.84448,267.57797,267.8104,267.1366,2.548335313796997,734.2,7.615307545661926
37,370000,2357.4127944380316,-268.78748,0.08239957,0.0044441116,3.5960515,1.4460664,268.23004,268.34195,268.90665,268.49915,2.4659833908081055,738.8,7.838787293434143
38,380000,1661.9810361510783,-262.87024,0.081667006,-0.020872332,8.12965,1.7555785,262.2247,262.7497,263.0136,262.64508,1.75754976272583,504.4,8.047741643587749
39,390000,2595.5420702646934,-260.50778,0.07918798,-0.00624346,10.307591,1.5788436,260.85608,260.43964,260.6328,261.21854,2.7010674476623535,787.9,8.272355143229166
40,400000,1303.2713366755563,-269.33167,0.07657096,-0.004190907,5.1979465,1.5547323,268.27356,269.36917,269.4507,268.65027,1.2971081733703613,387.4,8.474842564264934
41,410000,1189.2737834694665,-264.08228,0.07785991,-0.007984421,6.357767,1.6025486,263.77673,264.09973,264.20703,264.25226,1.248119831085205,355.5,8.679737786451975
42,420000,3164.4409783378023,-270.42926,0.07431519,-0.002606634,4.531982,1.5350753,268.97366,269.9525,270.54333,269.42023,3.466968059539795,1000.0,8.919857744375864
43,430000,3206.4231062455797,-273.12457,0.07463986,0.0031084442,6.8584323,1.458354,271.80212,272.23053,273.2334,272.05658,3.5397307872772217,1000.0,9.160862191518147
44,440000,2614.9050176721266,-273.00586,0.07289708,0.016193457,3.093161,1.2778586,272.7678,272.87378,273.099,273.10736,2.7680881023406982,779.9,9.388601271311442
45,450000,3034.3165623409236,-271.09665,0.07318997,0.0043162126,2.8858078,1.4410273,270.2047,270.94217,271.2021,270.53534,3.288123607635498,931.9,9.624398255348206
46,460000,2906.740793492173,-264.47522,0.0721805,-0.0027564126,4.6020603,1.5381877,264.21722,264.3197,264.58624,264.6098,3.008521795272827,880.6,9.858530728022258
47,470000,2747.837912933707,-273.3346,0.07141281,0.009706572,4.4046326,1.364078,273.3363,273.1386,273.432,273.65204,2.9863128662109375,836.5,10.090814983844757
48,480000,3205.7198953336024,-281.38635,0.068556376,0.0075857355,5.11339,1.3893504,280.78302,280.81555,281.4816,280.9809,3.538026809692383,1000.0,10.333864657084147
49,490000,3010.1756994411435,-271.40247,0.06787033,-0.019818883,8.634303,1.7920111,270.23987,270.2934,271.5241,270.57602,3.3146464824676514,930.6,10.57331142425537
50,500000,2222.671411642238,-282.18274,0.068116404,0.004716294,2.4813414,1.4307612,281.47253,281.6626,282.28018,281.69357,2.4370615482330322,697.5,10.794642353057862
51,510000,2027.5876865740793,-281.95554,0.06638505,-0.0011923459,2.445688,1.517961,281.49982,281.74738,282.0563,281.7187,1.9989142417907715,601.3,11.008297940095266
52,520000,3175.5088903260394,-280.06934,0.0646723,0.0021108033,3.4090457,1.4673615,279.62234,280.31207,280.16425,279.82812,3.25239634513855,977.8,11.241612335046133
53,530000,3171.3850321941964,-275.73053,0.0645274,0.015330248,3.5947106,1.2624227,275.18985,275.45404,275.812,275.52002,3.280579090118408,967.8,11.478036975860595
54,540000,2645.896421374822,-285.37283,0.064589836,-0.00031320564,2.3409405,1.5048492,285.14557,285.2656,285.47003,285.37396,2.608849048614502,800.1,11.702479402224222
55,550000,2326.487188415353,-276.58966,0.06536242,-0.004117771,7.3320875,1.5629991,275.69162,276.48062,276.69183,276.05133,2.435603618621826,704.9,11.924111890792847
56,560000,3169.686816943492,-277.63498,0.062350243,-6.548152e-05,3.1987169,1.5010502,277.5636,277.63733,277.72858,277.81067,3.5426700115203857,1000.0,12.166450663407643
57,570000,2966.680425163247,-288.81723,0.063356765,0.020612419,2.7588882,1.1746612,288.96793,289.33374,288.89166,289.1598,3.2572484016418457,932.0,12.40268095334371
58,580000,3187.3117218410516,-282.4392,0.061073236,0.0016160547,5.2535114,1.4735391,282.56134,282.47565,282.52917,282.75912,3.5688796043395996,1000.0,12.643261245886485
59,590000,3211.084397581075,-284.42413,0.06271855,0.022676114,4.947169,1.1384463,283.9649,284.53705,284.49548,284.26544,3.3847274780273438,987.2,12.881221894423167
60,600000,3190.249249612084,-283.83707,0.060739182,0.0010181784,3.384071,1.4832368,282.88275,283.6499,283.92712,283.0664,3.482053279876709,1000.0,13.120753224690755
61,610000,3149.4274884975757,-286.4494,0.060210466,-0.00025955494,2.5180469,1.5043108,286.1474,286.39032,286.53998,286.4338,3.35302734375,1000.0,13.359576706091563
62,620000,3225.119911222484,-288.05545,0.058806516,-0.008511184,1.8944457,1.644732,287.35672,287.91656,288.15216,287.6098,3.470625638961792,1000.0,13.598435080051422
63,630000,2825.669276159416,-287.16895,0.0563364,0.014400502,3.7614193,1.2443837,286.30933,286.80066,287.23907,286.55765,2.961059331893921,875.7,13.82799665927887
64,640000,3211.584084941215,-287.72336,0.057108723,-0.0009497589,2.2561488,1.5166306,287.44318,287.727,287.80997,287.62085,3.3813302516937256,1000.0,14.064711181322734
65,650000,3189.2244333191393,-285.09796,0.054913703,-0.0036155102,3.550222,1.5658398,285.21124,284.87466,285.18396,285.5105,3.518984079360962,1000.0,14.304096221923828
66,660000,3059.236039100862,-283.6441,0.054873228,0.00946402,5.5036545,1.3275294,282.9912,283.61285,283.71698,283.40848,3.1451120376586914,928.8,14.53725959857305
67,670000,2923.991993987872,-287.28696,0.054946177,0.012988405,4.7574906,1.2636158,286.35843,286.5895,287.35638,286.64053,3.144597291946411,883.3,14.774285765488942
68,680000,2186.7475645227737,-296.8393,0.053702712,-0.0055255177,3.0147293,1.6028908,296.157,296.6585,296.9254,296.2365,2.309112310409546,641.6,14.99636741479238
69,690000,3263.3356814053423,-297.33838,0.055073116,-0.0033872281,4.8692265,1.5615042,296.96817,297.44202,297.42438,297.1469,3.5080618858337402,1000.0,15.238621119658152
70,700000,2127.8855810188606,-298.2881,0.0525338,0.0038594208,3.504459,1.4265344,298.04688,297.90002,298.36304,298.14102,2.1185202598571777,617.0,15.456916530927023
71,710000,1740.395166305796,-292.0508,0.052590664,-0.004875747,2.4457612,1.5927112,291.5394,292.0125,292.13458,291.8084,1.7351689338684082,516.9,15.6681117216746
72,720000,2368.5812103993253,-289.41858,0.052130345,0.008209949,3.6750464,1.3425112,289.158,289.67267,289.48856,289.4372,2.475701093673706,699.4,15.890207807223002
73,730000,3234.026067413959,-291.205,0.05107823,-0.008737642,2.144011,1.6710639,291.08826,291.20618,291.29034,291.28625,3.553703546524048,1000.0,16.13133012453715
74,740000,3007.2008477864156,-296.4599,0.050912116,-0.003160513,2.3008053,1.5620778,296.63007,296.36954,296.53943,296.74545,3.3413524627685547,909.6,16.369399746259052
75,750000,3204.4557421614136,-297.48633,0.05225301,0.011713476,3.699512,1.2758315,297.81378,297.72412,297.553,297.92047,3.4545185565948486,973.1,16.608761445681253
76,760000,3262.236741906612,-295.70212,0.05179984,0.008334229,2.785818,1.339107,295.0547,295.47592,295.77148,295.21173,3.424567222595215,996.2,16.849303460121156
77,770000,3270.655514219998,-298.901,0.049883857,0.01811305,2.6023016,1.1368957,298.89075,298.9912,298.9577,299.05106,3.3924014568328857,1000.0,17.09204300244649
78,780000,3107.8040568321458,-298.59482,0.049590074,-0.0016749528,7.9580817,1.533776,296.98206,298.78247,298.6709,297.153,3.354522466659546,942.4,17.335418649514516
79,790000,3240.0837016736887,-300.66553,0.048295166,-0.0123116765,2.6024215,1.7549256,300.21442,300.1097,300.7503,300.37732,3.6386914253234863,1000.0,17.58326961994171
80,800000,3264.5664190645152,-299.10754,0.048536155,0.014342993,1.7426726,1.2044885,298.9369,299.00244,299.166,298.98672,3.6181252002716064,1000.0,17.829942377408347
81,810000,1604.6152892806426,-291.99896,0.04912215,0.001117348,4.0200434,1.4772537,291.6506,291.68527,292.07153,291.8731,1.588977336883545,456.3,18.044770165284476
82,820000,3246.122616428234,-295.5208,0.046444118,0.005860691,2.582628,1.373812,295.41318,295.47525,295.5846,295.6278,3.6656980514526367,1000.0,18.292024942239127
83,830000,3051.392811471815,-301.32236,0.04803434,-0.002264941,2.0211716,1.5471525,301.35132,301.2716,301.39667,301.3616,3.219747304916382,937.8,18.530867977937064
84,840000,3246.587213875603,-301.103,0.048211273,-0.004978439,4.04375,1.6032629,300.40625,301.03116,301.18033,300.53537,3.591294288635254,988.8,18.772410623232524
85,850000,3280.8341143135017,-299.05093,0.048856854,-0.008953317,1.1477343,1.6832561,298.66367,299.18738,299.13318,298.8552,3.3824994564056396,1000.0,19.011035267512003
86,860000,3259.9156600116303,-300.23193,0.046776954,0.010634603,2.0649552,1.2726529,299.86725,300.29285,300.2915,299.92395,3.4983911514282227,1000.0,19.24867225885391
87,870000,3244.1083400521043,-293.8294,0.048471116,-0.015479351,6.289314,1.8193521,293.18063,293.20822,293.9176,293.3664,3.4910664558410645,1000.0,19.487890871365867
88,880000,3260.6774844159245,-305.09564,0.04669458,-0.0005666041,2.9111278,1.5121343,304.5581,305.13965,305.16626,304.61557,3.4787747859954834,1000.0,19.72798770268758
89,890000,3286.8606631977646,-302.11865,0.047339138,0.0051968265,1.3021878,1.3902214,302.02356,302.51758,302.18445,302.15656,3.62740421295166,1000.0,19.97087045907974
90,900000,3246.0667439037798,-298.42285,0.04531342,-0.0025102706,12.472443,1.555398,297.82202,298.28354,298.4933,298.01068,3.500885486602783,1000.0,20.2127880970637
91,910000,3019.892280710949,-296.39563,0.04830029,0.00064732693,5.5403757,1.4865979,296.1997,296.49268,296.4674,296.3443,3.137882947921753,899.7,20.446249151229857
92,920000,3160.747203392371,-300.57214,0.04507111,-0.0032101981,2.41072,1.5712252,299.7588,299.90808,300.64294,299.9443,3.356823205947876,958.2,20.683337573210398
93,930000,3095.6274644471678,-301.63998,0.04533628,-0.006276864,3.8738124,1.6384512,301.26227,301.66888,301.71423,301.4275,3.1418232917785645,942.2,20.912616380055745
94,940000,3072.3195800204508,-303.0328,0.04624454,0.0020131955,1.5193862,1.4564664,302.97977,303.0039,303.10016,303.08118,3.2401883602142334,935.8,21.145369164148967
95,950000,3294.7260390764786,-301.84662,0.045239434,6.6912035e-05,2.0325317,1.4985209,301.9922,301.7255,301.9144,302.1776,3.4796786308288574,1000.0,21.380947415033976
96,955000,2706.69513018383,-302.8813,0.04382822,-0.00030645356,2.8061674,1.5069921,302.33548,302.7721,302.94733,302.4414,2.8316125869750977,807.3,21.519217924276987
97,960000,3280.138524288462,-305.02344,0.043559577,-0.02191129,9.16613,2.0030189,303.7523,303.6562,305.11066,303.86713,3.475034713745117,1000.0,21.667468531926474
98,965000,3257.909888059295,-304.6438,0.044584956,0.0050090477,1.4115093,1.3876516,304.50507,304.60144,304.70563,304.7102,3.4982049465179443,1000.0,21.81691542069117
99,970000,3071.972689840646,-300.2168,0.04531732,-0.0042951675,2.0316749,1.5947798,299.98804,300.34888,300.28906,300.26657,3.288773775100708,928.8,21.963807924588522
100,975000,3048.0979169599887,-301.21985,0.044420775,-0.01089903,2.8161612,1.7453588,300.8531,301.2406,301.29736,300.98236,3.1682026386260986,922.2,22.10721294482549
101,980000,1850.3912305711983,-304.1386,0.046145145,0.009551149,1.9142578,1.2930194,304.14087,304.1173,304.1983,304.25708,1.8993468284606934,545.1,22.230914493401844
102,985000,2422.1642156989274,-300.1931,0.04365584,0.0051890733,2.417993,1.3811368,299.92255,300.35168,300.2534,300.05426,2.5132997035980225,707.2,22.36285854180654
103,990000,1913.4800913353222,-303.6163,0.04544228,0.008870049,2.0074315,1.3048062,303.62653,303.69598,303.6756,303.68707,1.946364402770996,554.0,22.485381484031677
104,995000,2085.9080324589822,-305.2774,0.046344582,-0.012598224,3.0549176,1.7718382,304.4497,304.91107,305.3595,304.48135,2.05876088142395,600.9,22.609870330492654
105,1000000,2874.2745980182567,-296.61932,0.044466726,-0.013615171,1.933046,1.8061879,296.535,296.39105,296.69962,296.7881,3.0346362590789795,858.3,22.74992890357971
