fuyw/jrlzoo/sac/curves/mujoco/walker2d-v2/sac_s2_20230310_171744.csv
,step,reward,actor_loss,alpha,alpha_loss,critic_loss,logp,next_q,q1,sampled_q,target_q,eval_time,eval_step,time
0,0,-1.9590174404214715,,,,,,,,,,,,
1,10000,-1.4836513628290395,,,,,,,,,,,,
2,20000,194.86056297873674,-78.246155,0.12416727,0.15522614,30.400562,1.7498627,74.61566,74.630455,78.463425,74.28346,0.7755417823791504,210.5,0.36020453373591105
3,30000,299.10408607046713,-94.747536,0.069621734,-0.021354515,23.431515,3.3067222,92.90367,92.24577,94.97775,92.50433,1.1284077167510986,301.3,0.5876204331715902
4,40000,361.2799014557531,-96.91957,0.06368447,0.03190638,24.128977,2.498993,96.220566,95.74212,97.07872,96.053444,0.9085915088653564,240.1,0.7879825711250306
5,50000,394.97710109138495,-103.056305,0.07297831,0.0050990526,18.92192,2.9301293,101.725075,101.59649,103.27014,101.65892,0.8844616413116455,229.3,0.9909751494725545
6,60000,426.8110961706635,-110.751816,0.077976234,0.010045653,24.295143,2.87117,109.80774,110.08855,110.9757,109.68447,1.033144235610962,280.1,1.1964439233144124
7,70000,299.4423138641622,-111.77181,0.08231389,-0.013764407,21.320885,3.1672187,109.929886,109.91945,112.03252,110.048416,0.5879123210906982,165.9,1.3907466928164165
8,80000,376.1159582572295,-108.117355,0.0846572,0.0067237495,19.176998,2.9205766,106.83737,106.977356,108.3646,107.11883,0.9892525672912598,253.0,1.5989397406578063
9,90000,479.65169134013667,-110.22469,0.08202102,-0.016027775,24.066776,3.1954105,107.9057,108.55594,110.486786,108.14572,1.0714151859283447,276.4,1.8081568876902263
10,100000,718.0297992801904,-110.07669,0.07893499,-0.029089194,16.809013,3.368521,108.29238,109.22254,110.34259,108.85002,1.602689266204834,416.8,2.027013838291168
11,110000,655.7439674824884,-114.28343,0.076824546,0.0060088094,20.842274,2.9217856,113.090225,113.32832,114.5079,113.2222,1.44095778465271,368.0,2.2437123735745748
12,120000,725.4411452599336,-119.42233,0.07786695,0.021443468,22.567791,2.724614,117.57335,118.67261,119.6345,117.86914,1.0862836837768555,287.6,2.456151342391968
13,130000,641.9699091175419,-126.39679,0.08765019,-0.0007056892,30.92041,3.0080512,125.1645,125.582245,126.660446,125.6682,0.9948897361755371,258.7,2.6639649947484334
14,140000,755.2488031984059,-131.82455,0.09816773,-0.03996085,31.201641,3.407067,131.17328,131.10464,132.15901,131.30933,1.0373191833496094,280.1,2.870332690080007
15,150000,2723.4662978320384,-136.0735,0.10274379,-0.022316331,20.630432,3.2172036,134.83838,135.67484,136.40404,135.3725,3.299607276916504,870.3,3.114509626229604
16,160000,1870.9408977977214,-147.41733,0.11096918,-0.049906887,29.770151,3.4497364,146.5063,146.17891,147.80014,146.32388,2.1393682956695557,593.9,3.338382093111674
17,170000,2947.5751762685804,-154.06898,0.112540595,-0.0018698606,20.600622,3.0166152,152.70789,152.72305,154.40848,152.62805,3.433635950088501,857.4,3.589813160896301
18,180000,3349.3654516118368,-172.15596,0.12017031,0.009448676,22.547863,2.9213727,171.25034,171.12585,172.50702,171.4153,3.4892568588256836,896.9,3.8427737911542255
19,190000,1607.7513676689036,-183.01762,0.12274532,0.01070576,33.899307,2.9127808,183.17528,182.51285,183.37515,183.49628,1.7312872409820557,452.4,4.063426474730174
20,200000,3254.717319636593,-177.87091,0.12984528,-0.03772858,34.64888,3.2905657,175.26239,175.8315,178.29817,175.38344,3.2922792434692383,856.9,4.311793335278829
21,210000,3835.4630624468746,-200.00606,0.13038458,0.017720139,34.035748,2.8640933,199.15631,199.71783,200.37949,199.38138,3.6368823051452637,988.6,4.565322951475779
22,220000,3683.167193487666,-202.29391,0.13367344,-0.028076893,27.231106,3.210041,200.24878,201.00154,202.72302,200.92346,3.6608431339263916,962.6,4.819208482901256
23,230000,3092.9457311782985,-219.58463,0.13615812,-0.00034229085,38.730515,3.002514,218.65369,218.71338,219.99344,218.79024,3.098916530609131,817.6,5.0638439933458965
24,240000,3480.5796414168885,-217.32178,0.1346793,-0.050177403,37.72571,3.3725696,216.99844,217.70782,217.776,217.21536,3.35314679145813,916.2,5.308059267203013
25,250000,3788.685541106559,-238.2148,0.1350903,0.01661446,45.272984,2.8770123,235.89485,237.09456,238.60345,235.91699,3.7510054111480713,1000.0,5.557570433616638
26,260000,3976.124462030205,-232.7541,0.13682246,-0.05313866,38.82127,3.3883767,233.11162,232.37186,233.2177,233.3165,3.6858716011047363,975.1,5.806342319647471
27,270000,2880.906589144768,-236.39111,0.13408768,0.038440295,30.772038,2.7133198,236.98854,236.3598,236.75493,237.49538,2.654639959335327,738.7,6.037752417723338
28,280000,2797.1184572407683,-241.69662,0.13984723,0.0010156599,33.014374,2.9927373,241.29413,241.34775,242.11516,242.11191,2.5839436054229736,693.9,6.2666544079780575
29,290000,4049.5414195107105,-252.93544,0.14036442,-0.012236046,40.078995,3.0871735,252.75919,253.21758,253.36877,252.99486,3.7326722145080566,1000.0,6.513010176022847
30,300000,3445.799523433184,-254.85883,0.13750769,0.017234104,25.888016,2.8746681,253.96025,255.08092,255.25412,254.09207,3.2124199867248535,831.4,6.754451247056325
31,310000,3621.113330253248,-262.69617,0.13969825,0.04837392,35.179726,2.6537256,263.5393,262.7125,263.0669,263.7655,3.2788329124450684,890.0,6.994760553042094
32,320000,3865.7215163081237,-263.8346,0.14191829,0.0327954,27.92244,2.7689133,263.1545,263.2475,264.22754,263.4116,3.610522747039795,973.2,7.241670028368632
33,330000,3622.9519981946723,-268.8676,0.14149751,0.018284332,28.533787,2.8707798,268.25635,268.77393,269.27383,268.42172,3.276569128036499,917.3,7.48288387854894
34,340000,3803.3893358590954,-271.30237,0.1377694,0.049642026,30.923252,2.6396732,270.69556,270.77933,271.66608,271.11008,3.406245470046997,911.2,7.7278083523114525
35,350000,2940.2938294941214,-278.11096,0.14017273,0.07912056,27.811665,2.4355497,276.90906,277.82294,278.45233,277.01337,2.556752920150757,707.8,7.956130329767863
36,360000,2619.2898823147216,-293.38858,0.14270295,0.051543135,34.18943,2.6388083,293.06534,293.83282,293.76514,293.22485,2.378659725189209,651.3,8.179323975245158
37,370000,3827.941630234725,-283.1269,0.14202125,-0.018983878,48.91706,3.1336694,282.50684,283.22015,283.57193,282.7853,3.342085838317871,894.4,8.419756412506104
38,380000,4238.83979196121,-289.3742,0.144403,-0.0026857909,35.477337,3.0185995,289.3573,289.26535,289.81012,289.55566,3.641463041305542,973.2,8.667975254853566
39,390000,4367.270162979619,-290.84845,0.1425728,0.03065145,35.14656,2.785012,290.40222,290.5871,291.2455,290.65594,3.684387445449829,1000.0,8.915913359324138
40,400000,3216.5043264586793,-280.545,0.14256541,-0.040385436,46.0803,3.2832766,279.8938,280.63406,281.01312,280.07147,2.931757688522339,778.2,9.1528706630071
41,410000,3836.904359993229,-296.96454,0.1373496,0.042059332,30.258366,2.693779,296.1131,296.2574,297.3345,296.27933,3.336238384246826,926.7,9.393041368325552
42,420000,4421.096041871955,-306.57678,0.13358895,0.012690383,32.96786,2.9050043,306.13068,306.19885,306.96484,306.21115,3.779421091079712,1000.0,9.642414816220601
43,430000,3565.581998148636,-303.3366,0.13687213,0.028605845,37.066532,2.7910032,302.82568,302.61536,303.71857,302.05832,2.977405548095703,817.1,9.882189253966013
44,440000,4062.7053890227326,-312.8783,0.13677593,-0.02294992,36.423195,3.167792,312.22617,312.95135,313.31158,312.365,3.4169228076934814,920.1,10.125855580965679
45,450000,3882.541133578612,-306.4702,0.13563605,-0.006941218,38.070488,3.051175,306.81543,306.15344,306.88403,306.96533,3.3553388118743896,913.5,10.368326608339945
46,460000,4441.971079631696,-311.05066,0.1337495,-0.021913502,42.919186,3.1638398,310.6304,310.60394,311.47382,310.92755,3.715555429458618,1000.0,10.616192531585693
47,470000,4525.130106018374,-314.3756,0.13162376,-0.049121685,34.462322,3.3731978,313.21228,313.80212,314.81958,313.41882,3.6607651710510254,1000.0,10.861651074886321
48,480000,4388.308526948265,-324.39,0.13480102,0.007968173,24.194084,2.9408894,323.43216,324.12048,324.78644,323.58722,3.7564213275909424,1000.0,11.109142657121023
49,490000,4461.291841117925,-321.7286,0.13697533,0.0010948312,28.347525,2.992007,322.06244,321.41852,322.13843,321.4465,3.6304709911346436,1000.0,11.35346224308014
50,500000,1589.6523459335428,-341.7459,0.13410121,-0.00933007,22.10816,3.0695748,340.48907,340.73114,342.15753,340.61255,1.4170725345611572,405.0,11.563965817292532
51,510000,2543.9454854059677,-318.95554,0.13676232,0.07639149,47.254044,2.4414287,318.52582,318.98495,319.28943,318.59155,2.1523895263671875,581.4,11.784587593873342
52,520000,4113.147156624713,-321.58347,0.14040549,0.030875675,46.805435,2.7800963,321.22513,321.7108,321.97382,321.2947,3.455200672149658,908.7,12.027035657564799
53,530000,4468.686194161701,-325.11707,0.13874094,-0.0039829686,44.442543,3.028708,324.36896,324.83405,325.5373,324.5915,3.7844715118408203,1000.0,12.277819240093232
54,540000,4434.574694879272,-344.03333,0.13830946,0.025154319,71.121925,2.81813,342.90714,343.19647,344.4231,343.33423,3.6095194816589355,1000.0,12.523583710193634
55,550000,4088.083840484739,-332.28275,0.13062714,0.036172666,36.944122,2.7230847,332.58832,332.52948,332.63843,332.67603,3.2839436531066895,909.3,12.764822447299958
56,560000,3183.4713396567176,-330.91663,0.13092548,0.025022954,33.303127,2.8088763,330.10663,330.46216,331.28442,330.1523,2.686755657196045,731.2,12.994391008218129
57,570000,4087.388031441134,-343.0656,0.13412638,0.00977378,25.894825,2.9271302,343.35492,343.04562,343.45822,343.41553,3.40608286857605,914.2,13.23427050113678
58,580000,4545.659839748836,-346.5293,0.13136934,0.07558453,32.70598,2.424641,345.3589,346.00735,346.8478,345.40936,3.7209556102752686,1000.0,13.483537868658702
59,590000,4663.11566220721,-347.37097,0.13260986,0.01522645,32.296738,2.8851786,347.74597,347.67804,347.75357,347.85446,3.7883400917053223,1000.0,13.733784747123718
60,600000,4404.298910919659,-342.58484,0.1328764,-0.024215624,29.674458,3.1822414,342.73712,342.606,343.0077,342.7382,3.2978997230529785,925.6,13.97454415957133
61,610000,3292.0900135539196,-346.7633,0.13091433,0.012428964,42.441338,2.9050603,345.9334,346.6623,347.14355,346.19086,2.9891586303710938,730.2,14.21638305981954
62,620000,4652.05042877589,-346.4216,0.13201225,0.011685595,32.580826,2.911481,345.79248,346.4546,346.80594,345.83258,3.7355082035064697,1000.0,14.465281808376313
63,630000,4785.013401810674,-357.05884,0.13274682,0.027864419,26.477291,2.7900934,356.8724,357.01337,357.4292,356.99298,3.6397645473480225,1000.0,14.70984746615092
64,640000,4624.206073059381,-342.2683,0.13320695,-0.0021617832,29.505718,3.0162287,342.42413,342.36404,342.67007,342.52155,3.7115743160247803,1000.0,14.959937222798665
65,650000,4730.114223024524,-347.50238,0.13368018,0.014120456,17.888357,2.8943715,347.80426,347.7175,347.8893,347.8268,3.849778890609741,1000.0,15.21223562558492
66,660000,4624.85781681027,-348.85062,0.13225491,-0.046714768,27.26725,3.3532176,348.0686,348.8205,349.2941,348.2224,3.837857961654663,1000.0,15.469683289527893
67,670000,4724.21418630166,-345.7791,0.1318817,-0.027467988,36.50128,3.2082775,346.4327,346.37872,346.20224,346.45435,3.863732099533081,1000.0,15.729317756493886
68,680000,4713.964980529335,-362.81665,0.13178313,-0.023300301,24.512012,3.1768079,362.75003,362.91486,363.2353,362.82864,3.870025396347046,1000.0,15.991353090604147
69,690000,2977.8746985738744,-366.89935,0.12900625,-0.011349842,38.32149,3.087979,366.29675,366.56488,367.29773,366.431,2.3683059215545654,643.8,16.220500437418618
70,700000,4791.966471401567,-371.0318,0.13051581,0.032676913,24.402502,2.7496326,371.43912,370.68866,371.3907,371.57532,3.6653523445129395,1000.0,16.46466658115387
71,710000,4832.1539154631655,-364.7409,0.12652121,0.02238116,21.411898,2.8231034,365.09103,364.8877,365.0981,365.12323,3.646392822265625,1000.0,16.711556581656136
72,720000,4922.123017390996,-374.0197,0.12942809,-0.0065920595,24.895645,3.0509322,374.22186,374.01184,374.4146,374.33185,3.6370279788970947,1000.0,16.957569841543833
73,730000,4903.460509849723,-368.8575,0.1292346,-0.067392975,29.037678,3.5214777,368.75693,368.89023,369.31262,368.88202,3.593034267425537,1000.0,17.203544759750365
74,740000,4774.488781253261,-370.91818,0.12907423,0.070340395,16.892372,2.4550393,371.1847,371.0396,371.23505,371.2527,3.6181275844573975,1000.0,17.448094793160756
75,750000,4481.7388693399425,-369.08017,0.12634568,0.025243897,21.545515,2.8001997,369.62054,369.1565,369.434,369.52667,3.4182801246643066,943.0,17.69312801361084
76,760000,4824.716583836402,-373.30365,0.12507255,-0.019398395,32.357895,3.155097,372.38544,373.16562,373.69824,372.46185,3.691143751144409,1000.0,17.941485659281412
77,770000,4828.020295238046,-387.66052,0.12821485,0.051610276,19.116425,2.5974703,386.77103,387.02948,387.99353,386.92682,3.7797036170959473,1000.0,18.19359996318817
78,780000,4886.869758018615,-380.44336,0.12378968,-0.042358913,22.83206,3.3421843,380.1718,380.28705,380.85712,380.2005,3.915097713470459,1000.0,18.45132109721502
79,790000,4886.676605940312,-380.73062,0.12503006,0.019099811,28.974762,2.8472383,380.0771,380.93198,381.08664,380.1101,3.7667009830474854,1000.0,18.70240585009257
80,800000,4885.800060046769,-379.12363,0.1266437,-0.04772719,31.020718,3.3768618,378.00873,378.7377,379.5513,378.0387,3.746947765350342,1000.0,18.95754325389862
81,810000,4859.823384269598,-385.9949,0.12773575,0.0036247075,18.47707,2.9716234,386.26068,386.1727,386.3745,386.2578,3.6220107078552246,1000.0,19.207811284065247
82,820000,4918.716065847713,-393.8355,0.1259308,-0.019037008,15.620569,3.1511703,393.4242,394.0769,394.23236,393.43848,3.692075252532959,1000.0,19.457391798496246
83,830000,4912.428383745808,-374.2992,0.123522684,-0.042856216,35.289238,3.3469503,373.26654,373.3968,374.71265,373.23236,3.663804531097412,1000.0,19.705684475104015
84,840000,4840.9519271041245,-398.79218,0.12698598,0.0523318,19.47881,2.587893,398.57962,398.93307,399.1208,398.5946,3.6269125938415527,1000.0,19.95161348581314
85,850000,4799.364828895445,-392.91226,0.12676235,-0.0011723489,44.001488,3.0092487,392.25757,392.67783,393.2937,392.2879,3.6779680252075195,1000.0,20.198521526654563
86,860000,4500.24142961859,-380.05164,0.12217295,-0.043186385,26.156271,3.3534856,380.10406,380.1178,380.46133,380.08112,3.39149808883667,926.0,20.44172286192576
87,870000,4894.425903566122,-382.23157,0.122431055,0.039530378,27.053654,2.6771214,382.74487,382.31927,382.55933,382.6745,3.5448241233825684,1000.0,20.68687192996343
88,880000,4954.026545958159,-395.91794,0.12326461,-0.054173086,18.89014,3.439486,395.3098,396.00153,396.3419,395.40735,3.595141887664795,1000.0,20.935147762298584
89,890000,5003.764283187092,-400.87177,0.11955185,0.011973247,22.666422,2.899849,400.59048,401.339,401.21844,400.65433,3.7512614727020264,1000.0,21.185913042227426
90,900000,4881.859827231511,-397.35867,0.120318666,0.0011781333,18.184994,2.9902081,397.3274,397.4112,397.71844,397.32678,3.7465384006500244,1000.0,21.435479966799416
91,910000,4981.324499821987,-396.99792,0.118842736,-0.025980728,28.323269,3.2186143,396.9735,396.84763,397.38043,396.92743,3.7458465099334717,1000.0,21.684739021460214
92,920000,4978.20522337914,-400.75354,0.11737978,-0.026619399,16.709177,3.2267802,400.1552,400.8327,401.1323,400.13428,3.898777484893799,1000.0,21.941173847516378
93,930000,4982.706489847899,-402.29318,0.11460566,-0.058847807,35.725037,3.5134807,401.78198,402.41626,402.69586,401.83582,3.4898338317871094,1000.0,22.190476711591085
94,940000,4874.8147602151375,-418.06918,0.11130714,-0.010996907,24.409025,3.0987978,418.2163,418.12054,418.41406,418.27286,3.6885788440704346,1000.0,22.437551736831665
95,950000,4931.692209718011,-413.65482,0.11181038,0.018471794,10.835911,2.8347936,413.97888,413.67957,413.97174,413.90115,3.778787612915039,1000.0,22.68713848988215
96,955000,5045.09493886629,-403.63464,0.109837234,-0.018424004,35.962837,3.1677392,404.13788,403.55887,403.98257,404.12805,3.7413015365600586,1000.0,22.841780575116477
97,960000,4932.365532451799,-408.4566,0.11495334,-0.046367697,19.203363,3.4033608,408.30316,408.7141,408.8478,408.28476,3.692659378051758,1000.0,22.996182282765705
98,965000,4947.157482984264,-416.79395,0.10983004,0.0010982703,16.962852,2.9900002,416.4973,416.99603,417.12234,416.44952,3.728523015975952,1000.0,23.150604701042177
99,970000,4971.523355034253,-416.9114,0.10691731,-0.00043294532,16.446594,3.0040493,416.82852,417.0401,417.2326,416.81848,3.697417974472046,1000.0,23.304595410823822
100,975000,5062.454047256101,-407.57715,0.11073231,0.031971354,34.45016,2.7112734,408.29968,407.43317,407.87735,407.97385,3.589385986328125,1000.0,23.457253118356068
101,980000,5038.889993438876,-414.8507,0.11288518,-0.039077222,37.0531,3.346168,413.65405,414.15546,415.22845,413.6844,3.703167676925659,1000.0,23.61172558069229
102,985000,4994.934334438767,-403.81604,0.11157734,0.0093062855,17.533432,2.9165936,403.53082,403.83307,404.14145,403.3319,3.743917226791382,1000.0,23.766840648651122
103,990000,5014.242226324889,-409.00024,0.10858213,-0.016681105,30.759026,3.1536267,409.24786,409.1994,409.34265,409.1346,3.729538679122925,1000.0,23.922026562690736
104,995000,5004.484963321812,-402.97815,0.10743104,-0.026660152,25.991169,3.2481606,403.2954,402.72147,403.32712,403.1599,3.718188762664795,1000.0,24.07678102652232
105,1000000,5074.29950520959,-410.62207,0.10722322,-0.01805734,16.21439,3.1684089,409.57727,409.7489,410.9618,409.8761,3.9213569164276123,1000.0,24.239309986432392
