fuyw/jrlzoo/sac/curves/dmc/cheetah-run/sac_s1_20230310_135222.csv
,step,reward,actor_loss,alpha,alpha_loss,critic_loss,logp,next_q,q1,sampled_q,target_q,eval_time,eval_step,time
0,0,1.4259696559365902,,,,,,,,,,,,
1,10000,1.5706798115617633,,,,,,,,,,,,
2,20000,11.73208478858442,-47.788746,0.09389277,0.655208,0.039484605,-3.978258,47.93568,47.428482,47.415215,47.46038,2.7539448738098145,1000.0,0.4362286607424418
3,30000,103.44932194835523,-33.71187,0.010805238,0.053325538,0.024887942,-1.9351562,34.01244,33.68534,33.690956,33.6839,2.696795701980591,1000.0,0.6592985550562541
4,40000,78.49273217753137,-23.84591,0.0055372594,-0.0015821557,0.026817866,3.2857292,23.960358,23.771568,23.864105,23.745564,2.7232778072357178,1000.0,0.8822364250818888
5,50000,102.58532499543068,-18.453945,0.00549871,-7.4841606e-05,0.03145084,3.0136108,18.509842,18.385712,18.470516,18.354294,2.7369256019592285,1000.0,1.1050755421320597
6,60000,179.3098707734822,-15.606951,0.005313315,0.001513999,0.036279663,2.7150557,15.654413,15.534687,15.621376,15.543125,2.6960854530334473,1000.0,1.3274088025093078
7,70000,199.87550488529516,-14.081903,0.0055438024,-0.00068374316,0.0707033,3.123335,14.051267,14.025211,14.099217,13.970491,2.763288974761963,1000.0,1.5549758275349934
8,80000,249.18370892063626,-14.708944,0.0057053533,0.00056295807,0.052594084,2.901328,14.706734,14.644312,14.725498,14.641117,2.7121212482452393,1000.0,1.7779034654299417
9,90000,305.8705569048332,-14.720377,0.0063287234,-0.004374831,0.10884559,3.691266,14.7766285,14.696394,14.743738,14.724661,2.7029032707214355,1000.0,2.000609076023102
10,100000,328.7146286935066,-14.432126,0.0068331575,-2.1430082e-05,0.06677864,3.0031362,14.421514,14.3496895,14.452648,14.372919,2.6153180599212646,1000.0,2.222956963380178
11,110000,359.23160730387247,-16.860374,0.0072707157,0.0020382856,0.08050184,2.7196584,16.8921,16.792343,16.88015,16.855627,2.669903039932251,1000.0,2.444865604241689
12,120000,369.554990308843,-18.32009,0.007830854,0.0005181023,0.091722906,2.9338384,18.304111,18.241209,18.343063,18.267227,2.7111587524414062,1000.0,2.6707335273424784
13,130000,369.92254941842583,-19.195797,0.008635378,0.0028506392,0.08527622,2.6698883,19.170963,19.139189,19.218853,19.133327,2.670771598815918,1000.0,2.8912800113360086
14,140000,413.0405894894867,-20.447933,0.009236866,0.005035667,0.10865008,2.4548297,20.456238,20.387568,20.470608,20.414913,2.8361129760742188,1000.0,3.116587285200755
15,150000,442.15248552403517,-22.444077,0.009445195,0.00397654,0.07997778,2.578988,22.41111,22.385418,22.468433,22.370146,2.7779271602630615,1000.0,3.3404070099194842
16,160000,457.4099023627453,-24.17331,0.010545824,0.0041585416,0.13125247,2.6056695,24.128849,24.137403,24.200787,24.09299,2.694431781768799,1000.0,3.5661563634872437
17,170000,362.1306547635363,-23.80458,0.010832947,0.004105624,0.15475036,2.6210058,23.854898,23.79012,23.832973,23.820993,2.727297306060791,1000.0,3.7893104712168375
18,180000,504.2341635670461,-26.60862,0.011492721,-0.0091671385,0.10860069,3.7976475,26.623053,26.583355,26.652267,26.582771,2.7368061542510986,1000.0,4.014533305168152
19,190000,511.6502183795643,-27.611526,0.011712465,0.0016005153,0.13393678,2.8633494,27.654222,27.59677,27.645065,27.624723,2.7447898387908936,1000.0,4.238060164451599
20,200000,538.8035604653107,-29.147488,0.012184375,-0.0061500184,0.2635974,3.5047464,29.147587,29.132212,29.190191,29.121014,2.662299871444702,1000.0,4.4618035117785135
21,210000,562.8994973144615,-29.909332,0.0123395035,0.00031789835,0.2493471,2.9742374,29.864914,29.899504,29.946033,29.82677,2.7464163303375244,1000.0,4.688088544209799
22,220000,572.0166752603606,-31.10804,0.012896596,0.0067668133,0.11655234,2.4753022,31.029371,31.075989,31.139961,30.989563,2.6852431297302246,1000.0,4.909211226304373
23,230000,581.1961087507027,-33.83657,0.013071067,0.008699246,0.126915,2.3344655,33.82067,33.806465,33.86709,33.78398,2.6095423698425293,1000.0,5.134072780609131
24,240000,625.883431963806,-34.764748,0.013537718,0.003800206,0.1276259,2.7192874,34.83785,34.768074,34.80156,34.795574,2.730954170227051,1000.0,5.3577418287595115
25,250000,644.9171046617665,-38.29898,0.013811716,-0.0015720194,0.14546172,3.113818,38.339714,38.29366,38.341988,38.30465,2.6863176822662354,1000.0,5.58256706794103
26,260000,633.0287008094973,-36.47049,0.013777374,0.009419169,0.15279666,2.3163304,36.483227,36.48564,36.502403,36.435707,2.728226900100708,1000.0,5.810451205571493
27,270000,644.801727057905,-39.002605,0.014546985,-0.0065455744,0.2314476,3.4499607,39.06459,38.973953,39.052795,39.014442,2.7096502780914307,1000.0,6.034364724159241
28,280000,679.7461027393832,-38.089493,0.015048944,0.008738481,0.32608625,2.4193294,38.155678,38.09852,38.125904,38.10755,2.791491985321045,1000.0,6.258439671993256
29,290000,687.6676425395477,-41.41471,0.015013067,-0.002529894,0.20645061,3.1685128,41.306946,41.36635,41.46228,41.262146,2.651425361633301,1000.0,6.484416055679321
30,300000,708.5036283722105,-42.68814,0.01493123,0.010120103,0.20531005,2.322219,42.71113,42.669724,42.722816,42.66018,2.8126425743103027,1000.0,6.711244221528371
31,310000,710.1465068936252,-43.890938,0.014977231,0.002896863,0.15824965,2.8065822,43.900345,43.82071,43.932976,43.83863,2.750486373901367,1000.0,6.936572913328806
32,320000,744.4379018218099,-45.52328,0.015048192,-0.0012343847,0.2955125,3.0820289,45.45555,45.50248,45.56966,45.400913,2.704390525817871,1000.0,7.162221693992615
33,330000,724.1186883128687,-45.94055,0.014957787,0.0028632018,0.14536923,2.8085814,45.993042,45.920864,45.98256,45.92395,2.68757700920105,1000.0,7.384863293170929
34,340000,750.1110140579734,-48.001694,0.015089616,-0.0054278853,0.15420763,3.3597097,48.05432,47.998837,48.052387,48.003727,2.769881010055542,1000.0,7.612737027804057
35,350000,762.5311695259994,-48.49696,0.014904065,0.0026353414,0.15830067,2.8231797,48.535072,48.44429,48.53904,48.46589,2.7549777030944824,1000.0,7.83718231121699
36,360000,761.2174897587021,-51.71692,0.0151146045,0.0013656423,0.18218167,2.9096475,51.66929,51.694122,51.760895,51.611572,2.710756301879883,1000.0,8.062032814820608
37,370000,757.653654686748,-49.76839,0.014734184,0.005669764,0.12565494,2.6151967,49.835003,49.725567,49.806923,49.760452,2.697930097579956,1000.0,8.287671685218811
38,380000,773.7813492595271,-50.946358,0.014754163,-0.0012510788,0.15860265,3.084795,50.95917,50.92467,50.99187,50.89584,2.7535736560821533,1000.0,8.515909639994304
39,390000,780.1004874553555,-53.11196,0.014896802,0.0021690133,0.14473304,2.8543975,53.148495,53.118603,53.154484,53.093315,2.8065099716186523,1000.0,8.739618297417959
40,400000,781.8102149162036,-54.748287,0.015111579,0.00128464,0.112768084,2.9149897,54.83466,54.744637,54.79234,54.786667,2.6514339447021484,1000.0,8.962618601322173
41,410000,772.033057074085,-56.138283,0.01517798,-0.0029430552,0.13282481,3.193903,56.179794,56.138428,56.18676,56.12166,2.75635027885437,1000.0,9.187123934427897
42,420000,779.569984976604,-55.739746,0.015079149,-0.0023608175,0.21778315,3.1565619,55.7908,55.74856,55.787346,55.736652,2.7590177059173584,1000.0,9.407463200887044
43,430000,692.1603776170361,-53.822308,0.015778622,-0.0062086675,0.153249,3.393486,53.827835,53.8236,53.875854,53.762005,2.5971038341522217,1000.0,9.635423771540324
44,440000,769.8305514789259,-55.245102,0.015591338,0.001020147,0.3540136,2.9345696,55.310604,55.24865,55.290855,55.248943,2.7458949089050293,1000.0,9.856443802515665
45,450000,711.4292539387018,-55.112366,0.015482447,0.00051709596,0.20289692,2.9666011,55.164944,55.04967,55.158295,55.111385,2.6623048782348633,1000.0,10.080141373475392
46,460000,762.6767901747314,-54.810143,0.015422469,0.00010329299,0.17342399,2.9933023,54.921314,54.787544,54.85631,54.856472,2.7317585945129395,1000.0,10.302854152520498
47,470000,791.892552527841,-55.67701,0.015157296,0.0040296465,0.25344652,2.7341447,55.743744,55.663944,55.718452,55.683304,2.720280885696411,1000.0,10.52763659954071
48,480000,788.4615483799632,-55.26014,0.015792727,-0.00063466467,0.58255994,3.0401874,55.28234,55.22246,55.30815,55.21734,2.6391377449035645,1000.0,10.752786890665691
49,490000,783.0915363070251,-58.181473,0.015662102,-0.0004140538,0.15935741,3.0264366,58.270027,58.207924,58.228874,58.221867,2.6656382083892822,1000.0,10.973137958844502
50,500000,795.2612445535123,-58.216797,0.015670672,-0.00460393,0.4351684,3.2937927,58.150734,58.198265,58.26841,58.103714,2.660923719406128,1000.0,11.196077446142832
51,510000,793.1135785500286,-56.13364,0.015721912,0.0012339833,0.13889955,2.921512,56.09317,56.093613,56.179573,56.037533,2.66048526763916,1000.0,11.417759986718496
52,520000,766.1188870505414,-61.40711,0.015660034,-0.0040640626,0.201875,3.2595181,61.490746,61.414608,61.458153,61.437637,2.644115447998047,1000.0,11.643350358804067
53,530000,790.7450317954979,-60.651066,0.015774883,0.0006300369,0.1481379,2.9600608,60.667946,60.609634,60.69776,60.617554,2.6759533882141113,1000.0,11.86570935646693
54,540000,800.8780345479869,-59.07512,0.015422529,-0.00027022185,0.14803699,3.0175211,59.12458,59.08714,59.12166,59.07518,2.7103288173675537,1000.0,12.090474851926167
55,550000,803.8214142027075,-61.070095,0.015635667,0.0025937995,0.13879615,2.8341103,61.184036,61.09897,61.11441,61.14173,2.738612413406372,1000.0,12.313586223125458
56,560000,798.7383461745801,-64.00473,0.01611037,-0.011905285,0.18958491,3.7389827,64.062485,64.01821,64.064964,64.02965,2.6440610885620117,1000.0,12.539105761051179
57,570000,758.1122728923754,-61.252945,0.015529671,0.008016699,0.17406242,2.4837818,61.255672,61.228935,61.29152,61.205086,2.780381917953491,1000.0,12.764838286240895
58,580000,780.8040674394981,-60.88259,0.016166838,-0.009540008,0.21908087,3.5900972,60.941208,60.853764,60.94063,60.886112,2.7188687324523926,1000.0,12.994354859987896
59,590000,772.0975061020301,-62.373955,0.015582055,0.0008691796,0.17308336,2.944219,62.442192,62.369007,62.41983,62.392723,2.641904592514038,1000.0,13.21470714410146
60,600000,792.3438720812064,-60.832924,0.015794588,0.0034267134,0.15086651,2.783045,61.008064,60.824627,60.87688,60.950546,2.636209011077881,1000.0,13.437446761131287
61,610000,575.2526824773265,-63.090904,0.01568866,-0.008541361,0.21197665,3.544429,63.20069,63.048798,63.14651,63.151825,2.8096823692321777,1000.0,13.661053454875946
62,620000,804.1046880312847,-63.786148,0.015277846,0.0057084262,0.14128453,2.6263592,63.84445,63.82263,63.826275,63.799904,2.666710376739502,1000.0,13.882199203968048
63,630000,790.9604909321599,-63.03843,0.015817838,0.0030132602,0.37065658,2.8095024,63.113667,63.1145,63.08287,63.068054,2.6884608268737793,1000.0,14.106816983222961
64,640000,784.6925145198891,-62.61277,0.015585362,-0.004937405,0.24451146,3.3167975,62.667526,62.608055,62.664463,62.62316,2.6185178756713867,1000.0,14.329277249177297
65,650000,822.4535820912763,-65.120056,0.016186325,-0.00872378,0.22915865,3.53896,65.10605,65.123566,65.17734,65.07085,2.638514280319214,1000.0,14.552734120686848
66,660000,831.987561128575,-64.136734,0.015729131,-0.0034598974,0.35909182,3.2199674,64.352,64.117065,64.18738,64.30286,2.7422285079956055,1000.0,14.778277134895324
67,670000,800.170781297172,-64.20694,0.015541398,-0.0022904498,0.13064659,3.1473775,64.23216,64.17697,64.25586,64.18582,2.663409471511841,1000.0,15.002758173147837
68,680000,830.2403320251666,-64.578735,0.016052963,-0.0056240875,0.23262817,3.3503456,64.64229,64.59888,64.632515,64.59607,2.759113073348999,1000.0,15.227011060714721
69,690000,798.5140125516269,-63.20409,0.015829252,0.0006046031,0.17356254,2.9618049,63.239304,63.262516,63.250973,63.19252,2.755521535873413,1000.0,15.452061267693837
70,700000,780.9643050140842,-66.62772,0.015496178,-0.006521288,0.2280783,3.4208322,66.68794,66.64378,66.68073,66.65184,2.6529722213745117,1000.0,15.676354813575745
71,710000,812.4687600431491,-68.173134,0.015232735,-0.0049914033,0.18396512,3.327676,68.20877,68.237305,68.22382,68.17822,2.700172185897827,1000.0,15.902328411738077
72,720000,788.7963042853974,-64.512,0.015488767,0.0065458287,0.226635,2.577382,64.59999,64.55083,64.55192,64.565125,2.7123863697052,1000.0,16.12937363386154
73,730000,821.4981230630074,-65.21844,0.015442035,-0.0018268441,0.16978431,3.1183033,65.171555,65.202225,65.2666,65.12607,2.6394290924072266,1000.0,16.35431311130524
74,740000,830.8443742698913,-65.354256,0.0155036915,-0.00558585,0.8095244,3.3602915,65.42466,65.353775,65.40636,65.380066,2.677307367324829,1000.0,16.580355922381084
75,750000,831.653446428148,-66.38579,0.015550108,0.0029889331,0.20233712,2.807787,66.33981,66.35983,66.42946,66.295395,2.707930564880371,1000.0,16.80549254020055
76,760000,829.1269401832515,-66.56378,0.015388802,-0.0064297756,0.54946744,3.417822,66.76964,66.62966,66.61638,66.73042,2.644300699234009,1000.0,17.028357724348705
77,770000,836.2399897186799,-66.63546,0.0151239475,-0.00049363915,0.33284128,3.0326395,66.71193,66.65677,66.68133,66.67268,2.658881902694702,1000.0,17.250325202941895
78,780000,835.6691116344476,-66.703476,0.015316768,0.0021167474,0.116869956,2.8618019,66.80429,66.72519,66.747314,66.771065,2.6678709983825684,1000.0,17.47370397647222
79,790000,812.2241783317883,-66.0477,0.01536824,0.0072808354,0.14625943,2.5262415,66.06427,66.04347,66.08652,66.028725,2.686044931411743,1000.0,17.7014578183492
80,800000,825.8154314148254,-64.607056,0.015729206,0.006656944,0.14364532,2.5767782,64.68082,64.65694,64.64758,64.62807,2.728785753250122,1000.0,17.926197842756906
81,810000,826.3277262711551,-64.44997,0.014751197,0.00027061638,0.18259177,2.9816546,64.45404,64.438835,64.49395,64.400955,2.7285513877868652,1000.0,18.152439037958782
82,820000,843.040449723602,-66.9835,0.014610721,-0.0036748974,0.24517459,3.2515206,67.014725,66.9955,67.031006,66.97047,2.7934203147888184,1000.0,18.379239122072857
83,830000,737.8021582350798,-68.23244,0.0147113735,-0.0025771987,0.6306626,3.1751842,68.4203,68.3673,68.27916,68.37366,2.631422281265259,1000.0,18.603356941541037
84,840000,828.7701823706066,-67.7315,0.014683881,0.00253458,0.27758288,2.8273904,67.734795,67.80257,67.77302,67.6957,2.639787197113037,1000.0,18.828891690572103
85,850000,813.3692858332706,-68.08016,0.01465799,-0.006072485,0.2519019,3.414278,68.199265,68.06821,68.13021,68.16301,2.623995542526245,1000.0,19.050773525238036
86,860000,833.8584586163176,-68.72295,0.015036234,-0.0043650423,0.32862622,3.2903018,68.83773,68.768234,68.77243,68.79831,2.6940927505493164,1000.0,19.277969002723694
87,870000,845.2917570246316,-68.09004,0.014832401,-0.011014933,0.24468675,3.7426264,68.193665,68.12308,68.145546,68.15036,2.7065329551696777,1000.0,19.504794824123383
88,880000,854.9766900839725,-68.85635,0.015021293,2.699827e-05,0.3827876,2.9982028,68.90152,68.83421,68.90139,68.86984,2.7922630310058594,1000.0,19.733502880732217
89,890000,840.8796685444477,-66.99283,0.014780627,-0.005111249,0.12125069,3.345807,67.14915,66.98685,67.04228,67.10138,2.708923101425171,1000.0,19.959678399562836
90,900000,862.1559823028081,-69.48432,0.01473616,0.0032373555,0.17106724,2.780312,69.56442,69.51387,69.5253,69.52388,2.7836663722991943,1000.0,20.18644255399704
91,910000,845.6121925986183,-69.037384,0.014354883,-0.00633972,0.12992303,3.4416418,69.02563,69.0432,69.08679,68.98183,2.6342246532440186,1000.0,20.41168394088745
92,920000,835.9109733275785,-68.18799,0.01437877,0.002551592,0.24352017,2.8225446,68.274536,68.19328,68.22857,68.230804,2.6465213298797607,1000.0,20.637159645557404
93,930000,818.8402533198105,-68.42589,0.014182576,0.0002153631,0.16111606,2.984815,68.45167,68.41939,68.468216,68.410965,2.6916701793670654,1000.0,20.863290079434712
94,940000,851.8262058041919,-70.41986,0.014263242,0.0014555333,0.42161375,2.897952,70.49301,70.417145,70.4612,70.45253,2.6284291744232178,1000.0,21.08868339856466
95,950000,848.1848793477129,-70.72511,0.014058457,-0.001503387,1.0294228,3.1069384,70.639084,70.70428,70.76879,70.606094,2.638678789138794,1000.0,21.310956931114198
96,955000,867.5785684621676,-68.85135,0.014478443,0.0024745485,0.11700028,2.8290873,68.92862,68.891785,68.8923,68.88384,2.635573148727417,1000.0,21.444176665941875
97,960000,828.883342099939,-68.23921,0.013839697,0.0056322142,0.15102413,2.593039,68.20843,68.25736,68.2751,68.16222,2.689626455307007,1000.0,21.578858009974162
98,965000,867.3547064042639,-70.406815,0.013738812,-0.00049691345,0.97276366,3.0361686,70.37547,70.39543,70.44853,70.33603,2.5692269802093506,1000.0,21.71193438768387
99,970000,867.3249078440828,-69.781525,0.01444949,-0.0077974475,0.36745945,3.539635,69.87899,69.84009,69.83267,69.84298,2.612123489379883,1000.0,21.84525498946508
100,975000,866.4851371342851,-70.34896,0.014031916,-0.0016577676,1.3507141,3.1181426,70.34927,70.32242,70.392715,70.30394,2.5810110569000244,1000.0,21.978115248680115
101,980000,834.4418902696546,-73.03633,0.014203815,-0.00087446487,0.17390797,3.0615654,73.10834,73.06971,73.07981,73.07665,2.6923742294311523,1000.0,22.11337032318115
102,985000,855.6244893570541,-70.14502,0.014506845,-0.0027763508,0.14543228,3.191382,70.16137,70.20418,70.191315,70.11975,2.64505672454834,1000.0,22.245822004477183
103,990000,867.5810355632817,-71.224174,0.01466166,0.005993926,0.12244269,2.5911837,71.33322,71.230255,71.26216,71.297424,2.67989444732666,1000.0,22.38097958167394
104,995000,835.3381346896986,-71.07201,0.014220545,-0.0057683615,0.5509984,3.4056356,71.135216,71.09508,71.12044,71.09163,2.672921657562256,1000.0,22.514534231026968
105,1000000,863.7030236776866,-70.75992,0.01382429,0.001484022,1.5203484,2.892651,70.756,70.81247,70.79991,70.713,2.678931474685669,1000.0,22.65007572968801
