fuyw/jrlzoo/sac/curves/halfcheetah-v4/sac_s4_20230311_135935.csv
,step,reward,actor_loss,alpha,alpha_loss,critic_loss,logp,next_q,q1,sampled_q,target_q,eval_time,eval_step,time
0,0,-324.97566803266875,,,,,,,,,,,,
1,10000,-283.16825554867864,,,,,,,,,,,,
2,20000,26.373282346194912,-37.581776,0.1056477,0.42476898,2.959114,-1.0206168,37.762825,36.928673,37.47395,37.101753,2.141315460205078,1000.0,0.38358720143636066
3,30000,2059.54003746729,-35.73162,0.02770734,-0.009629886,2.9938405,3.347557,35.46105,35.204994,35.82437,35.041897,2.0921614170074463,1000.0,0.5819315195083619
4,40000,3480.908757239203,-75.09749,0.11009776,0.031497966,6.503643,2.7139091,74.54907,74.187996,75.396286,74.47099,2.1515285968780518,1000.0,0.7808069547017416
5,50000,3678.615996690956,-125.09893,0.12114443,-0.022212114,13.358712,3.1833522,124.54591,124.29174,125.48457,124.66427,2.0778005123138428,1000.0,0.9788807988166809
6,60000,4631.839253787061,-167.14879,0.14741187,0.0051604044,25.969942,2.9649932,166.27112,166.84723,167.58588,166.36865,2.0800695419311523,1000.0,1.1806819359461467
7,70000,4981.345124148508,-186.63943,0.17321993,-0.00122815,21.250566,3.00709,186.32394,186.25781,187.16032,186.40604,2.083768606185913,1000.0,1.3803780873616536
8,80000,5184.131421798034,-215.32077,0.19514133,-0.012622038,26.180603,3.0646815,214.94308,214.79248,215.91881,214.87886,2.0669097900390625,1000.0,1.577861773967743
9,90000,5692.696759434081,-254.6642,0.20268193,-0.07595281,21.238317,3.3747392,254.57626,254.57204,255.34819,254.63553,2.0419116020202637,1000.0,1.7760031421979268
10,100000,5763.269049341775,-267.41898,0.21691242,0.0076319687,21.884636,2.9648156,267.45453,267.52985,268.06207,267.6632,2.0746042728424072,1000.0,1.9754391113917034
11,110000,6053.008355518881,-294.3289,0.23416282,-0.04587086,28.714857,3.195893,293.14136,294.7297,295.07724,293.44296,2.1046383380889893,1000.0,2.176344327131907
12,120000,5797.870849474644,-314.11462,0.24647167,-0.018761102,15.840521,3.0761185,314.023,314.4693,314.8728,314.3963,2.0840506553649902,1000.0,2.3761896888415017
13,130000,6216.986573429527,-317.3941,0.2559923,0.0105738565,20.339874,2.9586947,316.79364,317.21454,318.15152,316.77374,2.073591709136963,1000.0,2.5758668422698974
14,140000,6291.357020876136,-323.16602,0.270525,0.02841957,28.321138,2.8949466,323.06982,323.28528,323.94922,323.11,2.057464838027954,1000.0,2.7777826388676963
15,150000,6440.634179955368,-359.3151,0.27897748,-0.092989534,24.451344,3.3333225,358.77588,359.48077,360.245,359.07043,2.082921028137207,1000.0,2.97849448521932
16,160000,6642.560961589082,-360.94864,0.28558198,0.0008028317,18.773808,2.9971886,360.97913,361.14572,361.80457,361.20767,2.0412657260894775,1000.0,3.1815019965171816
17,170000,6798.2317473658595,-374.89752,0.29649296,-0.12516539,21.93586,3.422153,375.81287,375.62714,375.91217,376.24744,2.147995710372925,1000.0,3.382589797178904
18,180000,6405.985379349745,-378.96942,0.28839687,-0.06287451,17.221836,3.2180138,378.9398,378.82254,379.8975,379.24792,2.025805950164795,1000.0,3.5810566107432047
19,190000,6225.052233265159,-395.7623,0.2996199,-0.18507764,17.214207,3.6177082,396.35312,396.17688,396.84625,396.73172,2.0858707427978516,1000.0,3.7808593034744264
20,200000,6969.8560049370835,-400.8368,0.30802265,0.031196527,20.629684,2.8987203,401.84103,401.48407,401.72968,402.20197,2.0619821548461914,1000.0,3.984266229470571
21,210000,7080.411318800432,-418.8159,0.31263307,-0.11785622,15.7539215,3.3769794,419.4787,419.37305,419.87164,419.89514,2.0519561767578125,1000.0,4.18751228650411
22,220000,7267.103246515129,-411.3968,0.32109448,0.05968133,20.040726,2.8141315,411.26282,411.46924,412.3004,411.52203,2.0837440490722656,1000.0,4.386182888348897
23,230000,7225.975963126775,-425.34094,0.32870495,-0.010785863,17.044497,3.032813,424.68314,425.46628,426.33783,424.99796,2.063819646835327,1000.0,4.586232316493988
24,240000,7320.768329435273,-435.7749,0.33932564,-0.059035774,32.486317,3.1739798,435.5806,435.85892,436.85196,435.7782,2.047743082046509,1000.0,4.7865760366121926
25,250000,7522.331703281505,-430.63977,0.34834725,0.06213174,22.80864,2.8216386,430.81793,431.14575,431.62268,431.2024,2.161266565322876,1000.0,4.989491705099741
26,260000,7661.5774358512235,-457.72757,0.35630628,0.0786589,16.052723,2.7792377,457.9934,458.25168,458.71783,458.47784,2.073254108428955,1000.0,5.1884878993034365
27,270000,7660.475803331967,-463.12857,0.35915712,-0.037281025,18.970387,3.1038013,463.5798,463.43597,464.24335,463.81067,2.107621908187866,1000.0,5.391805350780487
28,280000,7660.0981575154265,-464.3734,0.3619504,0.049831126,16.585804,2.8623261,464.37598,464.91467,465.40942,464.74396,2.079874038696289,1000.0,5.595443101723989
29,290000,7770.762798530925,-466.3988,0.36685145,0.1296477,16.756548,2.6465936,466.77466,467.0226,467.36972,466.99387,2.1570897102355957,1000.0,5.803097581863403
30,300000,7890.938672277209,-481.5938,0.3768298,0.17392948,20.22142,2.5384402,481.24335,482.28027,482.55035,481.6621,2.2165369987487793,1000.0,6.009347319602966
31,310000,8046.3172326234835,-490.52808,0.37652236,0.04059835,20.521427,2.8921754,490.40997,491.07373,491.61703,490.67896,2.128650426864624,1000.0,6.2116190950075785
32,320000,8210.255049500773,-492.22015,0.37914717,0.0661594,19.803984,2.8255045,491.8859,492.14645,493.29144,492.1202,1.9776322841644287,1000.0,6.413994554678599
33,330000,8492.2727684113,-516.06366,0.3778608,-0.092538625,27.643925,3.2449014,516.6361,516.24274,517.2898,516.9871,2.0647945404052734,1000.0,6.615477649370829
34,340000,8542.005634996836,-514.0666,0.3873329,-0.04442254,21.650333,3.1146884,513.26776,514.4213,515.27295,513.4475,2.1034133434295654,1000.0,6.815300675233205
35,350000,8493.331546994861,-532.14716,0.39390203,-0.05616186,41.04198,3.1425784,531.9514,532.7467,533.385,532.3627,2.0488510131835938,1000.0,7.015330914656321
36,360000,8617.610098747518,-544.3877,0.39039585,-0.08844077,25.811506,3.2265413,544.66187,544.83795,545.6474,544.99866,2.0499463081359863,1000.0,7.217136224110921
37,370000,8687.830097017371,-550.69574,0.39673993,0.11226095,19.334343,2.7170415,550.5084,551.43994,551.7737,550.7257,2.0601541996002197,1000.0,7.419058175881704
38,380000,8823.717285866996,-548.1382,0.40391633,0.0111091025,25.245342,2.9724965,547.78186,548.68585,549.33887,547.79205,2.110477924346924,1000.0,7.620315376917521
39,390000,8875.576252678136,-541.1605,0.403554,0.063477755,19.68937,2.8427033,541.56854,541.4861,542.30774,541.62573,2.0362534523010254,1000.0,7.820702350139618
40,400000,9036.502929585376,-564.4364,0.40923852,-0.019055225,26.281977,3.0465627,564.7135,564.4472,565.6831,564.7301,2.0185022354125977,1000.0,8.020268535614013
41,410000,9102.926024989245,-575.1392,0.40840083,-0.15573873,43.9116,3.3813376,575.00354,575.4457,576.5202,575.13824,2.030839204788208,1000.0,8.222714233398438
42,420000,8986.96174422667,-583.69464,0.41437224,0.015779363,69.16089,2.9619198,583.2471,583.9386,584.922,583.42255,2.0666534900665283,1000.0,8.4232146859169
43,430000,9147.392150087082,-569.2265,0.4194538,0.14713745,25.445492,2.6492167,568.56274,569.40234,570.33777,568.5387,2.0486090183258057,1000.0,8.625239539146424
44,440000,9162.23973796855,-585.6112,0.41369224,0.042736035,26.623653,2.896696,586.09485,585.9564,586.8096,586.11597,2.017059087753296,1000.0,8.823168909549713
45,450000,9404.104180633029,-606.63965,0.4223389,0.04173486,26.810562,2.9011817,605.42346,606.43695,607.8649,605.58325,2.2013378143310547,1000.0,9.025502097606658
46,460000,9380.849354277654,-605.0941,0.42260534,-0.19064526,32.793636,3.451119,606.10474,605.79565,606.5525,606.1,2.0698635578155518,1000.0,9.223370214303335
47,470000,9546.553002540628,-607.5255,0.42737156,-0.09862671,27.309954,3.2307749,606.9867,607.92224,608.9063,607.01196,2.127277374267578,1000.0,9.426019616921742
48,480000,9629.22299886263,-625.9442,0.42915338,-0.14820448,21.189598,3.3453414,626.0639,626.5391,627.3799,626.0448,2.064150810241699,1000.0,9.626410587628682
49,490000,9572.332584066056,-616.82776,0.43892008,-0.11986115,27.506577,3.273082,617.73694,616.9112,618.2644,617.54486,2.0873751640319824,1000.0,9.828336270650228
50,500000,9670.415296924317,-626.8293,0.43930337,0.049326345,35.833935,2.8877168,627.57117,627.5712,628.09784,627.5094,2.072869062423706,1000.0,10.029962793986003
51,510000,9955.42805229679,-629.6943,0.44380328,0.0311888,25.305016,2.9297237,631.15686,630.3595,630.9945,631.00195,2.018669605255127,1000.0,10.228811307748158
52,520000,9702.430456257496,-639.76984,0.44261712,0.04615119,37.01349,2.895731,639.59106,639.74005,641.0515,639.49536,2.035616159439087,1000.0,10.428332197666169
53,530000,9770.519526330118,-640.1941,0.45178753,0.039290667,25.198803,2.913033,640.6504,640.973,641.5102,640.67035,2.164985179901123,1000.0,10.629716622829438
54,540000,10035.567678186322,-672.4506,0.44541818,-0.032078966,27.907282,3.0720198,671.9576,673.07043,673.819,672.2174,2.089470148086548,1000.0,10.830039815107982
55,550000,10109.703795377052,-658.82666,0.4540653,0.05816414,20.5939,2.8719037,659.1102,658.7854,660.13074,659.0116,2.166285991668701,1000.0,11.035915509859722
56,560000,9899.288058188058,-667.1614,0.45319486,-0.20242897,25.224792,3.446671,668.348,667.967,668.7233,668.438,2.0518929958343506,1000.0,11.236988615989684
57,570000,9943.946357313065,-670.53455,0.46122077,0.06597438,35.651497,2.856957,671.8147,670.5435,671.8523,671.87744,2.2065367698669434,1000.0,11.440257672468821
58,580000,10215.607090341322,-670.223,0.45862722,-0.063164465,36.462685,3.137725,670.146,670.3989,671.6621,669.9473,2.0026190280914307,1000.0,11.641335022449493
59,590000,10440.487175688668,-688.7749,0.45602757,-0.30648664,46.82302,3.672079,688.5947,689.2786,690.44946,688.78973,2.0284786224365234,1000.0,11.841223553816478
60,600000,10219.001546131944,-694.8168,0.45874712,0.07821697,29.331486,2.8294988,694.76196,694.7232,696.1148,694.82513,2.0766618251800537,1000.0,12.042421686649323
61,610000,10468.061326875675,-689.79517,0.4571404,0.092775784,17.685896,2.797052,690.0342,690.1982,691.0737,690.02844,2.0469937324523926,1000.0,12.243254276116689
62,620000,10666.951646336032,-699.15125,0.4657063,-0.046494596,22.214111,3.0998368,699.60846,699.5455,700.59485,699.5577,2.0849497318267822,1000.0,12.443121059735615
63,630000,10532.62782727264,-692.8425,0.46113318,0.0377332,27.433147,2.9181728,693.43304,692.68933,694.18823,693.36334,2.0975029468536377,1000.0,12.642403817176818
64,640000,10398.840606894199,-706.90967,0.47218612,-0.04579989,25.95396,3.0969954,707.8267,707.4285,708.37195,707.8122,2.081946611404419,1000.0,12.843306088447571
65,650000,10649.265314681421,-709.98895,0.4604692,-0.16819164,65.26424,3.3652616,709.91235,710.87946,711.5386,710.1454,2.086352825164795,1000.0,13.04694990714391
66,660000,10478.121364287714,-693.8798,0.46135643,0.05194831,22.730858,2.8874009,695.048,694.22394,695.2119,694.8081,2.0638411045074463,1000.0,13.24805918931961
67,670000,10494.751693060263,-693.45496,0.47077754,0.12859198,25.256447,2.726852,694.3723,693.577,694.73865,694.001,2.106563091278076,1000.0,13.447480205694834
68,680000,10749.855234954246,-702.84937,0.4745629,-0.09776273,38.13932,3.2060056,703.55835,703.24713,704.3708,703.3845,2.099766969680786,1000.0,13.649187437693278
69,690000,10855.821812959864,-710.149,0.4696744,-0.10994567,29.454624,3.2340894,710.9123,710.4995,711.66797,710.7787,1.998016595840454,1000.0,13.853143874804179
70,700000,10834.366747463435,-719.969,0.47118977,0.027072385,49.562412,2.9425447,720.2524,720.021,721.35547,720.14404,2.0712954998016357,1000.0,14.052764105796815
71,710000,10815.633853120296,-718.37524,0.48145843,-0.0438677,28.35908,3.091114,719.0155,718.8129,719.8635,718.97784,2.034558057785034,1000.0,14.252469233671825
72,720000,10668.633984784383,-712.4546,0.4842079,0.031988047,24.715263,2.9339375,714.07324,713.2337,713.87524,713.8569,2.1024281978607178,1000.0,14.451261794567108
73,730000,10921.154418053371,-733.77185,0.47452685,0.048184317,25.864689,2.8984582,734.1897,734.2297,735.1472,734.18744,2.043278694152832,1000.0,14.651065889994303
74,740000,10292.869692852768,-741.9184,0.4794161,-0.07222982,30.230549,3.150662,742.9546,742.66504,743.4289,742.90454,2.0608551502227783,1000.0,14.851876254876455
75,750000,10934.15980483821,-748.4735,0.48275402,0.2671515,48.82875,2.4466093,747.3634,749.00366,749.65466,747.50574,2.054678440093994,1000.0,15.05213143825531
76,760000,10861.926359378056,-748.0535,0.48842815,0.26858193,40.460358,2.4501097,747.372,748.28375,749.25024,747.4939,2.0377821922302246,1000.0,15.252999564011892
77,770000,10918.050515618537,-734.0567,0.48186296,0.13042969,39.890274,2.729322,733.56445,734.5479,735.3718,733.56885,2.116884231567383,1000.0,15.454783415794372
78,780000,10868.214526411228,-752.60095,0.48850775,0.1539837,26.316685,2.6847878,753.68744,753.411,753.9124,753.7916,2.0667428970336914,1000.0,15.654889818032583
79,790000,10822.254447579453,-744.52576,0.48209694,0.06509639,29.151428,2.8649724,744.89136,744.7788,745.907,744.84,2.0849695205688477,1000.0,15.856821993986765
80,800000,11082.882441949163,-762.77893,0.48815683,0.06442061,33.127537,2.868033,763.0169,763.3429,764.17896,763.14655,2.073782444000244,1000.0,16.058763138453166
81,810000,11119.644545294776,-759.1702,0.48919088,0.055680797,23.643389,2.8861778,759.82166,759.5221,760.58215,759.793,2.103100538253784,1000.0,16.256832897663116
82,820000,11191.221509642735,-761.5561,0.49414274,-0.18314059,39.00123,3.3706229,762.42303,762.42957,763.2217,762.49023,2.0947608947753906,1000.0,16.462945433457694
83,830000,11239.179963675084,-756.16394,0.49700454,0.000393942,30.036999,2.9992075,755.4596,756.13416,757.65454,755.3438,2.1903634071350098,1000.0,16.66525725920995
84,840000,10636.872963359201,-755.42126,0.49328178,0.12910528,36.46415,2.7382727,755.78876,756.20245,756.772,755.8856,2.100800037384033,1000.0,16.865316534042357
85,850000,11127.763129403289,-758.27313,0.49456456,0.1908344,34.43615,2.6141365,759.0662,758.78143,759.566,759.14624,2.101555347442627,1000.0,17.063324026266734
86,860000,11147.39943952204,-767.2114,0.49730346,0.08539209,58.41349,2.8282897,767.7609,767.9193,768.618,767.817,2.1409339904785156,1000.0,17.264462065696716
87,870000,11301.1437653513,-782.5125,0.48858327,0.014441978,41.413193,2.9704413,782.4429,782.99866,783.96387,782.60046,2.04303240776062,1000.0,17.46677299340566
88,880000,11080.280536038117,-791.3792,0.4936108,-0.11615104,34.93063,3.2353091,791.42737,792.16766,792.9762,791.6875,2.0701305866241455,1000.0,17.667006357510886
89,890000,11086.799587024647,-773.6056,0.49929363,-0.016008295,38.74968,3.0320618,775.292,774.636,775.1195,775.23645,2.0900909900665283,1000.0,17.86508875687917
90,900000,11112.174687240587,-774.3043,0.4958465,-0.011637792,37.32956,3.0234706,774.9591,775.05664,775.80347,774.8677,2.007378339767456,1000.0,18.065462573369345
91,910000,11076.236932321617,-787.4348,0.50254446,0.14915268,49.361717,2.703205,786.13696,788.0059,788.79333,786.3634,2.0573811531066895,1000.0,18.26682714223862
92,920000,11603.69416267447,-787.84534,0.49732202,0.10859616,31.08693,2.7816381,788.8241,788.59564,789.22864,788.8552,2.052751302719116,1000.0,18.464041515191397
93,930000,11177.378258138935,-779.8985,0.5020948,-0.09680476,58.157623,3.1928017,779.912,780.3572,781.5016,779.9155,2.1189441680908203,1000.0,18.665347305933633
94,940000,11163.326337052908,-790.37537,0.4961782,-0.016694982,25.596596,3.0336473,790.3146,790.74695,791.8806,790.4531,2.0354318618774414,1000.0,18.863492659727733
95,950000,11393.989953795668,-789.94385,0.5028147,-0.059550505,36.017704,3.1184342,790.85486,790.95667,791.5118,791.06824,2.060464859008789,1000.0,19.063425187269846
96,955000,11501.480231695004,-798.09467,0.50166935,0.0235086,41.10527,2.9531393,797.4491,798.56006,799.5762,797.82086,2.065190553665161,1000.0,19.181752880414326
97,960000,10777.767497319115,-788.6572,0.49853796,-0.029701851,62.5315,3.059578,788.50146,788.8916,790.1826,788.61224,2.0608296394348145,1000.0,19.296958768367766
98,965000,11455.192473534033,-793.07886,0.5015355,-0.21747792,27.722809,3.4336243,794.4767,794.2267,794.80096,794.667,2.092010259628296,1000.0,19.41614790757497
99,970000,11346.49761403959,-790.4712,0.49546054,0.07482995,42.67776,2.848969,790.99506,791.0327,791.88275,791.0334,2.005934000015259,1000.0,19.532353150844575
100,975000,11432.874887961869,-793.8482,0.5012538,-0.108559184,39.247593,3.2165751,794.6626,794.8713,795.4605,794.6871,2.113877296447754,1000.0,19.650635039806367
101,980000,11678.52340619059,-799.9986,0.5008572,0.0350444,55.965153,2.9300313,799.4558,800.3484,801.46606,799.5733,2.09755802154541,1000.0,19.771258580684663
102,985000,11144.845429729581,-800.19684,0.49722546,-0.13203554,30.417645,3.2655447,801.30615,800.9717,801.82056,801.58374,2.0344018936157227,1000.0,19.887945735454558
103,990000,11441.846079303084,-800.876,0.4973595,-0.053907633,77.626564,3.1083877,800.3746,801.30707,802.422,800.5783,2.115104913711548,1000.0,20.00596351623535
104,995000,11620.793891927748,-802.0032,0.49452168,0.026489079,35.994152,2.946435,802.2804,802.72,803.4602,802.3584,2.065441131591797,1000.0,20.12362627585729
105,1000000,11517.763810991735,-793.6629,0.50415426,0.1317582,33.190105,2.738655,793.8894,794.6046,795.0436,793.90784,2.028852939605713,1000.0,20.238976164658865
